luts/black_white.cube
LUT_3D_SIZE 5
0 0 0
0.0256352 0.0256352 0.0256352
0.0536049 0.0536049 0.0536049
0.0960708 0.0960708 0.0960708
0.165087 0.165087 0.165087
0.116579 0.116579 0.116579
0.195148 0.195148 0.195148
0.283406 0.283406 0.283406
0.371893 0.371893 0.371893
0.462196 0.462196 0.462196
0.401007 0.401007 0.401007
0.490471 0.490471 0.490471
0.574746 0.574746 0.574746
0.650187 0.650187 0.650187
0.713863 0.713863 0.713863
0.673579 0.673579 0.673579
0.73286 0.73286 0.73286
0.781338 0.781338 0.781338
0.821515 0.821515 0.821515
0.855467 0.855467 0.855467
0.834928 0.834928 0.834928
0.866819 0.866819 0.866819
0.894423 0.894423 0.894423
0.920226 0.920226 0.920226
0.945647 0.945647 0.945647
0.0131991 0.0131991 0.0131991
0.0387732 0.0387732 0.0387732
0.0700389 0.0700389 0.0700389
0.120317 0.120317 0.120317
0.198566 0.198566 0.198566
0.144579 0.144579 0.144579
0.229908 0.229908 0.229908
0.317281 0.317281 0.317281
0.406821 0.406821 0.406821
0.496605 0.496605 0.496605
0.435935 0.435935 0.435935
0.5243 0.5243 0.5243
0.605936 0.605936 0.605936
0.677333 0.677333 0.677333
0.737148 0.737148 0.737148
0.69926 0.69926 0.69926
0.754849 0.754849 0.754849
0.800183 0.800183 0.800183
0.837842 0.837842 0.837842
0.870115 0.870115 0.870115
0.850584 0.850584 0.850584
0.880995 0.880995 0.880995
0.907652 0.907652 0.907652
0.933059 0.933059 0.933059
0.958633 0.958633 0.958633
0.0293431 0.0293431 0.0293431
0.0558022 0.0558022 0.0558022
0.0918593 0.0918593 0.0918593
0.151263 0.151263 0.151263
0.236484 0.236484 0.236484
0.179171 0.179171 0.179171
0.267842 0.267842 0.267842
0.354894 0.354894 0.354894
0.444938 0.444938 0.444938
0.533669 0.533669 0.533669
0.473854 0.473854 0.473854
0.560601 0.560601 0.560601
0.639063 0.639063 0.639063
0.706294 0.706294 0.706294
0.762417 0.762417 0.762417
0.726818 0.726818 0.726818
0.778912 0.778912 0.778912
0.821256 0.821256 0.821256
0.856733 0.856733 0.856733
0.88751 0.88751 0.88751
0.868864 0.868864 0.868864
0.897978 0.897978 0.897978
0.923873 0.923873 0.923873
0.949065 0.949065 0.949065
0.97496 0.97496 0.97496
0.042237 0.042237 0.042237
0.0708324 0.0708324 0.0708324
0.113237 0.113237 0.113237
0.182513 0.182513 0.182513
0.271321 0.271321 0.271321
0.21294 0.21294 0.21294
0.30161 0.30161 0.30161
0.389715 0.389715 0.389715
0.479744 0.479744 0.479744
0.566903 0.566903 0.566903
0.508247 0.508247 0.508247
0.592859 0.592859 0.592859
0.667628 0.667628 0.667628
0.730816 0.730816 0.730816
0.783413 0.783413 0.783413
0.749996 0.749996 0.749996
0.798764 0.798764 0.798764
0.838331 0.838331 0.838331
0.871916 0.871916 0.871916
0.901381 0.901381 0.901381
0.883513 0.883513 0.883513
0.911513 0.911513 0.911513
0.936843 0.936843 0.936843
0.96199 0.96199 0.96199
0.988403 0.988403 0.988403
0.0535897 0.0535897 0.0535897
0.0855573 0.0855573 0.0855573
0.135851 0.135851 0.135851
0.214267 0.214267 0.214267
0.303288 0.303288 0.303288
0.24593 0.24593 0.24593
0.33373 0.33373 0.33373
0.422843 0.422843 0.422843
0.512322 0.512322 0.512322
0.59736 0.59736 0.59736
0.54023 0.54023 0.54023
0.622171 0.622171 0.622171
0.692882 0.692882 0.692882
0.752224 0.752224 0.752224
0.80148 0.80148 0.80148
0.770123 0.770123 0.770123
0.815732 0.815732 0.815732
0.852811 0.852811 0.852811
0.884733 0.884733 0.884733
0.913069 0.913069 0.913069
0.895857 0.895857 0.895857
0.922927 0.922927 0.922927
0.94786 0.94786 0.94786
0.973159 0.973159 0.973159
1 1 1
