luts/black_white.cube
LUT_3D_SIZE 9
0 0 0
0.0131533 0.0131533 0.0131533
0.0256352 0.0256352 0.0256352
0.0386206 0.0386206 0.0386206
0.0536049 0.0536049 0.0536049
0.0721294 0.0721294 0.0721294
0.0960708 0.0960708 0.0960708
0.126772 0.126772 0.126772
0.165087 0.165087 0.165087
0.0440681 0.0440681 0.0440681
0.060441 0.060441 0.060441
0.0806287 0.0806287 0.0806287
0.106538 0.106538 0.106538
0.139651 0.139651 0.139651
0.180117 0.180117 0.180117
0.224643 0.224643 0.224643
0.269322 0.269322 0.269322
0.31281 0.31281 0.31281
0.116579 0.116579 0.116579
0.15285 0.15285 0.15285
0.195148 0.195148 0.195148
0.239826 0.239826 0.239826
0.283406 0.283406 0.283406
0.327092 0.327092 0.327092
0.371893 0.371893 0.371893
0.417136 0.417136 0.417136
0.462196 0.462196 0.462196
0.254124 0.254124 0.254124
0.297581 0.297581 0.297581
0.34165 0.34165 0.34165
0.386328 0.386328 0.386328
0.431235 0.431235 0.431235
0.475868 0.475868 0.475868
0.519677 0.519677 0.519677
0.562005 0.562005 0.562005
0.602228 0.602228 0.602228
0.401007 0.401007 0.401007
0.446159 0.446159 0.446159
0.490471 0.490471 0.490471
0.533471 0.533471 0.533471
0.574746 0.574746 0.574746
0.61384 0.61384 0.61384
0.650187 0.650187 0.650187
0.683482 0.683482 0.683482
0.713863 0.713863 0.713863
0.547906 0.547906 0.547906
0.588739 0.588739 0.588739
0.626795 0.626795 0.626795
0.661677 0.661677 0.661677
0.693553 0.693553 0.693553
0.722713 0.722713 0.722713
0.749371 0.749371 0.749371
0.773632 0.773632 0.773632
0.795621 0.795621 0.795621
0.673579 0.673579 0.673579
0.704723 0.704723 0.704723
0.73286 0.73286 0.73286
0.758267 0.758267 0.758267
0.781338 0.781338 0.781338
0.80235 0.80235 0.80235
0.821515 0.821515 0.821515
0.839139 0.839139 0.839139
0.855467 0.855467 0.855467
0.767269 0.767269 0.767269
0.789853 0.789853 0.789853
0.810056 0.810056 0.810056
0.828275 0.828275 0.828275
0.84506 0.84506 0.84506
0.860761 0.860761 0.860761
0.875547 0.875547 0.875547
0.889586 0.889586 0.889586
0.902983 0.902983 0.902983
0.834928 0.834928 0.834928
0.851575 0.851575 0.851575
0.866819 0.866819 0.866819
0.88098 0.88098 0.88098
0.894423 0.894423 0.894423
0.907439 0.907439 0.907439
0.920226 0.920226 0.920226
0.932921 0.932921 0.932921
0.945647 0.945647 0.945647
0.00572213 0.00572213 0.00572213
0.0187533 0.0187533 0.0187533
0.0312963 0.0312963 0.0312963
0.0448157 0.0448157 0.0448157
0.0607767 0.0607767 0.0607767
0.0808881 0.0808881 0.0808881
0.10695 0.10695 0.10695
0.140215 0.140215 0.140215
0.180758 0.180758 0.180758
0.0505684 0.0505684 0.0505684
0.0680858 0.0680858 0.0680858
0.0901045 0.0901045 0.0901045
0.118303 0.118303 0.118303
0.154055 0.154055 0.154055
0.196292 0.196292 0.196292
0.241276 0.241276 0.241276
0.285237 0.285237 0.285237
0.329107 0.329107 0.329107
0.129274 0.129274 0.129274
0.168048 0.168048 0.168048
0.211627 0.211627 0.211627
0.256306 0.256306 0.256306
0.299428 0.299428 0.299428
0.343526 0.343526 0.343526
0.38851 0.38851 0.38851
0.433753 0.433753 0.433753
0.47863 0.47863 0.47863
0.270268 0.270268 0.270268
0.313787 0.313787 0.313787
0.35816 0.35816 0.35816
0.402975 0.402975 0.402975
0.447791 0.447791 0.447791
0.49218 0.49218 0.49218
0.535531 0.535531 0.535531
0.577203 0.577203 0.577203
0.616571 0.616571 0.616571
0.417639 0.417639 0.417639
0.462654 0.462654 0.462654
0.50663 0.50663 0.50663
0.549096 0.549096 0.549096
0.589639 0.589639 0.589639
0.627832 0.627832 0.627832
0.663096 0.663096 0.663096
0.695384 0.695384 0.695384
0.724834 0.724834 0.724834
0.563302 0.563302 0.563302
0.603342 0.603342 0.603342
0.640406 0.640406 0.640406
0.67422 0.67422 0.67422
0.705104 0.705104 0.705104
0.733349 0.733349 0.733349
0.759136 0.759136 0.759136
0.782605 0.782605 0.782605
0.803876 0.803876 0.803876
0.685756 0.685756 0.685756
0.715938 0.715938 0.715938
0.74316 0.74316 0.74316
0.767758 0.767758 0.767758
0.790051 0.790051 0.790051
0.810361 0.810361 0.810361
0.828931 0.828931 0.828931
0.846082 0.846082 0.846082
0.862013 0.862013 0.862013
0.776455 0.776455 0.776455
0.798291 0.798291 0.798291
0.817838 0.817838 0.817838
0.835508 0.835508 0.835508
0.85185 0.85185 0.85185
0.867185 0.867185 0.867185
0.881666 0.881666 0.881666
0.89546 0.89546 0.89546
0.908705 0.908705 0.908705
0.841993 0.841993 0.841993
0.858228 0.858228 0.858228
0.873137 0.873137 0.873137
0.887007 0.887007 0.887007
0.900221 0.900221 0.900221
0.9131 0.9131 0.9131
0.925811 0.925811 0.925811
0.938491 0.938491 0.938491
0.951293 0.951293 0.951293
0.0131991 0.0131991 0.0131991
0.0260014 0.0260014 0.0260014
0.0387732 0.0387732 0.0387732
0.0529488 0.0529488 0.0529488
0.0700389 0.0700389 0.0700389
0.0919814 0.0919814 0.0919814
0.120317 0.120317 0.120317
0.156237 0.156237 0.156237
0.198566 0.198566 0.198566
0.0590677 0.0590677 0.0590677
0.0779583 0.0779583 0.0779583
0.101976 0.101976 0.101976
0.132616 0.132616 0.132616
0.170871 0.170871 0.170871
0.21442 0.21442 0.21442
0.259419 0.259419 0.259419
0.302922 0.302922 0.302922
0.347189 0.347189 0.347189
0.144579 0.144579 0.144579
0.185489 0.185489 0.185489
0.229908 0.229908 0.229908
0.274144 0.274144 0.274144
0.317281 0.317281 0.317281
0.3617 0.3617 0.3617
0.406821 0.406821 0.406821
0.452003 0.452003 0.452003
0.496605 0.496605 0.496605
0.287831 0.287831 0.287831
0.331777 0.331777 0.331777
0.37641 0.37641 0.37641
0.421286 0.421286 0.421286
0.465965 0.465965 0.465965
0.510018 0.510018 0.510018
0.552834 0.552834 0.552834
0.59379 0.59379 0.59379
0.632258 0.632258 0.632258
0.435935 0.435935 0.435935
0.48072 0.48072 0.48072
0.5243 0.5243 0.5243
0.566171 0.566171 0.566171
0.605936 0.605936 0.605936
0.643122 0.643122 0.643122
0.677333 0.677333 0.677333
0.708629 0.708629 0.708629
0.737148 0.737148 0.737148
0.580102 0.580102 0.580102
0.619287 0.619287 0.619287
0.655299 0.655299 0.655299
0.68809 0.68809 0.68809
0.717998 0.717998 0.717998
0.745357 0.745357 0.745357
0.770306 0.770306 0.770306
0.792996 0.792996 0.792996
0.813581 0.813581 0.813581
0.69926 0.69926 0.69926
0.728496 0.728496 0.728496
0.754849 0.754849 0.754849
0.778622 0.778622 0.778622
0.800183 0.800183 0.800183
0.819821 0.819821 0.819821
0.837842 0.837842 0.837842
0.854566 0.854566 0.854566
0.870115 0.870115 0.870115
0.78706 0.78706 0.78706
0.808179 0.808179 0.808179
0.82707 0.82707 0.82707
0.844251 0.844251 0.844251
0.860182 0.860182 0.860182
0.875166 0.875166 0.875166
0.889372 0.889372 0.889372
0.902953 0.902953 0.902953
0.916045 0.916045 0.916045
0.850584 0.850584 0.850584
0.866423 0.866423 0.866423
0.880995 0.880995 0.880995
0.894621 0.894621 0.894621
0.907652 0.907652 0.907652
0.920409 0.920409 0.920409
0.933059 0.933059 0.933059
0.945754 0.945754 0.945754
0.958633 0.958633 0.958633
0.0214084 0.0214084 0.0214084
0.0341344 0.0341344 0.0341344
0.0472725 0.0472725 0.0472725
0.0622873 0.0622873 0.0622873
0.0807507 0.0807507 0.0807507
0.104662 0.104662 0.104662
0.135439 0.135439 0.135439
0.173877 0.173877 0.173877
0.217548 0.217548 0.217548
0.0688029 0.0688029 0.0688029
0.0893263 0.0893263 0.0893263
0.115496 0.115496 0.115496
0.148714 0.148714 0.148714
0.189151 0.189151 0.189151
0.233585 0.233585 0.233585
0.278157 0.278157 0.278157
0.32163 0.32163 0.32163
0.366232 0.366232 0.366232
0.161624 0.161624 0.161624
0.204242 0.204242 0.204242
0.249073 0.249073 0.249073
0.292561 0.292561 0.292561
0.336141 0.336141 0.336141
0.380819 0.380819 0.380819
0.426001 0.426001 0.426001
0.471046 0.471046 0.471046
0.515328 0.515328 0.515328
0.306432 0.306432 0.306432
0.350744 0.350744 0.350744
0.395575 0.395575 0.395575
0.440436 0.440436 0.440436
0.484916 0.484916 0.484916
0.528572 0.528572 0.528572
0.570794 0.570794 0.570794
0.610971 0.610971 0.610971
0.648432 0.648432 0.648432
0.455024 0.455024 0.455024
0.49955 0.49955 0.49955
0.542657 0.542657 0.542657
0.583871 0.583871 0.583871
0.622766 0.622766 0.622766
0.658915 0.658915 0.658915
0.692088 0.692088 0.692088
0.722423 0.722423 0.722423
0.750027 0.750027 0.750027
0.597513 0.597513 0.597513
0.635752 0.635752 0.635752
0.67071 0.67071 0.67071
0.702495 0.702495 0.702495
0.731456 0.731456 0.731456
0.757931 0.757931 0.757931
0.782071 0.782071 0.782071
0.804013 0.804013 0.804013
0.823911 0.823911 0.823911
0.713314 0.713314 0.713314
0.741619 0.741619 0.741619
0.767132 0.767132 0.767132
0.790112 0.790112 0.790112
0.810941 0.810941 0.810941
0.829938 0.829938 0.829938
0.847471 0.847471 0.847471
0.863767 0.863767 0.863767
0.878981 0.878981 0.878981
0.798276 0.798276 0.798276
0.818692 0.818692 0.818692
0.837003 0.837003 0.837003
0.853727 0.853727 0.853727
0.869261 0.869261 0.869261
0.883909 0.883909 0.883909
0.897856 0.897856 0.897856
0.911238 0.911238 0.911238
0.924208 0.924208 0.924208
0.859907 0.859907 0.859907
0.875364 0.875364 0.875364
0.889647 0.889647 0.889647
0.903029 0.903029 0.903029
0.915892 0.915892 0.915892
0.928542 0.928542 0.928542
0.941161 0.941161 0.941161
0.953902 0.953902 0.953902
0.966873 0.966873 0.966873
0.0293431 0.0293431 0.0293431
0.0421302 0.0421302 0.0421302
0.0558022 0.0558022 0.0558022
0.0717937 0.0717937 0.0717937
0.0918593 0.0918593 0.0918593
0.117906 0.117906 0.117906
0.151263 0.151263 0.151263
0.191897 0.191897 0.191897
0.236484 0.236484 0.236484
0.0787976 0.0787976 0.0787976
0.101167 0.101167 0.101167
0.129625 0.129625 0.129625
0.165484 0.165484 0.165484
0.20766 0.20766 0.20766
0.252522 0.252522 0.252522
0.296376 0.296376 0.296376
0.340276 0.340276 0.340276
0.385138 0.385138 0.385138
0.179171 0.179171 0.179171
0.223056 0.223056 0.223056
0.267842 0.267842 0.267842
0.310933 0.310933 0.310933
0.354894 0.354894 0.354894
0.399771 0.399771 0.399771
0.444938 0.444938 0.444938
0.489784 0.489784 0.489784
0.533669 0.533669 0.533669
0.324956 0.324956 0.324956
0.369589 0.369589 0.369589
0.414542 0.414542 0.414542
0.459327 0.459327 0.459327
0.503548 0.503548 0.503548
0.546731 0.546731 0.546731
0.588296 0.588296 0.588296
0.627619 0.627619 0.627619
0.664042 0.664042 0.664042
0.473854 0.473854 0.473854
0.518029 0.518029 0.518029
0.560601 0.560601 0.560601
0.601083 0.601083 0.601083
0.639063 0.639063 0.639063
0.674144 0.674144 0.674144
0.706294 0.706294 0.706294
0.735683 0.735683 0.735683
0.762417 0.762417 0.762417
0.61442 0.61442 0.61442
0.651652 0.651652 0.651652
0.685557 0.685557 0.685557
0.71635 0.71635 0.71635
0.744396 0.744396 0.744396
0.770016 0.770016 0.770016
0.793362 0.793362 0.793362
0.814588 0.814588 0.814588
0.833829 0.833829 0.833829
0.726818 0.726818 0.726818
0.754238 0.754238 0.754238
0.778912 0.778912 0.778912
0.801129 0.801129 0.801129
0.821256 0.821256 0.821256
0.839658 0.839658 0.839658
0.856733 0.856733 0.856733
0.872633 0.872633 0.872633
0.88751 0.88751 0.88751
0.809033 0.809033 0.809033
0.828779 0.828779 0.828779
0.846555 0.846555 0.846555
0.862837 0.862837 0.862837
0.877989 0.877989 0.877989
0.892348 0.892348 0.892348
0.90605 0.90605 0.90605
0.91928 0.91928 0.91928
0.932143 0.932143 0.932143
0.868864 0.868864 0.868864
0.883986 0.883986 0.883986
0.897978 0.897978 0.897978
0.911162 0.911162 0.911162
0.923873 0.923873 0.923873
0.936461 0.936461 0.936461
0.949065 0.949065 0.949065
0.961852 0.961852 0.961852
0.97496 0.97496 0.97496
0.0362249 0.0362249 0.0362249
0.0492561 0.0492561 0.0492561
0.0635996 0.0635996 0.0635996
0.0807355 0.0807355 0.0807355
0.102632 0.102632 0.102632
0.130968 0.130968 0.130968
0.166964 0.166964 0.166964
0.209369 0.209369 0.209369
0.254429 0.254429 0.254429
0.0883497 0.0883497 0.0883497
0.112718 0.112718 0.112718
0.143633 0.143633 0.143633
0.181979 0.181979 0.181979
0.225452 0.225452 0.225452
0.270298 0.270298 0.270298
0.313726 0.313726 0.313726
0.358007 0.358007 0.358007
0.403067 0.403067 0.403067
0.196292 0.196292 0.196292
0.241001 0.241001 0.241001
0.285313 0.285313 0.285313
0.328435 0.328435 0.328435
0.372732 0.372732 0.372732
0.417716 0.417716 0.417716
0.462821 0.462821 0.462821
0.507408 0.507408 0.507408
0.550835 0.550835 0.550835
0.342596 0.342596 0.342596
0.387488 0.387488 0.387488
0.432486 0.432486 0.432486
0.477134 0.477134 0.477134
0.521019 0.521019 0.521019
0.563668 0.563668 0.563668
0.604517 0.604517 0.604517
0.642924 0.642924 0.642924
0.678279 0.678279 0.678279
0.491554 0.491554 0.491554
0.535332 0.535332 0.535332
0.57731 0.57731 0.57731
0.616983 0.616983 0.616983
0.653971 0.653971 0.653971
0.687999 0.687999 0.687999
0.719173 0.719173 0.719173
0.747631 0.747631 0.747631
0.77351 0.77351 0.77351
0.629984 0.629984 0.629984
0.666178 0.666178 0.666178
0.699046 0.699046 0.699046
0.728878 0.728878 0.728878
0.756024 0.756024 0.756024
0.780804 0.780804 0.780804
0.803388 0.803388 0.803388
0.823911 0.823911 0.823911
0.842557 0.842557 0.842557
0.73901 0.73901 0.73901
0.76556 0.76556 0.76556
0.78941 0.78941 0.78941
0.810895 0.810895 0.810895
0.83035 0.83035 0.83035
0.848219 0.848219 0.848219
0.864836 0.864836 0.864836
0.880369 0.880369 0.880369
0.894942 0.894942 0.894942
0.81854 0.81854 0.81854
0.837644 0.837644 0.837644
0.854932 0.854932 0.854932
0.870802 0.870802 0.870802
0.885618 0.885618 0.885618
0.899672 0.899672 0.899672
0.913176 0.913176 0.913176
0.926253 0.926253 0.926253
0.93904 0.93904 0.93904
0.876707 0.876707 0.876707
0.891493 0.891493 0.891493
0.905241 0.905241 0.905241
0.918227 0.918227 0.918227
0.930816 0.930816 0.930816
0.943343 0.943343 0.943343
0.955978 0.955978 0.955978
0.968841 0.968841 0.968841
0.982101 0.982101 0.982101
0.042237 0.042237 0.042237
0.0556497 0.0556497 0.0556497
0.0708324 0.0708324 0.0708324
0.0893416 0.0893416 0.0893416
0.113237 0.113237 0.113237
0.143999 0.143999 0.143999
0.182513 0.182513 0.182513
0.226246 0.226246 0.226246
0.271321 0.271321 0.271321
0.0976272 0.0976272 0.0976272
0.124163 0.124163 0.124163
0.157656 0.157656 0.157656
0.198169 0.198169 0.198169
0.242481 0.242481 0.242481
0.286885 0.286885 0.286885
0.330327 0.330327 0.330327
0.374929 0.374929 0.374929
0.420111 0.420111 0.420111
0.21294 0.21294 0.21294
0.258015 0.258015 0.258015
0.30161 0.30161 0.30161
0.345174 0.345174 0.345174
0.389715 0.389715 0.389715
0.43476 0.43476 0.43476
0.479744 0.479744 0.479744
0.523995 0.523995 0.523995
0.566903 0.566903 0.566903
0.359457 0.359457 0.359457
0.404532 0.404532 0.404532
0.449516 0.449516 0.449516
0.49395 0.49395 0.49395
0.537438 0.537438 0.537438
0.579492 0.579492 0.579492
0.619547 0.619547 0.619547
0.656962 0.656962 0.656962
0.691264 0.691264 0.691264
0.508247 0.508247 0.508247
0.551568 0.551568 0.551568
0.592859 0.592859 0.592859
0.631678 0.631678 0.631678
0.667628 0.667628 0.667628
0.700603 0.700603 0.700603
0.730816 0.730816 0.730816
0.758373 0.758373 0.758373
0.783413 0.783413 0.783413
0.644312 0.644312 0.644312
0.679438 0.679438 0.679438
0.711299 0.711299 0.711299
0.740185 0.740185 0.740185
0.766461 0.766461 0.766461
0.790417 0.790417 0.790417
0.812268 0.812268 0.812268
0.83212 0.83212 0.83212
0.850217 0.850217 0.850217
0.749996 0.749996 0.749996
0.775692 0.775692 0.775692
0.798764 0.798764 0.798764
0.819516 0.819516 0.819516
0.838331 0.838331 0.838331
0.855711 0.855711 0.855711
0.871916 0.871916 0.871916
0.887098 0.887098 0.887098
0.901381 0.901381 0.901381
0.826917 0.826917 0.826917
0.845441 0.845441 0.845441
0.862272 0.862272 0.862272
0.877745 0.877745 0.877745
0.892226 0.892226 0.892226
0.906035 0.906035 0.906035
0.919341 0.919341 0.919341
0.932296 0.932296 0.932296
0.945022 0.945022 0.945022
0.883513 0.883513 0.883513
0.898009 0.898009 0.898009
0.911513 0.911513 0.911513
0.924331 0.924331 0.924331
0.936843 0.936843 0.936843
0.949325 0.949325 0.949325
0.96199 0.96199 0.96199
0.974975 0.974975 0.974975
0.988403 0.988403 0.988403
0.0478828 0.0478828 0.0478828
0.0618296 0.0618296 0.0618296
0.0780041 0.0780041 0.0780041
0.0981308 0.0981308 0.0981308
0.124163 0.124163 0.124163
0.157519 0.157519 0.157519
0.198199 0.198199 0.198199
0.242817 0.242817 0.242817
0.28748 0.28748 0.28748
0.107149 0.107149 0.107149
0.135973 0.135973 0.135973
0.172107 0.172107 0.172107
0.214328 0.214328 0.214328
0.259068 0.259068 0.259068
0.302754 0.302754 0.302754
0.346609 0.346609 0.346609
0.39147 0.39147 0.39147
0.436728 0.436728 0.436728
0.229404 0.229404 0.229404
0.274418 0.274418 0.274418
0.317632 0.317632 0.317632
0.361578 0.361578 0.361578
0.406302 0.406302 0.406302
0.451347 0.451347 0.451347
0.496117 0.496117 0.496117
0.539971 0.539971 0.539971
0.582284 0.582284 0.582284
0.375937 0.375937 0.375937
0.421134 0.421134 0.421134
0.466041 0.466041 0.466041
0.510216 0.510216 0.510216
0.553231 0.553231 0.553231
0.594629 0.594629 0.594629
0.633829 0.633829 0.633829
0.670176 0.670176 0.670176
0.703456 0.703456 0.703456
0.524361 0.524361 0.524361
0.567132 0.567132 0.567132
0.607691 0.607691 0.607691
0.645594 0.645594 0.645594
0.680461 0.680461 0.680461
0.712444 0.712444 0.712444
0.741711 0.741711 0.741711
0.768383 0.768383 0.768383
0.792615 0.792615 0.792615
0.657832 0.657832 0.657832
0.691905 0.691905 0.691905
0.722774 0.722774 0.722774
0.750744 0.750744 0.750744
0.776165 0.776165 0.776165
0.799344 0.799344 0.799344
0.820462 0.820462 0.820462
0.839658 0.839658 0.839658
0.857282 0.857282 0.857282
0.760235 0.760235 0.760235
0.785092 0.785092 0.785092
0.807416 0.807416 0.807416
0.827466 0.827466 0.827466
0.845685 0.845685 0.845685
0.862608 0.862608 0.862608
0.878416 0.878416 0.878416
0.893263 0.893263 0.893263
0.907301 0.907301 0.907301
0.834623 0.834623 0.834623
0.852613 0.852613 0.852613
0.869001 0.869001 0.869001
0.884108 0.884108 0.884108
0.898299 0.898299 0.898299
0.911864 0.911864 0.911864
0.925017 0.925017 0.925017
0.937865 0.937865 0.937865
0.950561 0.950561 0.950561
0.889769 0.889769 0.889769
0.90399 0.90399 0.90399
0.917281 0.917281 0.917281
0.929961 0.929961 0.929961
0.942382 0.942382 0.942382
0.954864 0.954864 0.954864
0.96759 0.96759 0.96759
0.980697 0.980697 0.980697
0.994324 0.994324 0.994324
0.0535897 0.0535897 0.0535897
0.0682231 0.0682231 0.0682231
0.0855573 0.0855573 0.0855573
0.10753 0.10753 0.10753
0.135851 0.135851 0.135851
0.171847 0.171847 0.171847
0.214267 0.214267 0.214267
0.259342 0.259342 0.259342
0.303288 0.303288 0.303288
0.117327 0.117327 0.117327
0.148608 0.148608 0.148608
0.187228 0.187228 0.187228
0.230716 0.230716 0.230716
0.27541 0.27541 0.27541
0.318685 0.318685 0.318685
0.362921 0.362921 0.362921
0.40798 0.40798 0.40798
0.453239 0.453239 0.453239
0.24593 0.24593 0.24593
0.29044 0.29044 0.29044
0.33373 0.33373 0.33373
0.377997 0.377997 0.377997
0.422843 0.422843 0.422843
0.467811 0.467811 0.467811
0.512322 0.512322 0.512322
0.555703 0.555703 0.555703
0.59736 0.59736 0.59736
0.392432 0.392432 0.392432
0.437675 0.437675 0.437675
0.482429 0.482429 0.482429
0.526268 0.526268 0.526268
0.56875 0.56875 0.56875
0.609415 0.609415 0.609415
0.647684 0.647684 0.647684
0.682979 0.682979 0.682979
0.715236 0.715236 0.715236
0.54023 0.54023 0.54023
0.582406 0.582406 0.582406
0.622171 0.622171 0.622171
0.659068 0.659068 0.659068
0.692882 0.692882 0.692882
0.723873 0.723873 0.723873
0.752224 0.752224 0.752224
0.778042 0.778042 0.778042
0.80148 0.80148 0.80148
0.670924 0.670924 0.670924
0.70396 0.70396 0.70396
0.733867 0.733867 0.733867
0.760937 0.760937 0.760937
0.785519 0.785519 0.785519
0.807935 0.807935 0.807935
0.828351 0.828351 0.828351
0.846967 0.846967 0.846967
0.864118 0.864118 0.864118
0.770123 0.770123 0.770123
0.794171 0.794171 0.794171
0.815732 0.815732 0.815732
0.835126 0.835126 0.835126
0.852811 0.852811 0.852811
0.869291 0.869291 0.869291
0.884733 0.884733 0.884733
0.899275 0.899275 0.899275
0.913069 0.913069 0.913069
0.842069 0.842069 0.842069
0.859571 0.859571 0.859571
0.875547 0.875547 0.875547
0.890303 0.890303 0.890303
0.904219 0.904219 0.904219
0.917571 0.917571 0.917571
0.930571 0.930571 0.930571
0.943343 0.943343 0.943343
0.956039 0.956039 0.956039
0.895857 0.895857 0.895857
0.909819 0.909819 0.909819
0.922927 0.922927 0.922927
0.935485 0.935485 0.935485
0.94786 0.94786 0.94786
0.960357 0.960357 0.960357
0.973159 0.973159 0.973159
0.986419 0.986419 0.986419
1 1 1
