luts/black_white.cube
LUT_3D_SIZE 33
0 0 0
0.00323491 0.00323491 0.00323491
0.00662242 0.00662242 0.00662242
0.00991836 0.00991836 0.00991836
0.0131533 0.0131533 0.0131533
0.0163119 0.0163119 0.0163119
0.01944 0.01944 0.01944
0.0225376 0.0225376 0.0225376
0.0256352 0.0256352 0.0256352
0.0287633 0.0287633 0.0287633
0.0319677 0.0319677 0.0319677
0.0352331 0.0352331 0.0352331
0.0386206 0.0386206 0.0386206
0.0421302 0.0421302 0.0421302
0.0457771 0.0457771 0.0457771
0.0495918 0.0495918 0.0495918
0.0536049 0.0536049 0.0536049
0.057847 0.057847 0.057847
0.0623178 0.0623178 0.0623178
0.0670634 0.0670634 0.0670634
0.0721294 0.0721294 0.0721294
0.0775616 0.0775616 0.0775616
0.0833448 0.0833448 0.0833448
0.0895094 0.0895094 0.0895094
0.0960708 0.0960708 0.0960708
0.103075 0.103075 0.103075
0.110506 0.110506 0.110506
0.118395 0.118395 0.118395
0.126772 0.126772 0.126772
0.135653 0.135653 0.135653
0.145037 0.145037 0.145037
0.154864 0.154864 0.154864
0.165087 0.165087 0.165087
0.0110018 0.0110018 0.0110018
0.0142214 0.0142214 0.0142214
0.0174105 0.0174105 0.0174105
0.0205844 0.0205844 0.0205844
0.023743 0.023743 0.023743
0.0269169 0.0269169 0.0269169
0.0301213 0.0301213 0.0301213
0.0333562 0.0333562 0.0333562
0.0366674 0.0366674 0.0366674
0.0401007 0.0401007 0.0401007
0.0436561 0.0436561 0.0436561
0.0473487 0.0473487 0.0473487
0.0512245 0.0512245 0.0512245
0.0552987 0.0552987 0.0552987
0.0595865 0.0595865 0.0595865
0.0641184 0.0641184 0.0641184
0.0689403 0.0689403 0.0689403
0.0741131 0.0741131 0.0741131
0.0796216 0.0796216 0.0796216
0.0855268 0.0855268 0.0855268
0.0918135 0.0918135 0.0918135
0.0985122 0.0985122 0.0985122
0.105638 0.105638 0.105638
0.113222 0.113222 0.113222
0.121279 0.121279 0.121279
0.129824 0.129824 0.129824
0.138888 0.138888 0.138888
0.14844 0.14844 0.14844
0.158419 0.158419 0.158419
0.168765 0.168765 0.168765
0.179431 0.179431 0.179431
0.190341 0.190341 0.190341
0.20145 0.20145 0.20145
0.0216526 0.0216526 0.0216526
0.0248264 0.0248264 0.0248264
0.0280461 0.0280461 0.0280461
0.0313268 0.0313268 0.0313268
0.0346532 0.0346532 0.0346532
0.0380713 0.0380713 0.0380713
0.0415808 0.0415808 0.0415808
0.0452125 0.0452125 0.0452125
0.0489662 0.0489662 0.0489662
0.0529183 0.0529183 0.0529183
0.0570687 0.0570687 0.0570687
0.0614328 0.0614328 0.0614328
0.066041 0.066041 0.066041
0.0709697 0.0709697 0.0709697
0.0762341 0.0762341 0.0762341
0.0818494 0.0818494 0.0818494
0.0878462 0.0878462 0.0878462
0.094255 0.094255 0.094255
0.101076 0.101076 0.101076
0.108354 0.108354 0.108354
0.116075 0.116075 0.116075
0.124285 0.124285 0.124285
0.133013 0.133013 0.133013
0.142229 0.142229 0.142229
0.151934 0.151934 0.151934
0.162051 0.162051 0.162051
0.172519 0.172519 0.172519
0.183276 0.183276 0.183276
0.194263 0.194263 0.194263
0.205432 0.205432 0.205432
0.216693 0.216693 0.216693
0.228016 0.228016 0.228016
0.239322 0.239322 0.239322
0.0324102 0.0324102 0.0324102
0.0357977 0.0357977 0.0357977
0.039292 0.039292 0.039292
0.0428931 0.0428931 0.0428931
0.0466316 0.0466316 0.0466316
0.0505379 0.0505379 0.0505379
0.0545968 0.0545968 0.0545968
0.0588235 0.0588235 0.0588235
0.0632792 0.0632792 0.0632792
0.0680095 0.0680095 0.0680095
0.0730602 0.0730602 0.0730602
0.0784314 0.0784314 0.0784314
0.084184 0.084184 0.084184
0.0903029 0.0903029 0.0903029
0.0968185 0.0968185 0.0968185
0.103777 0.103777 0.103777
0.111177 0.111177 0.111177
0.119036 0.119036 0.119036
0.127413 0.127413 0.127413
0.136278 0.136278 0.136278
0.145663 0.145663 0.145663
0.155505 0.155505 0.155505
0.165743 0.165743 0.165743
0.176303 0.176303 0.176303
0.187152 0.187152 0.187152
0.198199 0.198199 0.198199
0.2094 0.2094 0.2094
0.220691 0.220691 0.220691
0.232013 0.232013 0.232013
0.243305 0.243305 0.243305
0.25449 0.25449 0.25449
0.265538 0.265538 0.265538
0.276356 0.276356 0.276356
0.0440681 0.0440681 0.0440681
0.0478828 0.0478828 0.0478828
0.0518807 0.0518807 0.0518807
0.0560616 0.0560616 0.0560616
0.060441 0.060441 0.060441
0.0650645 0.0650645 0.0650645
0.0699321 0.0699321 0.0699321
0.0751202 0.0751202 0.0751202
0.0806287 0.0806287 0.0806287
0.0865187 0.0865187 0.0865187
0.0927749 0.0927749 0.0927749
0.099443 0.099443 0.099443
0.106538 0.106538 0.106538
0.114092 0.114092 0.114092
0.122103 0.122103 0.122103
0.130617 0.130617 0.130617
0.139651 0.139651 0.139651
0.149172 0.149172 0.149172
0.159136 0.159136 0.159136
0.169482 0.169482 0.169482
0.180117 0.180117 0.180117
0.191028 0.191028 0.191028
0.202121 0.202121 0.202121
0.213352 0.213352 0.213352
0.224643 0.224643 0.224643
0.23595 0.23595 0.23595
0.247211 0.247211 0.247211
0.25835 0.25835 0.25835
0.269322 0.269322 0.269322
0.280095 0.280095 0.280095
0.290913 0.290913 0.290913
0.301823 0.301823 0.301823
0.31281 0.31281 0.31281
0.0573587 0.0573587 0.0573587
0.0618448 0.0618448 0.0618448
0.0665904 0.0665904 0.0665904
0.0716411 0.0716411 0.0716411
0.0770123 0.0770123 0.0770123
0.0827192 0.0827192 0.0827192
0.088777 0.088777 0.088777
0.095201 0.095201 0.095201
0.102037 0.102037 0.102037
0.109285 0.109285 0.109285
0.117006 0.117006 0.117006
0.1252 0.1252 0.1252
0.133883 0.133883 0.133883
0.143069 0.143069 0.143069
0.152728 0.152728 0.152728
0.162799 0.162799 0.162799
0.173236 0.173236 0.173236
0.183948 0.183948 0.183948
0.194888 0.194888 0.194888
0.206012 0.206012 0.206012
0.217258 0.217258 0.217258
0.228534 0.228534 0.228534
0.239826 0.239826 0.239826
0.251026 0.251026 0.251026
0.262104 0.262104 0.262104
0.272999 0.272999 0.272999
0.283757 0.283757 0.283757
0.294606 0.294606 0.294606
0.305531 0.305531 0.305531
0.316548 0.316548 0.316548
0.327626 0.327626 0.327626
0.338766 0.338766 0.338766
0.349966 0.349966 0.349966
0.0731518 0.0731518 0.0731518
0.0786603 0.0786603 0.0786603
0.084535 0.084535 0.084535
0.0907912 0.0907912 0.0907912
0.0974289 0.0974289 0.0974289
0.104479 0.104479 0.104479
0.11194 0.11194 0.11194
0.119844 0.119844 0.119844
0.128206 0.128206 0.128206
0.137087 0.137087 0.137087
0.146456 0.146456 0.146456
0.156268 0.156268 0.156268
0.166461 0.166461 0.166461
0.176974 0.176974 0.176974
0.187747 0.187747 0.187747
0.198734 0.198734 0.198734
0.209873 0.209873 0.209873
0.221103 0.221103 0.221103
0.232364 0.232364 0.232364
0.243595 0.243595 0.243595
0.254734 0.254734 0.254734
0.265736 0.265736 0.265736
0.276524 0.276524 0.276524
0.287297 0.287297 0.287297
0.298161 0.298161 0.298161
0.309117 0.309117 0.309117
0.320165 0.320165 0.320165
0.331273 0.331273 0.331273
0.342428 0.342428 0.342428
0.353643 0.353643 0.353643
0.364904 0.364904 0.364904
0.376181 0.376181 0.376181
0.387488 0.387488 0.387488
0.0925917 0.0925917 0.0925917
0.0993973 0.0993973 0.0993973
0.106645 0.106645 0.106645
0.114321 0.114321 0.114321
0.122469 0.122469 0.122469
0.131075 0.131075 0.131075
0.140185 0.140185 0.140185
0.149737 0.149737 0.149737
0.159686 0.159686 0.159686
0.170001 0.170001 0.170001
0.180621 0.180621 0.180621
0.19147 0.19147 0.19147
0.202518 0.202518 0.202518
0.213672 0.213672 0.213672
0.224887 0.224887 0.224887
0.236103 0.236103 0.236103
0.247288 0.247288 0.247288
0.25835 0.25835 0.25835
0.269245 0.269245 0.269245
0.279957 0.279957 0.279957
0.290745 0.290745 0.290745
0.301625 0.301625 0.301625
0.312596 0.312596 0.312596
0.323644 0.323644 0.323644
0.334768 0.334768 0.334768
0.345937 0.345937 0.345937
0.357168 0.357168 0.357168
0.368429 0.368429 0.368429
0.379721 0.379721 0.379721
0.391028 0.391028 0.391028
0.402365 0.402365 0.402365
0.413672 0.413672 0.413672
0.424979 0.424979 0.424979
0.116579 0.116579 0.116579
0.12491 0.12491 0.12491
0.13373 0.13373 0.13373
0.143069 0.143069 0.143069
0.15285 0.15285 0.15285
0.163012 0.163012 0.163012
0.17348 0.17348 0.17348
0.184207 0.184207 0.184207
0.195148 0.195148 0.195148
0.206226 0.206226 0.206226
0.217411 0.217411 0.217411
0.228626 0.228626 0.228626
0.239826 0.239826 0.239826
0.25095 0.25095 0.25095
0.261921 0.261921 0.261921
0.272709 0.272709 0.272709
0.283406 0.283406 0.283406
0.294179 0.294179 0.294179
0.305074 0.305074 0.305074
0.316045 0.316045 0.316045
0.327092 0.327092 0.327092
0.338216 0.338216 0.338216
0.349401 0.349401 0.349401
0.360616 0.360616 0.360616
0.371893 0.371893 0.371893
0.383185 0.383185 0.383185
0.394491 0.394491 0.394491
0.405814 0.405814 0.405814
0.417136 0.417136 0.417136
0.428443 0.428443 0.428443
0.439734 0.439734 0.439734
0.45098 0.45098 0.45098
0.462196 0.462196 0.462196
0.145937 0.145937 0.145937
0.155871 0.155871 0.155871
0.166201 0.166201 0.166201
0.176822 0.176822 0.176822
0.187701 0.187701 0.187701
0.198764 0.198764 0.198764
0.209934 0.209934 0.209934
0.221164 0.221164 0.221164
0.23238 0.23238 0.23238
0.243549 0.243549 0.243549
0.254627 0.254627 0.254627
0.265538 0.265538 0.265538
0.276234 0.276234 0.276234
0.286946 0.286946 0.286946
0.297734 0.297734 0.297734
0.308614 0.308614 0.308614
0.319585 0.319585 0.319585
0.330632 0.330632 0.330632
0.341741 0.341741 0.341741
0.352911 0.352911 0.352911
0.364126 0.364126 0.364126
0.375387 0.375387 0.375387
0.386679 0.386679 0.386679
0.397971 0.397971 0.397971
0.409293 0.409293 0.409293
0.4206 0.4206 0.4206
0.431891 0.431891 0.431891
0.443168 0.443168 0.443168
0.454414 0.454414 0.454414
0.465614 0.465614 0.465614
0.476768 0.476768 0.476768
0.487846 0.487846 0.487846
0.498878 0.498878 0.498878
0.180117 0.180117 0.180117
0.191089 0.191089 0.191089
0.202243 0.202243 0.202243
0.213489 0.213489 0.213489
0.224796 0.224796 0.224796
0.236072 0.236072 0.236072
0.247257 0.247257 0.247257
0.258305 0.258305 0.258305
0.269139 0.269139 0.269139
0.279789 0.279789 0.279789
0.290532 0.290532 0.290532
0.30135 0.30135 0.30135
0.312261 0.312261 0.312261
0.323232 0.323232 0.323232
0.334264 0.334264 0.334264
0.345373 0.345373 0.345373
0.356527 0.356527 0.356527
0.367727 0.367727 0.367727
0.378958 0.378958 0.378958
0.390234 0.390234 0.390234
0.401511 0.401511 0.401511
0.412802 0.412802 0.412802
0.424094 0.424094 0.424094
0.43537 0.43537 0.43537
0.446616 0.446616 0.446616
0.457847 0.457847 0.457847
0.469032 0.469032 0.469032
0.480156 0.480156 0.480156
0.491218 0.491218 0.491218
0.50222 0.50222 0.50222
0.51313 0.51313 0.51313
0.523949 0.523949 0.523949
0.534676 0.534676 0.534676
0.216938 0.216938 0.216938
0.22826 0.22826 0.22826
0.239551 0.239551 0.239551
0.250751 0.250751 0.250751
0.261799 0.261799 0.261799
0.272618 0.272618 0.272618
0.28333 0.28333 0.28333
0.294118 0.294118 0.294118
0.304967 0.304967 0.304967
0.315892 0.315892 0.315892
0.326894 0.326894 0.326894
0.337957 0.337957 0.337957
0.349065 0.349065 0.349065
0.36022 0.36022 0.36022
0.371389 0.371389 0.371389
0.382605 0.382605 0.382605
0.393851 0.393851 0.393851
0.405097 0.405097 0.405097
0.416358 0.416358 0.416358
0.427619 0.427619 0.427619
0.438865 0.438865 0.438865
0.450095 0.450095 0.450095
0.46128 0.46128 0.46128
0.472435 0.472435 0.472435
0.483528 0.483528 0.483528
0.494575 0.494575 0.494575
0.505531 0.505531 0.505531
0.516411 0.516411 0.516411
0.527199 0.527199 0.527199
0.537881 0.537881 0.537881
0.548455 0.548455 0.548455
0.558907 0.558907 0.558907
0.569238 0.569238 0.569238
0.254124 0.254124 0.254124
0.26511 0.26511 0.26511
0.275898 0.275898 0.275898
0.286687 0.286687 0.286687
0.297581 0.297581 0.297581
0.308537 0.308537 0.308537
0.319524 0.319524 0.319524
0.330571 0.330571 0.330571
0.34165 0.34165 0.34165
0.352773 0.352773 0.352773
0.363928 0.363928 0.363928
0.375113 0.375113 0.375113
0.386328 0.386328 0.386328
0.397559 0.397559 0.397559
0.408774 0.408774 0.408774
0.420005 0.420005 0.420005
0.431235 0.431235 0.431235
0.442435 0.442435 0.442435
0.45362 0.45362 0.45362
0.464775 0.464775 0.464775
0.475868 0.475868 0.475868
0.486931 0.486931 0.486931
0.497932 0.497932 0.497932
0.508843 0.508843 0.508843
0.519677 0.519677 0.519677
0.530434 0.530434 0.530434
0.54107 0.54107 0.54107
0.551598 0.551598 0.551598
0.562005 0.562005 0.562005
0.57229 0.57229 0.57229
0.582422 0.582422 0.582422
0.592401 0.592401 0.592401
0.602228 0.602228 0.602228
0.289998 0.289998 0.289998
0.300908 0.300908 0.300908
0.311925 0.311925 0.311925
0.322988 0.322988 0.322988
0.334127 0.334127 0.334127
0.345281 0.345281 0.345281
0.356466 0.356466 0.356466
0.367651 0.367651 0.367651
0.378866 0.378866 0.378866
0.390066 0.390066 0.390066
0.401297 0.401297 0.401297
0.412512 0.412512 0.412512
0.423728 0.423728 0.423728
0.434928 0.434928 0.434928
0.446097 0.446097 0.446097
0.457237 0.457237 0.457237
0.46833 0.46833 0.46833
0.479393 0.479393 0.479393
0.490394 0.490394 0.490394
0.501335 0.501335 0.501335
0.5122 0.5122 0.5122
0.522988 0.522988 0.522988
0.533684 0.533684 0.533684
0.544274 0.544274 0.544274
0.554757 0.554757 0.554757
0.565103 0.565103 0.565103
0.575326 0.575326 0.575326
0.585412 0.585412 0.585412
0.595331 0.595331 0.595331
0.605097 0.605097 0.605097
0.614694 0.614694 0.614694
0.624109 0.624109 0.624109
0.633326 0.633326 0.633326
0.326406 0.326406 0.326406
0.33756 0.33756 0.33756
0.348775 0.348775 0.348775
0.360021 0.360021 0.360021
0.371283 0.371283 0.371283
0.382559 0.382559 0.382559
0.39382 0.39382 0.39382
0.405066 0.405066 0.405066
0.416281 0.416281 0.416281
0.427497 0.427497 0.427497
0.438682 0.438682 0.438682
0.449836 0.449836 0.449836
0.460945 0.460945 0.460945
0.472007 0.472007 0.472007
0.483009 0.483009 0.483009
0.493965 0.493965 0.493965
0.504845 0.504845 0.504845
0.515648 0.515648 0.515648
0.526375 0.526375 0.526375
0.536995 0.536995 0.536995
0.547524 0.547524 0.547524
0.557931 0.557931 0.557931
0.568231 0.568231 0.568231
0.578393 0.578393 0.578393
0.588403 0.588403 0.588403
0.598276 0.598276 0.598276
0.607965 0.607965 0.607965
0.617502 0.617502 0.617502
0.626841 0.626841 0.626841
0.635996 0.635996 0.635996
0.644953 0.644953 0.644953
0.653696 0.653696 0.653696
0.662257 0.662257 0.662257
0.363516 0.363516 0.363516
0.374807 0.374807 0.374807
0.386114 0.386114 0.386114
0.397436 0.397436 0.397436
0.408743 0.408743 0.408743
0.42002 0.42002 0.42002
0.431266 0.431266 0.431266
0.442451 0.442451 0.442451
0.453605 0.453605 0.453605
0.464683 0.464683 0.464683
0.475731 0.475731 0.475731
0.486717 0.486717 0.486717
0.497627 0.497627 0.497627
0.508461 0.508461 0.508461
0.519203 0.519203 0.519203
0.529854 0.529854 0.529854
0.540413 0.540413 0.540413
0.550866 0.550866 0.550866
0.561212 0.561212 0.561212
0.571435 0.571435 0.571435
0.581506 0.581506 0.581506
0.591455 0.591455 0.591455
0.601251 0.601251 0.601251
0.610864 0.610864 0.610864
0.620325 0.620325 0.620325
0.629587 0.629587 0.629587
0.638666 0.638666 0.638666
0.647547 0.647547 0.647547
0.656229 0.656229 0.656229
0.664714 0.664714 0.664714
0.673014 0.673014 0.673014
0.681132 0.681132 0.681132
0.689052 0.689052 0.689052
0.401007 0.401007 0.401007
0.412314 0.412314 0.412314
0.423621 0.423621 0.423621
0.434913 0.434913 0.434913
0.446159 0.446159 0.446159
0.457343 0.457343 0.457343
0.468467 0.468467 0.468467
0.479515 0.479515 0.479515
0.490471 0.490471 0.490471
0.50135 0.50135 0.50135
0.512154 0.512154 0.512154
0.522866 0.522866 0.522866
0.533471 0.533471 0.533471
0.543969 0.543969 0.543969
0.554345 0.554345 0.554345
0.564614 0.564614 0.564614
0.574746 0.574746 0.574746
0.584741 0.584741 0.584741
0.594598 0.594598 0.594598
0.604303 0.604303 0.604303
0.61384 0.61384 0.61384
0.623209 0.623209 0.623209
0.632395 0.632395 0.632395
0.641382 0.641382 0.641382
0.650187 0.650187 0.650187
0.658793 0.658793 0.658793
0.667201 0.667201 0.667201
0.675441 0.675441 0.675441
0.683482 0.683482 0.683482
0.691341 0.691341 0.691341
0.699031 0.699031 0.699031
0.706538 0.706538 0.706538
0.713863 0.713863 0.713863
0.438529 0.438529 0.438529
0.449775 0.449775 0.449775
0.460975 0.460975 0.460975
0.472129 0.472129 0.472129
0.483207 0.483207 0.483207
0.494209 0.494209 0.494209
0.505104 0.505104 0.505104
0.515892 0.515892 0.515892
0.526574 0.526574 0.526574
0.537133 0.537133 0.537133
0.547601 0.547601 0.547601
0.557931 0.557931 0.557931
0.568124 0.568124 0.568124
0.578195 0.578195 0.578195
0.588113 0.588113 0.588113
0.597879 0.597879 0.597879
0.607492 0.607492 0.607492
0.616938 0.616938 0.616938
0.6262 0.6262 0.6262
0.635294 0.635294 0.635294
0.64419 0.64419 0.64419
0.652888 0.652888 0.652888
0.661418 0.661418 0.661418
0.669749 0.669749 0.669749
0.677897 0.677897 0.677897
0.685878 0.685878 0.685878
0.693675 0.693675 0.693675
0.701289 0.701289 0.701289
0.708736 0.708736 0.708736
0.715999 0.715999 0.715999
0.72311 0.72311 0.72311
0.730053 0.730053 0.730053
0.736812 0.736812 0.736812
0.475746 0.475746 0.475746
0.486824 0.486824 0.486824
0.497826 0.497826 0.497826
0.508736 0.508736 0.508736
0.519554 0.519554 0.519554
0.530266 0.530266 0.530266
0.540825 0.540825 0.540825
0.551263 0.551263 0.551263
0.561547 0.561547 0.561547
0.57171 0.57171 0.57171
0.58172 0.58172 0.58172
0.591577 0.591577 0.591577
0.601267 0.601267 0.601267
0.610803 0.610803 0.610803
0.620157 0.620157 0.620157
0.629328 0.629328 0.629328
0.638315 0.638315 0.638315
0.647105 0.647105 0.647105
0.655711 0.655711 0.655711
0.664134 0.664134 0.664134
0.672374 0.672374 0.672374
0.680446 0.680446 0.680446
0.688334 0.688334 0.688334
0.696056 0.696056 0.696056
0.703593 0.703593 0.703593
0.710979 0.710979 0.710979
0.718181 0.718181 0.718181
0.725231 0.725231 0.725231
0.732097 0.732097 0.732097
0.738811 0.738811 0.738811
0.745373 0.745373 0.745373
0.751766 0.751766 0.751766
0.758022 0.758022 0.758022
0.512322 0.512322 0.512322
0.523125 0.523125 0.523125
0.533822 0.533822 0.533822
0.544396 0.544396 0.544396
0.554849 0.554849 0.554849
0.565164 0.565164 0.565164
0.575296 0.575296 0.575296
0.585275 0.585275 0.585275
0.595087 0.595087 0.595087
0.604715 0.604715 0.604715
0.614176 0.614176 0.614176
0.623468 0.623468 0.623468
0.632547 0.632547 0.632547
0.641443 0.641443 0.641443
0.650141 0.650141 0.650141
0.65864 0.65864 0.65864
0.666972 0.666972 0.666972
0.67512 0.67512 0.67512
0.683085 0.683085 0.683085
0.690883 0.690883 0.690883
0.698512 0.698512 0.698512
0.705989 0.705989 0.705989
0.713283 0.713283 0.713283
0.720409 0.720409 0.720409
0.727382 0.727382 0.727382
0.734203 0.734203 0.734203
0.740856 0.740856 0.740856
0.747356 0.747356 0.747356
0.753689 0.753689 0.753689
0.759884 0.759884 0.759884
0.765927 0.765927 0.765927
0.771832 0.771832 0.771832
0.777584 0.777584 0.777584
0.547906 0.547906 0.547906
0.558328 0.558328 0.558328
0.568612 0.568612 0.568612
0.578759 0.578759 0.578759
0.588739 0.588739 0.588739
0.59855 0.59855 0.59855
0.608164 0.608164 0.608164
0.617594 0.617594 0.617594
0.626795 0.626795 0.626795
0.635813 0.635813 0.635813
0.644633 0.644633 0.644633
0.653254 0.653254 0.653254
0.661677 0.661677 0.661677
0.669917 0.669917 0.669917
0.677974 0.677974 0.677974
0.685847 0.685847 0.685847
0.693553 0.693553 0.693553
0.701091 0.701091 0.701091
0.708461 0.708461 0.708461
0.715679 0.715679 0.715679
0.722713 0.722713 0.722713
0.72961 0.72961 0.72961
0.736355 0.736355 0.736355
0.742931 0.742931 0.742931
0.749371 0.749371 0.749371
0.755657 0.755657 0.755657
0.761791 0.761791 0.761791
0.767773 0.767773 0.767773
0.773632 0.773632 0.773632
0.779324 0.779324 0.779324
0.784894 0.784894 0.784894
0.790326 0.790326 0.790326
0.795621 0.795621 0.795621
0.582147 0.582147 0.582147
0.592096 0.592096 0.592096
0.601877 0.601877 0.601877
0.611475 0.611475 0.611475
0.62089 0.62089 0.62089
0.630106 0.630106 0.630106
0.639094 0.639094 0.639094
0.647852 0.647852 0.647852
0.656397 0.656397 0.656397
0.664759 0.664759 0.664759
0.672938 0.672938 0.672938
0.680919 0.680919 0.680919
0.688716 0.688716 0.688716
0.69633 0.69633 0.69633
0.703777 0.703777 0.703777
0.711055 0.711055 0.711055
0.718166 0.718166 0.718166
0.725124 0.725124 0.725124
0.731945 0.731945 0.731945
0.738598 0.738598 0.738598
0.745098 0.745098 0.745098
0.751461 0.751461 0.751461
0.757671 0.757671 0.757671
0.763729 0.763729 0.763729
0.769665 0.769665 0.769665
0.775448 0.775448 0.775448
0.781109 0.781109 0.781109
0.786618 0.786618 0.786618
0.792004 0.792004 0.792004
0.797253 0.797253 0.797253
0.80238 0.80238 0.80238
0.80737 0.80737 0.80737
0.812253 0.812253 0.812253
0.61471 0.61471 0.61471
0.624063 0.624063 0.624063
0.633234 0.633234 0.633234
0.642206 0.642206 0.642206
0.650965 0.650965 0.650965
0.65951 0.65951 0.65951
0.667842 0.667842 0.667842
0.675959 0.675959 0.675959
0.683879 0.683879 0.683879
0.6916 0.6916 0.6916
0.699168 0.699168 0.699168
0.706538 0.706538 0.706538
0.713741 0.713741 0.713741
0.72079 0.72079 0.72079
0.727657 0.727657 0.727657
0.734371 0.734371 0.734371
0.740932 0.740932 0.740932
0.747356 0.747356 0.747356
0.753628 0.753628 0.753628
0.759762 0.759762 0.759762
0.765759 0.765759 0.765759
0.771618 0.771618 0.771618
0.77734 0.77734 0.77734
0.782925 0.782925 0.782925
0.788373 0.788373 0.788373
0.793713 0.793713 0.793713
0.798901 0.798901 0.798901
0.803983 0.803983 0.803983
0.808942 0.808942 0.808942
0.813764 0.813764 0.813764
0.818479 0.818479 0.818479
0.823087 0.823087 0.823087
0.827604 0.827604 0.827604
0.645243 0.645243 0.645243
0.653925 0.653925 0.653925
0.66244 0.66244 0.66244
0.670756 0.670756 0.670756
0.678874 0.678874 0.678874
0.686793 0.686793 0.686793
0.694499 0.694499 0.694499
0.702007 0.702007 0.702007
0.709316 0.709316 0.709316
0.716457 0.716457 0.716457
0.723445 0.723445 0.723445
0.730251 0.730251 0.730251
0.736904 0.736904 0.736904
0.743389 0.743389 0.743389
0.749722 0.749722 0.749722
0.755901 0.755901 0.755901
0.761959 0.761959 0.761959
0.767865 0.767865 0.767865
0.773648 0.773648 0.773648
0.779293 0.779293 0.779293
0.784802 0.784802 0.784802
0.790188 0.790188 0.790188
0.795453 0.795453 0.795453
0.800595 0.800595 0.800595
0.805615 0.805615 0.805615
0.810529 0.810529 0.810529
0.815305 0.815305 0.815305
0.819974 0.819974 0.819974
0.824552 0.824552 0.824552
0.829038 0.829038 0.829038
0.833432 0.833432 0.833432
0.837751 0.837751 0.837751
0.841978 0.841978 0.841978
0.673579 0.673579 0.673579
0.681636 0.681636 0.681636
0.689525 0.689525 0.689525
0.697215 0.697215 0.697215
0.704723 0.704723 0.704723
0.712047 0.712047 0.712047
0.719173 0.719173 0.719173
0.726101 0.726101 0.726101
0.73286 0.73286 0.73286
0.739437 0.739437 0.739437
0.745876 0.745876 0.745876
0.752148 0.752148 0.752148
0.758267 0.758267 0.758267
0.764248 0.764248 0.764248
0.770077 0.770077 0.770077
0.775769 0.775769 0.775769
0.781338 0.781338 0.781338
0.78677 0.78677 0.78677
0.792081 0.792081 0.792081
0.797284 0.797284 0.797284
0.80235 0.80235 0.80235
0.807309 0.807309 0.807309
0.812146 0.812146 0.812146
0.816876 0.816876 0.816876
0.821515 0.821515 0.821515
0.826047 0.826047 0.826047
0.830488 0.830488 0.830488
0.834852 0.834852 0.834852
0.839139 0.839139 0.839139
0.843336 0.843336 0.843336
0.847456 0.847456 0.847456
0.851499 0.851499 0.851499
0.855467 0.855467 0.855467
0.69984 0.69984 0.69984
0.707301 0.707301 0.707301
0.714595 0.714595 0.714595
0.721706 0.721706 0.721706
0.728634 0.728634 0.728634
0.735393 0.735393 0.735393
0.74197 0.74197 0.74197
0.748363 0.748363 0.748363
0.754589 0.754589 0.754589
0.760647 0.760647 0.760647
0.766583 0.766583 0.766583
0.772351 0.772351 0.772351
0.777981 0.777981 0.777981
0.783475 0.783475 0.783475
0.788846 0.788846 0.788846
0.794079 0.794079 0.794079
0.799191 0.799191 0.799191
0.804181 0.804181 0.804181
0.809064 0.809064 0.809064
0.81384 0.81384 0.81384
0.818509 0.818509 0.818509
0.823087 0.823087 0.823087
0.827573 0.827573 0.827573
0.831968 0.831968 0.831968
0.836301 0.836301 0.836301
0.840543 0.840543 0.840543
0.844709 0.844709 0.844709
0.848798 0.848798 0.848798
0.852811 0.852811 0.852811
0.856764 0.856764 0.856764
0.860639 0.860639 0.860639
0.864454 0.864454 0.864454
0.868208 0.868208 0.868208
0.724132 0.724132 0.724132
0.731029 0.731029 0.731029
0.737758 0.737758 0.737758
0.74432 0.74432 0.74432
0.750729 0.750729 0.750729
0.756954 0.756954 0.756954
0.763012 0.763012 0.763012
0.768902 0.768902 0.768902
0.774624 0.774624 0.774624
0.780209 0.780209 0.780209
0.785657 0.785657 0.785657
0.790967 0.790967 0.790967
0.796139 0.796139 0.796139
0.80119 0.80119 0.80119
0.806119 0.806119 0.806119
0.810925 0.810925 0.810925
0.815625 0.815625 0.815625
0.820218 0.820218 0.820218
0.824735 0.824735 0.824735
0.82916 0.82916 0.82916
0.833509 0.833509 0.833509
0.837781 0.837781 0.837781
0.841978 0.841978 0.841978
0.846098 0.846098 0.846098
0.850156 0.850156 0.850156
0.854139 0.854139 0.854139
0.858061 0.858061 0.858061
0.861921 0.861921 0.861921
