luts/darken.cube
LUT_3D_SIZE 5
0 0 0
0.0716106 0 0
0.245838 0 0
0.460365 0 0
0.652995 0 0
0 0.0819562 0
0.095613 0.0971237 0.00491341
0.314137 0.0927443 0
0.580209 0.089662 0
0.816724 0.10573 0
0 0.298512 0
0.110384 0.347204 0.00794995
0.361151 0.366598 0.018967
0.650675 0.382757 0.024094
0.8981 0.415381 0.0379644
0 0.620768 0
0.145327 0.67921 0.0252537
0.416022 0.703365 0.0427253
0.708721 0.715633 0.0496071
0.94197 0.737438 0.0592203
0.0385138 0.95024 0.0385138
0.203662 0.987488 0.0656596
0.474052 0.987671 0.073106
0.757916 0.979889 0.0720531
0.980041 0.98822 0.0762493
0 0 0.0629282
0.0733043 0 0.0600595
0.250965 0 0.0285801
0.469581 0 0
0.668406 0 0
0 0.087892 0.0726482
0.103899 0.105425 0.0895552
0.328893 0.104051 0.0879377
0.600153 0.103227 0.0865492
0.838972 0.120333 0.102541
0 0.317082 0.0717784
0.124681 0.365316 0.109224
0.379904 0.385412 0.124926
0.672557 0.402197 0.135882
0.920684 0.434409 0.158145
0.00285344 0.643351 0.101686
0.160967 0.700267 0.143877
0.432959 0.72221 0.162264
0.725078 0.732021 0.169436
0.956497 0.751354 0.18143
0.0492103 0.966415 0.167376
0.214191 1 0.195438
0.484596 0.999344 0.200015
0.768505 0.990829 0.196841
0.990906 0.9991 0.202182
0 0 0.230182
0.0657511 0 0.230716
0.245808 0 0.197772
0.468452 0 0.168887
0.672694 0 0.17322
0 0.0865797 0.254978
0.105562 0.107118 0.280552
0.335836 0.108934 0.284627
0.611109 0.110277 0.290303
0.851286 0.128176 0.316197
0 0.327413 0.270954
0.132647 0.375479 0.317281
0.391409 0.396963 0.338018
0.686091 0.414282 0.354376
0.934096 0.445853 0.384314
0.0111543 0.657267 0.319661
0.170535 0.712673 0.3682
0.44239 0.732448 0.386709
0.733104 0.740047 0.393484
0.962264 0.757092 0.40734
0.054902 0.97322 0.400412
0.218784 1 0.429282
0.488396 1 0.430732
0.771893 0.994018 0.42533
0.99443 1 0.432197
0 0 0.451545
0.0547036 0 0.455283
0.2374 0 0.42295
0.46453 0 0.39762
0.674464 0 0.41117
0 0.0823377 0.492409
0.104463 0.106035 0.526452
0.339803 0.110765 0.536202
0.618616 0.113985 0.547601
0.859785 0.132494 0.58056
0 0.333989 0.52488
0.137407 0.382422 0.577966
0.399512 0.405097 0.602716
0.695872 0.422705 0.622889
0.943404 0.453437 0.657908
0.0159762 0.667231 0.587594
0.176287 0.720867 0.639948
0.447715 0.738399 0.657328
0.736919 0.743877 0.66273
0.963989 0.758862 0.677165
0.0570382 0.975845 0.676341
0.219883 1 0.705196
0.488777 1 0.703853
0.77203 0.993927 0.696712
0.994995 1 0.70515
0 0 0.634318
0.0493935 0 0.640452
0.236072 0 0.610101
0.46894 0 0.589471
0.684993 0 0.610864
0 0.0828717 0.689067
0.10782 0.109422 0.730007
0.34905 0.116487 0.744167
0.631601 0.121065 0.759045
0.874632 0.140505 0.796429
0.000198367 0.344717 0.734127
0.145281 0.393805 0.791531
0.411505 0.417136 0.818586
0.70988 0.434592 0.840406
0.956985 0.464179 0.877272
0.0220493 0.681331 0.804654
0.183948 0.732662 0.857618
0.45568 0.747707 0.872755
0.743938 0.750927 0.875944
0.969558 0.76405 0.889754
0.0603647 0.982589 0.893385
0.223102 1 0.92137
0.492226 1 0.917861
0.776043 0.998199 0.909697
0.999573 1 0.919051
