luts/darken.cube
LUT_3D_SIZE 9
0 0 0
0.0238956 0 0
0.0716106 0 0
0.148669 0 0
0.245838 0 0
0.355367 0 0
0.460365 0 0
0.555718 0 0
0.652995 0 0
0 0.0283055 0
0.0313115 0.031693 0.00196841
0.0856336 0.0307012 0.000656138
0.172107 0.0229496 0
0.279942 0.0119326 0
0.401389 0.000183108 0
0.519036 0 0
0.627192 0 0
0.736996 0 0
0 0.0819562 0
0.0333867 0.0914473 0.00190738
0.095613 0.0971237 0.00491341
0.193194 0.0963149 0.00337224
0.314137 0.0927443 0
0.449653 0.0888533 0
0.580209 0.089662 0
0.698863 0.0965286 0
0.816724 0.10573 0
0 0.170108 0
0.0305638 0.189548 0
0.101274 0.204852 0.00584421
0.209293 0.212757 0.00987259
0.34052 0.216815 0.0106355
0.484703 0.219242 0.00949111
0.620874 0.225193 0.00994888
0.742336 0.236301 0.0137179
0.862654 0.249805 0.019379
0 0.298512 0
0.0327153 0.325734 0
0.110384 0.347204 0.00794995
0.224704 0.359197 0.0152438
0.361151 0.366598 0.018967
0.510185 0.372625 0.0207828
0.650675 0.382757 0.024094
0.775814 0.398383 0.0304723
0.8981 0.415381 0.0379644
0 0.452766 0
0.0370336 0.483085 0
0.120211 0.508095 0.0107881
0.240848 0.523919 0.0209812
0.383017 0.534707 0.0274815
0.536019 0.542931 0.0314794
0.67805 0.554223 0.0361486
0.802167 0.569818 0.0428626
0.921324 0.585382 0.0496681
0 0.620768 0
0.0560006 0.653223 0.00917067
0.145327 0.67921 0.0252537
0.271046 0.694469 0.0361639
0.416022 0.703365 0.0427253
0.569223 0.708415 0.0461433
0.708721 0.715633 0.0496071
0.82829 0.726665 0.054551
0.94197 0.737438 0.0592203
0.0153506 0.79176 0.0153506
0.0867628 0.820813 0.0337377
0.179202 0.842161 0.0483253
0.306661 0.851682 0.0569924
0.451377 0.85452 0.0611582
0.602731 0.853635 0.0622263
0.738842 0.855222 0.0634623
0.854124 0.861097 0.0662699
0.963592 0.867399 0.0690013
0.0385138 0.95024 0.0385138
0.111177 0.972656 0.0540169
0.203662 0.987488 0.0656596
0.330648 0.9906 0.0714275
0.474052 0.987671 0.073106
0.623682 0.981933 0.0722057
0.757916 0.979889 0.0720531
0.871565 0.983337 0.0739452
0.980041 0.98822 0.0762493
0 0 0.0209506
0.0247501 0 0.02121
0.0733043 0 0.0164492
0.151354 0 0.00328069
0.249348 0 0
0.359808 0 0
0.465888 0 0
0.562646 0 0
0.661585 0 0
0.000595102 0.0298161 0.025742
0.0330968 0.0334936 0.0293278
0.0883192 0.0329137 0.0287175
0.176028 0.025742 0.0216373
0.285328 0.0153964 0.011368
0.408347 0.00434882 0.000350958
0.527428 0 0
0.636942 0 0
0.747921 0 0
0 0.0855573 0.024567
0.036759 0.0955367 0.0328222
0.100298 0.101823 0.0377508
0.199496 0.101747 0.0372015
0.322133 0.0989242 0.0338293
0.45919 0.0956741 0.029633
0.59089 0.0969711 0.0289921
0.710307 0.104189 0.033402
0.828641 0.113573 0.0398413
0 0.177188 0.0175937
0.035935 0.197055 0.0318608
0.108125 0.212802 0.0429999
0.217624 0.221118 0.0487221
0.350088 0.225452 0.0508888
0.495171 0.228031 0.051133
0.631769 0.233921 0.0534524
0.753948 0.245304 0.0598764
0.874846 0.259068 0.0682383
0 0.308507 0.0167086
0.0393378 0.335607 0.0349432
0.118074 0.356939 0.049485
0.233433 0.368872 0.0580453
0.371099 0.376577 0.0629587
0.521126 0.382834 0.0660563
0.662287 0.393072 0.0711986
0.787732 0.408652 0.0798505
0.910124 0.425498 0.0895399
0 0.463828 0.0195468
0.0442817 0.494194 0.0395666
0.128557 0.519219 0.0564279
0.250263 0.535027 0.0678416
0.39324 0.545693 0.0752117
0.546777 0.553719 0.0800031
0.688945 0.564645 0.0858473
0.812848 0.579736 0.0940414
0.931563 0.59469 0.10219
0 0.632761 0.0371099
0.0636454 0.664866 0.0584268
0.153643 0.69044 0.076051
0.279911 0.705211 0.0874647
0.425116 0.713497 0.0941329
0.578332 0.717922 0.0975052
0.717601 0.724529 0.101274
0.836759 0.73492 0.106905
0.94995 0.745068 0.11223
0.0220188 0.802823 0.0684215
0.0937514 0.831067 0.088014
0.186343 0.851652 0.103182
0.313939 0.860502 0.11162
0.45864 0.862715 0.115251
0.609873 0.861219 0.115724
0.745708 0.862257 0.116732
0.860731 0.86772 0.119768
0.96997 0.873686 0.122866
0.0442664 0.959091 0.0948653
0.116976 0.980758 0.110872
0.209415 0.994888 0.122545
0.336431 0.997467 0.127687
0.47985 0.994156 0.128573
0.629526 0.988174 0.126925
0.763775 0.985962 0.126452
0.877455 0.989319 0.128527
0.986038 0.994217 0.131197
0 0 0.0629282
0.0240482 0 0.0643778
0.0733043 0 0.0600595
0.152224 0 0.0463111
0.250965 0 0.0285801
0.362371 0 0.0105287
0.469581 0 0
0.567727 0 0
0.668406 0 0
0.000366217 0.0299687 0.0710765
0.0336156 0.0340124 0.075761
0.0896773 0.0339055 0.0759289
0.178561 0.0273594 0.0688945
0.289235 0.0176852 0.0588083
0.413748 0.00733959 0.0483711
0.53431 0.00131228 0.0432288
0.645197 0.00141909 0.0451362
0.757321 0.00459297 0.0504463
0 0.087892 0.0726482
0.0390784 0.0984512 0.0828565
0.103899 0.105425 0.0895552
0.204639 0.106126 0.090135
0.328893 0.104051 0.0879377
0.467369 0.101442 0.0851301
0.600153 0.103227 0.0865492
0.720256 0.110765 0.0935378
0.838972 0.120333 0.102541
0 0.182986 0.0684367
0.0403601 0.203357 0.0855421
0.113939 0.219608 0.0990921
0.224781 0.228305 0.106279
0.358343 0.232898 0.109606
0.504219 0.235584 0.110964
0.641306 0.241535 0.11487
0.764202 0.253269 0.123659
0.885649 0.267262 0.134478
0 0.317082 0.0717784
0.0450141 0.344121 0.0926986
0.124681 0.365316 0.109224
0.241123 0.377386 0.118914
0.379904 0.385412 0.124926
0.530831 0.391867 0.129152
0.672557 0.402197 0.135882
0.79826 0.417731 0.146532
0.920684 0.434409 0.158145
0 0.473579 0.0784772
0.0507057 0.504005 0.10103
0.135973 0.529091 0.119875
0.25861 0.544854 0.132311
0.402274 0.555398 0.140398
0.556222 0.563195 0.14583
0.698436 0.573739 0.152605
0.822034 0.588296 0.162005
0.940276 0.60264 0.171267
0.00285344 0.643351 0.101686
0.0704356 0.67512 0.124956
0.160967 0.700267 0.143877
0.287633 0.714534 0.155642
0.432959 0.72221 0.162264
0.586099 0.726024 0.165469
0.725078 0.732021 0.169436
0.843809 0.741817 0.175586
0.956497 0.751354 0.18143
0.0279088 0.812345 0.13817
0.0998245 0.839811 0.158755
0.192493 0.859678 0.174395
0.320119 0.867872 0.182513
0.464729 0.869474 0.18555
0.615732 0.867414 0.185367
0.751293 0.867979 0.186099
0.866056 0.873045 0.189319
0.975082 0.878721 0.192721
0.0492103 0.966415 0.167376
0.121874 0.98735 0.183795
0.214191 1 0.195438
0.341176 1 0.199939
0.484596 0.999344 0.200015
0.634256 0.993164 0.19762
0.768505 0.990829 0.196841
0.882216 0.994141 0.199115
0.990906 0.9991 0.202182
0 0 0.134539
0.0208591 0 0.137194
0.0705272 0 0.133364
0.14995 0 0.119127
0.249439 0 0.100862
0.361746 0 0.0825513
0.470069 0 0.0708476
0.569512 0 0.0680095
0.671626 0 0.0704051
0 0.0279393 0.14638
0.0320745 0.0324712 0.152361
0.0887617 0.032929 0.153521
0.178622 0.0270695 0.146868
0.290517 0.018143 0.137224
0.416388 0.00854505 0.127672
0.538338 0.00325017 0.124422
0.650507 0.0040589 0.129213
0.763668 0.00781262 0.137636
0 0.0880598 0.151492
0.0395972 0.0993057 0.163928
0.105501 0.107042 0.172656
0.207599 0.108553 0.174609
0.333227 0.107256 0.173785
0.472923 0.105272 0.172488
0.606607 0.107546 0.176013
0.72726 0.115373 0.185641
0.846204 0.125078 0.197223
0 0.186542 0.150942
0.0431678 0.207477 0.171038
0.117861 0.224231 0.187091
0.229786 0.233326 0.195804
0.364202 0.238193 0.200336
0.510613 0.240955 0.202777
0.648264 0.24712 0.208423
0.771771 0.259174 0.21973
0.893629 0.273396 0.233127
0 0.323171 0.158816
0.0490883 0.350179 0.182422
0.129412 0.371267 0.200916
0.24683 0.383688 0.211978
0.386511 0.392035 0.219165
0.538125 0.398703 0.224582
0.680262 0.40911 0.232959
0.806088 0.424567 0.24567
0.928405 0.441016 0.259281
0 0.480842 0.169497
0.0556649 0.511376 0.194705
0.141665 0.536507 0.215625
0.264973 0.55227 0.229145
0.40911 0.562692 0.237964
0.563256 0.570245 0.243992
0.705333 0.580392 0.251682
0.828489 0.594385 0.262287
0.946181 0.608148 0.272694
0.00764477 0.651286 0.19852
0.0757153 0.682719 0.223819
0.166522 0.707454 0.244114
0.293339 0.721218 0.256184
0.438575 0.728313 0.262684
0.59147 0.731579 0.26569
0.730053 0.736996 0.26978
0.848249 0.746197 0.276463
0.960372 0.755169 0.282856
0.0323949 0.819013 0.240299
0.10428 0.845731 0.261952
0.196811 0.864927 0.278096
0.324285 0.872541 0.285832
0.46862 0.873594 0.288182
0.619272 0.871031 0.287236
0.754513 0.871183 0.287678
0.86894 0.875929 0.291112
0.977707 0.881376 0.294881
0.0527352 0.97084 0.272389
0.125154 0.991104 0.289281
0.217212 1 0.300923
0.34403 1 0.304738
0.487282 1 0.303929
0.636835 0.995666 0.300725
0.771023 0.993286 0.299611
0.884718 0.996612 0.302144
0.993484 1 0.305699
0 0 0.230182
0.0157931 0 0.233982
0.0657511 0 0.230716
0.145556 0 0.21619
0.245808 0 0.197772
0.359014 0 0.179538
0.468452 0 0.168887
0.569177 0 0.168154
0.672694 0 0.17322
0 0.0241855 0.245808
0.0288853 0.0292821 0.253178
0.0861677 0.0303655 0.255497
0.176944 0.0252537 0.249485
0.289982 0.0170901 0.240574
0.417166 0.00827039 0.232105
0.540505 0.00375372 0.230869
0.653864 0.00523384 0.238407
0.767987 0.00956741 0.24976
0 0.0865797 0.254978
0.0386511 0.0985733 0.269718
0.105562 0.107118 0.280552
0.208957 0.109483 0.284047
0.335836 0.108934 0.284627
0.476631 0.107561 0.28481
0.611109 0.110277 0.290303
0.732204 0.118379 0.302327
0.851286 0.128176 0.316197
0 0.188434 0.258717
0.0445716 0.209949 0.281651
0.120241 0.227192 0.300053
0.233097 0.236667 0.310185
0.368231 0.241749 0.315785
0.515038 0.244572 0.319142
0.653391 0.251133 0.326574
0.777432 0.263508 0.34023
0.899657 0.277913 0.356023
0 0.327413 0.270954
0.0517128 0.354391 0.296956
0.132647 0.375479 0.317281
0.250965 0.388296 0.329702
0.391409 0.396963 0.338018
0.543633 0.40383 0.344518
0.686091 0.414282 0.354376
0.811963 0.429648 0.368933
0.934096 0.445853 0.384314
0 0.48629 0.285374
0.059266 0.516945 0.313024
0.145892 0.542123 0.335836
0.269718 0.557839 0.350332
0.414191 0.568139 0.359762
0.568429 0.575433 0.366232
0.710277 0.585153 0.37464
0.832929 0.598581 0.386221
0.950027 0.611765 0.397574
0.0111543 0.657267 0.319661
0.0795758 0.68835 0.346761
0.170535 0.712673 0.3682
0.297337 0.725887 0.380423
0.44239 0.732448 0.386709
0.594965 0.73518 0.38938
0.733104 0.740047 0.393484
0.850752 0.748684 0.400549
0.962264 0.757092 0.40734
0.035523 0.823575 0.365942
0.107286 0.849622 0.388495
0.199603 0.868177 0.40502
0.326802 0.875227 0.412299
0.470787 0.875761 0.413901
0.621057 0.87274 0.412177
0.755932 0.872572 0.412284
0.870054 0.877028 0.415885
0.978561 0.882277 0.419989
0.054902 0.97322 0.400412
0.127016 0.992828 0.417655
0.218784 1 0.429282
0.345342 1 0.43238
0.488396 1 0.430732
0.637797 0.996384 0.426719
0.771893 0.994018 0.42533
0.885573 0.997406 0.428122
0.99443 1 0.432197
0 0 0.340002
0.00981155 0 0.344884
0.0600595 0 0.342214
0.140322 0 0.327672
0.241321 0 0.309361
0.355474 0 0.291493
0.466102 0 0.282078
0.568185 0 0.283482
0.673106 0 0.291096
0 0.0195621 0.359335
0.0248417 0.0252384 0.368109
0.0827649 0.026978 0.37174
0.174502 0.0225986 0.366567
0.288731 0.0152132 0.358602
0.417258 0.00717174 0.3514
0.541985 0.00343328 0.352163
0.656474 0.0055848 0.362234
0.771511 0.0104829 0.376211
0 0.0843366 0.37293
0.0369116 0.0970932 0.389899
0.104891 0.106447 0.402853
0.209552 0.109651 0.407904
0.337652 0.109789 0.409857
0.479484 0.108995 0.411429
0.614694 0.112123 0.418647
0.736171 0.12047 0.43267
0.855314 0.130312 0.448432
0 0.189532 0.381262
0.0451209 0.211597 0.406729
0.121752 0.229282 0.427207
0.235508 0.239078 0.438575
0.371283 0.244343 0.445045
0.518563 0.247303 0.449226
0.657664 0.254276 0.45832
0.782223 0.266957 0.474037
0.904768 0.281544 0.49192
0 0.330648 0.397452
0.0533761 0.357565 0.425391
0.135027 0.378851 0.447456
0.254215 0.39205 0.461097
0.395422 0.400977 0.47039
0.548196 0.408011 0.477821
0.690929 0.418494 0.488914
0.8168 0.433738 0.504982
0.938704 0.449683 0.521782
0 0.490822 0.415229
0.0619669 0.521569 0.444984
0.149172 0.546777 0.469383
0.273503 0.562417 0.484627
0.418265 0.572549 0.494484
0.572519 0.579538 0.501213
0.714076 0.5888 0.510063
0.836225 0.601678 0.522332
0.952758 0.614298 0.534371
0.0137331 0.662211 0.45391
0.082475 0.692943 0.482444
0.173541 0.716777 0.504738
0.300298 0.729442 0.516915
0.445136 0.735454 0.522835
0.597391 0.737667 0.525078
0.735058 0.742016 0.529061
0.852155 0.750088 0.536324
0.963119 0.757992 0.543374
0.0376745 0.827024 0.503594
0.1093 0.852384 0.526802
0.201389 0.870314 0.543511
0.328313 0.876814 0.55024
0.471931 0.876844 0.551049
0.621836 0.873442 0.548547
0.756374 0.872953 0.548318
0.870192 0.87718 0.552026
0.978485 0.882261 0.556405
0.0561379 0.974502 0.539696
0.127932 0.993515 0.557137
0.219425 1 0.568658
0.345739 1 0.571099
0.488609 1 0.568643
0.637873 0.996216 0.563928
0.771908 0.993881 0.562295
0.885618 0.997375 0.565362
0.994598 1 0.569955
0 0 0.451545
0.00404364 0 0.457328
0.0547036 0 0.455283
0.135561 0 0.44097
0.2374 0 0.42295
0.352621 0 0.405692
0.46453 0 0.39762
0.568124 0 0.401205
0.674464 0 0.41117
0 0.0150607 0.474266
0.0209049 0.0213016 0.484413
0.0796368 0.0236973 0.489403
0.172473 0.0200504 0.485237
0.287984 0.0134127 0.478355
0.41796 0.00614939 0.472526
0.544076 0.00315862 0.475166
0.659693 0.00595102 0.487449
0.775586 0.0113985 0.503655
0 0.0823377 0.492409
0.0352636 0.0958419 0.511482
0.104463 0.106035 0.526452
0.210468 0.109972 0.532967
0.339803 0.110765 0.536202
0.482689 0.110491 0.538964
0.618616 0.113985 0.547601
0.740414 0.122515 0.563195
0.859785 0.132494 0.58056
0 0.190875 0.505364
0.0456245 0.213443 0.532982
0.123293 0.23151 0.555184
0.23798 0.241566 0.567514
0.37438 0.246921 0.574609
0.522393 0.250156 0.579629
0.662257 0.257527 0.590143
0.78732 0.270466 0.607569
0.910185 0.285222 0.627131
0 0.333989 0.52488
0.0548257 0.360769 0.554253
0.137407 0.382422 0.577966
0.257527 0.395941 0.592615
0.399512 0.405097 0.602716
0.55285 0.412238 0.610864
0.695872 0.422705 0.622889
0.821729 0.437797 0.640085
0.943404 0.453437 0.657908
0.000793469 0.495521 0.545556
0.0644694 0.526345 0.576974
0.152316 0.551507 0.602609
0.277195 0.567025 0.618372
0.422232 0.576928 0.628428
0.576516 0.583551 0.635187
0.717784 0.592309 0.64419
0.839475 0.604639 0.65687
0.955474 0.616724 0.669291
0.0159762 0.667231 0.587594
0.0850843 0.697551 0.617151
0.176287 0.720867 0.639948
0.303029 0.732937 0.651865
0.447715 0.738399 0.657328
0.599664 0.740063 0.659022
0.736919 0.743877 0.66273
0.853498 0.751415 0.670008
0.963989 0.758862 0.677165
0.0394598 0.830457 0.639475
0.111025 0.855161 0.66305
0.20293 0.872465 0.679728
0.32961 0.878386 0.685847
0.472923 0.877913 0.685832
0.622553 0.874144 0.682597
0.756817 0.873381 0.682002
0.870405 0.877394 0.685756
0.978546 0.882353 0.690333
0.0570382 0.975845 0.676341
0.128603 0.994278 0.693843
0.219883 1 0.705196
0.346029 1 0.706996
0.488777 1 0.703853
0.637995 0.996201 0.698528
0.77203 0.993927 0.696712
0.885832 0.997543 0.700053
0.994995 1 0.70515
0 0 0.549065
0 0 0.55552
0.0512551 0 0.554101
0.132967 0 0.540169
0.235737 0 0.522576
0.352209 0 0.506142
0.465583 0 0.499489
0.571023 0 0.505348
0.678584 0 0.517174
0 0.0119783 0.574563
0.0183261 0.0187228 0.585962
0.0781109 0.0217441 0.592279
0.172274 0.0187533 0.589212
0.289281 0.0128328 0.58349
0.420874 0.00633249 0.579049
0.548409 0.0040589 0.583322
0.665125 0.00747692 0.597436
0.781872 0.0134432 0.615381
0 0.0819104 0.597101
0.0348516 0.0961318 0.618036
0.105486 0.107073 0.634775
0.213001 0.111696 0.642588
0.343694 0.113054 0.646906
0.487694 0.113207 0.650614
0.624369 0.117006 0.660273
0.746502 0.125689 0.676966
0.866346 0.135943 0.695659
0 0.193805 0.614389
0.0471656 0.21677 0.643626
0.126009 0.235142 0.667109
0.241733 0.24535 0.680095
0.378866 0.250721 0.68751
0.527901 0.254337 0.693385
0.668574 0.262058 0.704997
0.794186 0.275242 0.72372
0.917403 0.290135 0.744503
0 0.338766 0.636362
0.0571603 0.365499 0.666819
0.140856 0.387472 0.691798
0.262074 0.401236 0.70724
0.404944 0.410544 0.717906
0.558923 0.417746 0.726513
0.702281 0.428138 0.739116
0.828153 0.443015 0.757
0.949615 0.458335 0.775387
0.00303655 0.501778 0.659358
0.0677195 0.532586 0.691936
0.156359 0.557656 0.718395
0.281895 0.572976 0.734386
0.427329 0.582559 0.744396
0.581689 0.588739 0.750942
0.722728 0.596963 0.759823
0.844007 0.608743 0.772564
0.959548 0.620279 0.785077
0.0187381 0.673701 0.703593
0.0883497 0.703532 0.733669
0.179797 0.726238 0.756558
0.306645 0.737682 0.768048
0.451286 0.74255 0.772915
0.603037 0.743664 0.773999
0.739956 0.746914 0.777295
0.856077 0.753902 0.784375
0.966217 0.760952 0.791501
0.0417487 0.835294 0.756359
0.113375 0.859312 0.779934
0.205219 0.875959 0.796368
0.331792 0.881285 0.801785
0.474937 0.880293 0.801007
0.624399 0.876173 0.797086
0.758511 0.875135 0.796124
0.871962 0.87895 0.799847
0.980041 0.883818 0.804578
0.0584573 0.978637 0.793072
0.129931 0.996536 0.810468
0.221134 1 0.821561
0.34728 1 0.822797
0.490043 1 0.819059
0.639323 0.99765 0.813275
0.77348 0.995438 0.811337
0.887449 0.999207 0.814939
0.996902 1 0.820493
0 0 0.634318
0 0 0.641245
0.0493935 0 0.640452
0.132265 0 0.627192
0.236072 0 0.610101
0.353933 0 0.594598
0.46894 0 0.589471
0.57615 0 0.59736
0.684993 0 0.610864
0 0.010132 0.662211
0.0169528 0.0173648 0.67483
0.0780041 0.0209812 0.682429
0.173678 0.0186313 0.680491
0.292332 0.0133974 0.67599
0.425635 0.00762951 0.672923
0.554604 0.00602731 0.678645
0.672419 0.0100557 0.694255
0.78996 0.0165255 0.713573
0 0.0828717 0.689067
0.0355993 0.0977646 0.711681
0.10782 0.109422 0.730007
0.216938 0.114641 0.738949
0.34905 0.116487 0.744167
0.494209 0.117021 0.748638
0.631601 0.121065 0.759045
0.75404 0.129839 0.77644
0.874632 0.140505 0.796429
0 0.198108 0.710369
0.0496529 0.221378 0.740856
0.129778 0.239979 0.765286
0.246601 0.250248 0.778668
0.384665 0.25568 0.786389
0.534829 0.259693 0.793027
0.676341 0.26772 0.805524
0.802518 0.281117 0.825208
0.92607 0.296101 0.846891
0.000198367 0.344717 0.734127
0.0603647 0.371557 0.765545
0.145281 0.393805 0.791531
0.267674 0.407736 0.807538
0.411505 0.417136 0.818586
0.566186 0.424323 0.827466
0.70988 0.434592 0.840406
0.835767 0.449241 0.858671
0.956985 0.464179 0.877272
0.00590524 0.509331 0.759106
0.0717174 0.540047 0.792477
0.161212 0.564965 0.819425
0.287465 0.580011 0.835431
0.433326 0.589197 0.845228
0.587808 0.594873 0.851377
0.728664 0.602548 0.859953
0.849607 0.613779 0.872572
0.964706 0.624765 0.884947
0.0220493 0.681331 0.804654
0.0922103 0.710613 0.834913
0.183948 0.732662 0.857618
0.311009 0.743465 0.868559
0.45568 0.747707 0.872755
0.607324 0.748226 0.873167
0.743938 0.750927 0.875944
0.859709 0.757397 0.88275
0.969558 0.76405 0.889754
0.0445258 0.841245 0.857389
0.116289 0.864546 0.880766
0.208164 0.880537 0.896803
0.334722 0.885252 0.901488
0.477806 0.883772 0.899962
0.627207 0.879271 0.89543
0.761242 0.877974 0.894118
0.874632 0.881621 0.89778
0.982727 0.886427 0.902602
0.0603647 0.982589 0.893385
0.131868 1 0.910567
0.223102 1 0.92137
0.34934 1 0.922087
0.492226 1 0.917861
0.641672 1 0.911696
0.776043 0.998199 0.909697
0.890288 1 0.913558
0.999573 1 0.919051
