luts/dark.cube
LUT_3D_SIZE 5
-0.043059 -0.037033 -0.030955
0.087129 0.039408 0.037140
0.162525 0.065613 0.056632
0.240261 0.084433 0.071556
0.322406 0.101345 0.085188
0.034867 0.114150 0.048170
0.090712 0.115766 0.052891
0.163571 0.115462 0.062580
0.240721 0.121923 0.074714
0.322687 0.131046 0.087305
0.057299 0.203308 0.071190
0.093570 0.203820 0.072675
0.166559 0.205336 0.078071
0.242561 0.203367 0.085453
0.323936 0.204460 0.095232
0.075575 0.290038 0.091339
0.102312 0.290297 0.092159
0.167216 0.291317 0.095485
0.245677 0.292876 0.101580
0.326360 0.289917 0.108628
0.093833 0.374704 0.111788
0.114324 0.374826 0.112355
0.171372 0.375510 0.114733
0.245371 0.376899 0.119326
0.330235 0.378679 0.126249
-0.030505 -0.018301 0.075658
0.086839 0.041850 0.080500
0.162608 0.066226 0.084708
0.240282 0.084718 0.092484
0.322425 0.101521 0.101611
0.035568 0.113750 0.084608
0.091575 0.116944 0.087376
0.163834 0.122552 0.092748
0.240898 0.130391 0.100103
0.322813 0.139825 0.108793
0.057532 0.203392 0.093717
0.098955 0.204030 0.098513
0.166872 0.205741 0.102090
0.242666 0.206363 0.107531
0.324046 0.208743 0.114892
0.075696 0.290096 0.107262
0.108625 0.290424 0.112145
0.169667 0.291421 0.114799
0.245799 0.293032 0.119454
0.326428 0.291551 0.125333
0.093917 0.374746 0.123601
0.120628 0.374956 0.128132
0.174822 0.375565 0.130276
0.246822 0.376964 0.134076
0.330276 0.378703 0.139888
0.016424 0.034866 0.138722
0.082036 0.047277 0.140073
0.162465 0.068487 0.143373
0.240414 0.085886 0.144218
0.322501 0.102265 0.147170
0.036707 0.107869 0.141545
0.092039 0.117804 0.142972
0.163920 0.123608 0.145483
0.241029 0.131407 0.147659
0.322912 0.140819 0.151235
0.058361 0.203226 0.147697
0.099557 0.204162 0.148535
0.167259 0.206293 0.150620
0.242885 0.209437 0.153830
0.324238 0.213927 0.158351
0.076209 0.290248 0.152580
0.109244 0.290580 0.154893
0.172123 0.291634 0.158171
0.246026 0.293342 0.161176
0.326607 0.293803 0.165238
0.094271 0.374830 0.161199
0.121284 0.375050 0.164119
0.178921 0.375776 0.168348
0.248712 0.377079 0.171141
0.330394 0.378900 0.175190
0.031001 0.049809 0.199461
0.081598 0.055801 0.200005
0.158273 0.071272 0.201875
0.240403 0.088072 0.204183
0.322651 0.103771 0.203533
0.040891 0.107520 0.200694
0.093067 0.119550 0.201542
0.162006 0.124866 0.203029
0.241076 0.132537 0.205165
0.323070 0.141746 0.205451
0.058917 0.198352 0.204264
0.100063 0.202002 0.204783
0.167478 0.206713 0.206103
0.243008 0.210212 0.208055
0.324403 0.214901 0.209563
0.077154 0.290252 0.209314
0.109828 0.290701 0.209742
0.172624 0.291857 0.210927
0.246348 0.293837 0.212951
0.326861 0.296485 0.215750
0.094973 0.375058 0.212713
0.121790 0.375312 0.214046
0.179642 0.376036 0.216470
0.250940 0.377341 0.219718
0.330529 0.379195 0.222559
0.039778 0.060720 0.258224
0.082510 0.064425 0.258533
0.155536 0.075642 0.259566
0.235622 0.090144 0.261279
0.322943 0.106072 0.263219
0.045921 0.109063 0.258901
0.094540 0.121967 0.259449
0.160493 0.126758 0.260362
0.237703 0.133803 0.261942
0.323354 0.143188 0.263847
0.060562 0.195304 0.261090
0.100963 0.200451 0.261491
0.167823 0.207392 0.262466
0.241362 0.210909 0.263880
0.324665 0.215668 0.265758
0.077491 0.285120 0.264670
0.110213 0.287044 0.264973
0.172974 0.290115 0.265810
0.246582 0.294263 0.267284
0.327097 0.297232 0.269267
0.096112 0.375415 0.269760
0.122579 0.375629 0.269975
0.180111 0.376383 0.270755
0.251435 0.377689 0.272226
0.330816 0.379581 0.274283
