luts/dark.cube
LUT_3D_SIZE 9
-0.043059 -0.037033 -0.030955
0.048460 -0.007297 0.016206
0.087129 0.039408 0.037140
0.124748 0.054246 0.047877
0.162525 0.065613 0.056632
0.200916 0.075455 0.064382
0.240261 0.084433 0.071556
0.280715 0.093010 0.078447
0.322406 0.101345 0.085188
0.007628 0.067197 0.029551
0.051929 0.068199 0.034527
0.088082 0.066613 0.041411
0.125171 0.072324 0.050024
0.162761 0.079272 0.057955
0.201048 0.086399 0.065264
0.240359 0.093566 0.072201
0.280829 0.100812 0.078960
0.322460 0.108110 0.085627
0.034867 0.114150 0.048170
0.053498 0.114641 0.049208
0.090712 0.115766 0.052891
0.126647 0.114286 0.057121
0.163571 0.115462 0.062580
0.201584 0.118230 0.068551
0.240721 0.121923 0.074714
0.281103 0.126254 0.080977
0.322687 0.131046 0.087305
0.047260 0.159142 0.060496
0.059685 0.159339 0.060997
0.091095 0.160135 0.062923
0.128470 0.160951 0.066153
0.165019 0.159568 0.069695
0.202553 0.159471 0.074143
0.241462 0.160578 0.079225
0.281684 0.162508 0.084726
0.323172 0.165035 0.090499
0.057299 0.203308 0.071190
0.066691 0.203415 0.071485
0.093570 0.203820 0.072675
0.128525 0.204652 0.074929
0.166559 0.205336 0.078071
0.204003 0.203981 0.081412
0.242561 0.203367 0.085453
0.282607 0.203632 0.090127
0.323936 0.204460 0.095232
0.066547 0.246916 0.081311
0.074060 0.246977 0.081526
0.097452 0.247255 0.082376
0.129784 0.247780 0.084029
0.166503 0.248646 0.086534
0.205524 0.249301 0.089741
0.244048 0.247874 0.093028
0.283841 0.246915 0.096915
0.324971 0.246527 0.101323
0.075575 0.290038 0.091339
0.081786 0.290102 0.091505
0.102312 0.290297 0.092159
0.132237 0.290690 0.093457
0.167216 0.291317 0.095485
0.205372 0.292186 0.098216
0.245677 0.292876 0.101580
0.285386 0.291266 0.104870
0.326360 0.289917 0.108628
0.084647 0.332725 0.101475
0.089881 0.332750 0.101609
0.107989 0.332900 0.102171
0.135641 0.333218 0.103234
0.168897 0.333726 0.104923
0.205752 0.334425 0.107246
0.245397 0.335332 0.110213
0.287254 0.336086 0.113742
0.328099 0.334057 0.116984
0.093833 0.374704 0.111788
0.098306 0.374741 0.111895
0.114324 0.374826 0.112355
0.139831 0.375121 0.113296
0.171372 0.375510 0.114733
0.206835 0.376081 0.116746
0.245371 0.376899 0.119326
0.286640 0.377833 0.122499
0.330235 0.378679 0.126249
-0.038104 -0.030625 0.042229
0.044068 0.006893 0.047119
0.087208 0.039915 0.050595
0.124788 0.054458 0.056994
0.162544 0.065734 0.063608
0.200921 0.075526 0.070046
0.240279 0.084492 0.076313
0.280740 0.093035 0.082531
0.322382 0.101380 0.088745
0.008631 0.064626 0.051196
0.053472 0.070436 0.054480
0.088626 0.075545 0.059036
0.125472 0.081639 0.064460
0.162939 0.087969 0.070049
0.201178 0.094411 0.075677
0.240435 0.100951 0.081342
0.280899 0.107626 0.087096
0.322500 0.114433 0.092912
0.035071 0.114240 0.058376
0.059816 0.114988 0.063333
0.091298 0.116534 0.065824
0.126824 0.117788 0.069295
0.163714 0.120086 0.073605
0.201691 0.123220 0.078426
0.240817 0.126997 0.083563
0.281180 0.131291 0.088961
0.322738 0.135986 0.094542
0.047337 0.159170 0.067347
0.066288 0.159522 0.071984
0.093798 0.160263 0.073520
0.128768 0.161323 0.076045
0.165100 0.161352 0.079150
0.202660 0.162086 0.082976
0.241524 0.163599 0.087382
0.281756 0.165761 0.092221
0.323233 0.168384 0.097381
0.057341 0.203317 0.076377
0.072874 0.203502 0.080484
0.097097 0.203927 0.081567
0.129974 0.204723 0.083418
0.166734 0.205556 0.086085
0.204062 0.205077 0.089114
0.242622 0.205037 0.092768
0.282624 0.205623 0.096973
0.323975 0.206692 0.101611
0.066577 0.246925 0.085457
0.079720 0.247063 0.089110
0.101228 0.247336 0.089952
0.131876 0.247857 0.091382
0.167400 0.248676 0.093555
0.205633 0.249425 0.096409
0.244088 0.248601 0.099471
0.283877 0.248069 0.103072
0.325068 0.247953 0.107167
0.075600 0.290051 0.094753
0.086923 0.290161 0.098004
0.106098 0.290358 0.098698
0.134631 0.290722 0.099865
0.168583 0.291360 0.101675
0.205986 0.292225 0.104149
0.245739 0.292955 0.107217
0.285426 0.291796 0.110342
0.326375 0.290749 0.113902
0.084671 0.332727 0.104351
0.094548 0.332794 0.107259
0.111679 0.332976 0.107849
0.138179 0.333289 0.108837
0.170553 0.333759 0.110385
0.206732 0.334453 0.112523
0.245850 0.335357 0.115278
0.287304 0.336135 0.118565
0.328105 0.334437 0.121695
0.093843 0.374727 0.114219
0.102558 0.374769 0.116843
0.117874 0.374935 0.117368
0.142423 0.375197 0.118228
0.173175 0.375546 0.119571
0.208039 0.376113 0.121457
0.246135 0.376938 0.123887
0.286973 0.377812 0.126870
0.330247 0.378692 0.130408
-0.030505 -0.018301 0.075658
0.039316 0.012242 0.076848
0.086839 0.041850 0.080500
0.124921 0.055340 0.081863
0.162608 0.066226 0.084708
0.200970 0.075844 0.088375
0.240282 0.084718 0.092484
0.280774 0.093227 0.096924
0.322425 0.101521 0.101611
0.004322 0.057257 0.078207
0.053973 0.071315 0.080528
0.088765 0.076372 0.083081
0.125583 0.082290 0.085621
0.162989 0.088514 0.088749
0.201219 0.094887 0.092360
0.240458 0.101381 0.096321
0.280922 0.108023 0.100597
0.322510 0.114809 0.105131
0.035568 0.113750 0.084608
0.060239 0.115144 0.085714
0.091575 0.116944 0.087376
0.126973 0.119401 0.089740
0.163834 0.122552 0.092748
0.201802 0.126248 0.096234
0.240898 0.130391 0.100103
0.281274 0.134942 0.104310
0.322813 0.139825 0.108793
0.047663 0.159316 0.088415
0.066648 0.159656 0.090779
0.094984 0.160411 0.092612
0.128979 0.161619 0.094481
0.165178 0.162524 0.096870
0.202727 0.163971 0.099827
0.241616 0.165981 0.103283
0.281823 0.168506 0.107165
0.323288 0.171430 0.111389
0.057532 0.203392 0.093717
0.073183 0.203581 0.096480
0.098955 0.204030 0.098513
0.130885 0.204813 0.100044
0.166872 0.205741 0.102090
0.204122 0.205878 0.104547
0.242666 0.206363 0.107531
0.282693 0.207361 0.111003
0.324046 0.208743 0.114892
0.066704 0.246970 0.100098
0.080004 0.247110 0.102890
0.103493 0.247398 0.105027
0.133344 0.247926 0.106328
0.168049 0.248745 0.108070
0.205741 0.249557 0.110381
0.244137 0.249198 0.112975
0.283891 0.249068 0.116048
0.325088 0.249282 0.119556
0.075696 0.290096 0.107262
0.087190 0.290196 0.109967
0.108625 0.290424 0.112145
0.136492 0.290812 0.113299
0.169667 0.291421 0.114799
0.206500 0.292273 0.116864
0.245799 0.293032 0.119454
0.285507 0.292286 0.122196
0.326428 0.291551 0.125333
0.084749 0.332745 0.115153
0.094796 0.332828 0.117692
0.114345 0.333027 0.119866
0.140309 0.333331 0.120916
0.171951 0.333807 0.122238
0.207590 0.334508 0.124077
0.246256 0.335391 0.126450
0.287367 0.336190 0.129325
0.328150 0.334827 0.132131
0.093917 0.374746 0.123601
0.102795 0.374817 0.125974
0.120628 0.374956 0.128132
0.144748 0.375223 0.129102
0.174822 0.375565 0.130276
0.209179 0.376116 0.131932
0.246822 0.376964 0.134076
0.287302 0.377818 0.136729
0.330276 0.378703 0.139888
-0.017264 0.022059 0.107578
0.040772 0.027910 0.108011
0.083570 0.043792 0.110064
0.124631 0.056808 0.112279
0.162733 0.067180 0.112888
0.201045 0.076471 0.114291
0.240326 0.085175 0.116425
0.280816 0.093591 0.119070
0.322466 0.101812 0.122119
0.012654 0.057902 0.108616
0.054982 0.072959 0.110051
0.087979 0.077380 0.111544
0.125545 0.083070 0.113546
0.163103 0.089089 0.114877
0.201300 0.095318 0.116658
0.240516 0.101726 0.118937
0.280960 0.108309 0.121654
0.322583 0.115055 0.124710
0.035540 0.109729 0.112402
0.060605 0.114207 0.113141
0.091737 0.117265 0.114278
0.127059 0.119925 0.115853
0.163937 0.123134 0.117408
0.201872 0.126863 0.119387
0.240958 0.131040 0.121818
0.281317 0.135612 0.124645
0.322877 0.140536 0.127791
0.048138 0.158959 0.116438
0.066967 0.159605 0.116968
0.095292 0.160548 0.117831
0.129203 0.161939 0.119178
0.165297 0.163638 0.120868
0.202848 0.165788 0.123013
0.241713 0.168384 0.125571
0.281915 0.171386 0.128503
0.323404 0.174768 0.131758
0.057900 0.203531 0.119016
0.073440 0.203712 0.120318
0.099322 0.204162 0.121564
0.131723 0.204954 0.123149
0.167066 0.206006 0.124718
0.204213 0.206838 0.126626
0.242772 0.207963 0.128954
0.282787 0.209494 0.131689
0.324117 0.211368 0.134789
0.066960 0.247075 0.122698
0.080204 0.247190 0.124416
0.103899 0.247497 0.125980
0.134756 0.248048 0.127833
0.168813 0.248852 0.129279
0.205864 0.249737 0.131053
0.244205 0.249941 0.133138
0.283973 0.250316 0.135627
0.325169 0.251006 0.138498
0.075892 0.290164 0.127525
0.087349 0.290247 0.129400
0.109055 0.290479 0.131171
0.138345 0.290899 0.133219
0.170964 0.291517 0.134561
0.207096 0.292355 0.136198
0.245907 0.293168 0.138272
0.285577 0.292879 0.140545
0.326526 0.292604 0.143178
0.084909 0.332794 0.133298
0.094927 0.332896 0.135208
0.114804 0.333078 0.137102
0.142521 0.333417 0.139306
0.173688 0.333896 0.140585
0.208620 0.334576 0.142072
0.246751 0.335463 0.144009
0.287444 0.336296 0.146388
0.328210 0.335340 0.148804
0.094048 0.374788 0.139844
0.102917 0.374815 0.141738
0.121115 0.375028 0.143726
0.147266 0.375270 0.146024
0.176917 0.375702 0.147249
0.210604 0.376273 0.148634
0.247701 0.377016 0.150429
0.287748 0.377909 0.152662
0.330305 0.378757 0.155347
0.016424 0.034866 0.138722
0.042783 0.037352 0.138956
0.082036 0.047277 0.140073
0.122103 0.058182 0.141749
0.162465 0.068487 0.143373
0.201169 0.077434 0.143558
0.240414 0.085886 0.144218
0.280867 0.094140 0.145490
0.322501 0.102265 0.147170
0.022670 0.060550 0.139283
0.056338 0.075108 0.140190
0.087573 0.078876 0.141103
0.124278 0.083991 0.142538
0.163000 0.089920 0.144095
0.201410 0.095989 0.144769
0.240594 0.102254 0.145754
0.281027 0.108752 0.147206
0.322609 0.115440 0.148991
0.036707 0.107869 0.141545
0.061274 0.113784 0.142142
0.092039 0.117804 0.142972
0.126522 0.120436 0.144100
0.163920 0.123608 0.145483
0.201983 0.127289 0.146429
0.241029 0.131407 0.147659
0.281364 0.135930 0.149298
0.322912 0.140819 0.151235
0.048245 0.155931 0.144540
0.067237 0.158099 0.144882
0.095524 0.159949 0.145489
0.129305 0.162147 0.146475
0.165369 0.164051 0.147717
0.202959 0.166301 0.148958
0.241793 0.168990 0.150488
0.281995 0.172065 0.152370
0.323450 0.175524 0.154570
0.058361 0.203226 0.147697
0.073787 0.203592 0.148016
0.099557 0.204162 0.148535
0.131967 0.205066 0.149420
0.167259 0.206293 0.150620
0.204322 0.207694 0.152062
0.242885 0.209437 0.153830
0.282903 0.211525 0.155943
0.324238 0.213927 0.158351
0.067365 0.247197 0.149712
0.080507 0.247329 0.150535
0.104117 0.247625 0.151402
0.135096 0.248184 0.152641
0.169473 0.249002 0.154075
0.206033 0.249978 0.155485
0.244305 0.250745 0.157162
0.284099 0.251732 0.159179
0.325260 0.252966 0.161498
0.076209 0.290248 0.152580
0.087606 0.290360 0.153731
0.109244 0.290580 0.154893
0.138753 0.291008 0.156460
0.172123 0.291634 0.158171
0.207737 0.292476 0.159545
0.246026 0.293342 0.161176
0.285628 0.293555 0.163060
0.326607 0.293803 0.165238
0.085168 0.332886 0.156474
0.095147 0.332967 0.157792
0.114981 0.333162 0.159160
0.143010 0.333504 0.161001
0.175260 0.334015 0.162933
0.209778 0.334686 0.164276
0.247309 0.335550 0.165842
0.287471 0.336414 0.167773
0.328297 0.335931 0.169797
0.094271 0.374830 0.161199
0.103102 0.374900 0.162601
0.121284 0.375050 0.164119
0.147806 0.375338 0.166194
0.178921 0.375776 0.168348
0.212233 0.376368 0.169658
0.248712 0.377079 0.171141
0.288264 0.378031 0.172974
0.330394 0.378900 0.175190
0.025185 0.043152 0.169332
0.045112 0.044704 0.169479
0.081557 0.051455 0.170168
0.120301 0.060332 0.171285
0.160219 0.069653 0.172699
0.200945 0.078649 0.173981
0.240532 0.086880 0.173876
0.280974 0.094929 0.174064
0.322568 0.102913 0.174685
0.028515 0.063809 0.169677
0.057910 0.077561 0.170305
0.087570 0.080768 0.170884
0.123241 0.085264 0.171883
0.161519 0.090784 0.173169
0.201285 0.096859 0.174447
0.240724 0.103005 0.174683
0.281120 0.109383 0.175132
0.322669 0.115976 0.175912
0.038604 0.107338 0.171149
0.062214 0.113902 0.171602
0.092491 0.118581 0.172234
0.126089 0.121134 0.173050
0.162959 0.124157 0.174175
0.201901 0.127844 0.175366
0.241131 0.131900 0.175863
0.281436 0.136377 0.176569
0.322974 0.141213 0.177535
0.048841 0.153787 0.173262
0.067705 0.156882 0.173565
0.095862 0.159505 0.174064
0.129455 0.162448 0.174848
0.164995 0.164396 0.175803
0.202943 0.166651 0.176955
0.241899 0.169317 0.177749
0.282084 0.172376 0.178727
0.323528 0.175817 0.179975
0.058505 0.200608 0.175862
0.074013 0.201871 0.176078
0.099768 0.203072 0.176453
0.132167 0.204687 0.177114
0.167358 0.206490 0.178032
0.204388 0.208043 0.179140
0.242981 0.209885 0.180235
0.282988 0.212085 0.181556
0.324307 0.214600 0.183147
0.067842 0.246975 0.178652
0.080888 0.247206 0.178846
0.104390 0.247576 0.179211
0.135296 0.248221 0.179843
0.169688 0.249110 0.180731
0.206223 0.250254 0.181883
0.244416 0.251533 0.183212
0.284194 0.253063 0.184799
0.325381 0.254865 0.186670
0.076648 0.290416 0.180319
0.087968 0.290508 0.180899
0.109505 0.290717 0.181544
0.138968 0.291149 0.182506
0.172426 0.291791 0.183714
0.208341 0.292617 0.185104
0.246179 0.293570 0.186448
0.285735 0.294288 0.187990
0.326709 0.295136 0.189812
0.085525 0.333021 0.182704
0.095449 0.333088 0.183546
0.115216 0.333272 0.184434
0.143201 0.333616 0.185700
0.175648 0.334110 0.187251
0.210834 0.334826 0.188902
0.247907 0.335687 0.190234
0.287601 0.336589 0.191817
0.328370 0.336622 0.193524
0.094587 0.374956 0.185920
0.103374 0.375040 0.186885
0.121497 0.375155 0.187977
0.148007 0.375474 0.189522
0.179395 0.375823 0.191352
0.213752 0.376444 0.193286
0.249837 0.377240 0.194619
0.288841 0.378108 0.196136
0.330461 0.379003 0.197974
0.031001 0.049809 0.199461
0.047527 0.050937 0.199569
0.081598 0.055801 0.200005
0.119181 0.063058 0.200795
0.158273 0.071272 0.201875
0.198717 0.079675 0.203071
0.240403 0.088072 0.204183
0.281104 0.095945 0.203772
0.322651 0.103771 0.203533
0.033288 0.067243 0.199714
0.059618 0.080186 0.200138
0.087844 0.082921 0.200561
0.122529 0.086872 0.201259
0.160096 0.091917 0.202247
0.199594 0.097690 0.203391
0.240605 0.103926 0.204477
0.281221 0.110196 0.204362
0.322782 0.116682 0.204358
0.040891 0.107520 0.200694
0.063367 0.114396 0.201055
0.093067 0.119550 0.201542
0.125827 0.122016 0.202165
0.162006 0.124866 0.203029
0.200629 0.128404 0.204090
0.241076 0.132537 0.205165
0.281582 0.136962 0.205271
0.323070 0.141746 0.205451
0.049873 0.152504 0.202265
0.068405 0.156099 0.202531
0.096325 0.159307 0.202928
0.129696 0.162880 0.203569
0.164611 0.164850 0.204330
0.202154 0.167048 0.205294
0.241877 0.169746 0.206347
0.282207 0.172776 0.206745
0.323632 0.176184 0.207222
0.058917 0.198352 0.204264
0.074396 0.200258 0.204451
0.100063 0.202002 0.204783
0.132407 0.204309 0.205332
0.167478 0.206713 0.206103
0.204091 0.208342 0.207002
0.243008 0.210212 0.208055
0.283102 0.212390 0.208768
0.324403 0.214901 0.209563
0.067983 0.244466 0.206680
0.081086 0.245319 0.206832
0.104575 0.246167 0.207097
0.135475 0.247343 0.207583
0.169848 0.248822 0.208281
0.206326 0.250452 0.209197
0.244503 0.251869 0.210276
0.284331 0.253511 0.211301
0.325458 0.255429 0.212490
0.077154 0.290252 0.209314
0.088386 0.290420 0.209466
0.109828 0.290701 0.209742
0.139202 0.291178 0.210221
0.172624 0.291857 0.210927
0.208525 0.292758 0.211826
0.246348 0.293837 0.212951
0.285855 0.295079 0.214241
0.326861 0.296485 0.215750
0.086001 0.333159 0.210769
0.095860 0.333239 0.211173
0.115533 0.333414 0.211695
0.143430 0.333751 0.212468
0.175876 0.334275 0.213492
0.211113 0.334974 0.214704
0.248495 0.335837 0.216078
0.287752 0.336807 0.217396
0.328492 0.337354 0.218862
0.094973 0.375058 0.212713
0.103725 0.375100 0.213338
0.121790 0.375312 0.214046
0.148224 0.375560 0.215095
0.179642 0.376036 0.216470
0.214146 0.376636 0.218003
0.250940 0.377341 0.219718
0.289427 0.378248 0.221010
0.330529 0.379195 0.222559
0.035705 0.055556 0.229123
0.049939 0.056443 0.229195
0.081955 0.060139 0.229532
0.118473 0.066144 0.230128
0.156795 0.073321 0.230911
0.196639 0.081024 0.231888
0.238019 0.089005 0.232946
0.281035 0.097150 0.233968
0.322782 0.104820 0.233158
0.037453 0.070703 0.229318
0.061393 0.082904 0.229649
0.088305 0.085269 0.229936
0.122068 0.088739 0.230473
0.158950 0.093322 0.231231
0.197902 0.098727 0.232159
0.238676 0.104716 0.233174
0.281223 0.111173 0.234209
0.322931 0.117558 0.233634
0.043369 0.108160 0.230048
0.064693 0.115178 0.230322
0.093753 0.120690 0.230709
0.125714 0.123070 0.231187
0.161223 0.125733 0.231862
0.199310 0.129110 0.232724
0.239457 0.133119 0.233701
0.281583 0.137669 0.234723
0.323191 0.142401 0.234345
0.051219 0.151709 0.231228
0.069290 0.155647 0.231445
0.096896 0.159322 0.231772
0.129998 0.163411 0.232308
0.164296 0.165421 0.232933
0.201279 0.167533 0.233726
0.240697 0.170151 0.234660
0.282206 0.173276 0.235657
0.323736 0.176658 0.235568
0.059630 0.196667 0.232785
0.074954 0.198968 0.232959
0.100467 0.201163 0.233248
0.132706 0.204055 0.233728
0.167631 0.207029 0.234370
0.203731 0.208712 0.235133
0.242256 0.210536 0.236028
0.283144 0.212738 0.237025
0.324517 0.215241 0.237257
0.068301 0.242096 0.234746
0.081403 0.243399 0.234881
0.104846 0.244688 0.235137
0.135695 0.246408 0.235540
0.170051 0.248483 0.236145
0.206434 0.250659 0.236929
0.244198 0.252129 0.237818
0.284354 0.253807 0.238864
0.325584 0.255727 0.239430
0.077260 0.287739 0.237109
0.088549 0.288355 0.237231
0.109991 0.288984 0.237441
0.139360 0.289902 0.237815
0.172774 0.291094 0.238375
0.208680 0.292493 0.239137
0.246471 0.294070 0.240062
0.285968 0.295393 0.241149
0.326947 0.296944 0.242077
0.086545 0.333187 0.239765
0.096333 0.333262 0.239848
0.115905 0.333476 0.240059
0.143714 0.333812 0.240454
0.176096 0.334359 0.241011
0.211325 0.335088 0.241780
0.248680 0.336016 0.242691
0.287867 0.337031 0.243810
0.328659 0.338209 0.245071
0.095488 0.375226 0.240799
0.104177 0.375320 0.241143
0.122149 0.375405 0.241563
0.148507 0.375724 0.242212
0.179857 0.376127 0.243104
0.214378 0.376723 0.244196
0.251220 0.377525 0.245443
0.290145 0.378455 0.246896
0.330631 0.379364 0.248203
0.039778 0.060720 0.258224
0.052319 0.061472 0.258287
0.082510 0.064425 0.258533
0.117974 0.069381 0.258974
0.155536 0.075642 0.259566
0.194756 0.082671 0.260382
0.235622 0.090144 0.261279
0.278297 0.097967 0.262195
0.322943 0.106072 0.263219
0.041186 0.074106 0.258357
0.063205 0.085656 0.258590
0.088876 0.087728 0.258840
0.121732 0.090777 0.259246
0.157926 0.094949 0.259842
0.196281 0.099981 0.260582
0.236586 0.105667 0.261491
0.278758 0.111902 0.262393
0.323056 0.118610 0.263401
0.045921 0.109063 0.258901
0.066124 0.116143 0.259112
0.094540 0.121967 0.259449
0.125679 0.124255 0.259813
0.160493 0.126758 0.260362
0.197993 0.129958 0.261075
0.237703 0.133803 0.261942
0.279420 0.138228 0.262824
0.323354 0.143188 0.263847
0.052785 0.151200 0.259830
0.070319 0.155363 0.260011
0.097545 0.159438 0.260286
0.130364 0.164055 0.260731
0.164019 0.166068 0.261245
0.200395 0.168107 0.261915
0.239314 0.170652 0.262725
0.280458 0.173712 0.263603
0.323894 0.177229 0.264594
0.060562 0.195304 0.261090
0.075657 0.197855 0.261245
0.100963 0.200451 0.261491
0.133072 0.203888 0.261895
0.167823 0.207392 0.262466
0.203350 0.209131 0.263114
0.241362 0.210909 0.263880
0.281806 0.213091 0.264740
0.324665 0.215668 0.265758
0.068823 0.240035 0.262673
0.081856 0.241643 0.262811
0.105191 0.243276 0.263037
0.135978 0.245515 0.263417
0.170279 0.248169 0.263938
0.206560 0.250902 0.264638
0.243829 0.252433 0.265393
0.283522 0.254079 0.266270
0.325744 0.256049 0.267298
0.077491 0.285120 0.264670
0.088784 0.286045 0.264772
0.110213 0.287044 0.264973
0.139554 0.288424 0.265306
0.172974 0.290115 0.265810
0.208867 0.292105 0.266460
0.246582 0.294263 0.267284
0.285578 0.295654 0.268163
0.327097 0.297232 0.269267
0.086574 0.330319 0.267032
0.096429 0.330776 0.267115
0.116007 0.331280 0.267301
0.143836 0.332054 0.267615
0.176231 0.333015 0.268078
0.211446 0.334206 0.268734
0.248829 0.335634 0.269524
0.288029 0.337275 0.270504
0.328747 0.338597 0.271628
0.096112 0.375415 0.269760
0.104716 0.375455 0.269796
0.122579 0.375629 0.269975
0.148833 0.375872 0.270279
0.180111 0.376383 0.270755
0.214592 0.376973 0.271426
0.251435 0.377689 0.272226
0.290252 0.378656 0.273159
0.330816 0.379581 0.274283
