luts/dark.cube
LUT_3D_SIZE 33
-0.043059 -0.037033 -0.030955
-0.009474 -0.033583 -0.025991
0.024112 -0.030134 -0.021027
0.037816 -0.019285 -0.003385
0.048460 -0.007297 0.016206
0.058407 0.008117 0.024999
0.068100 0.024777 0.029866
0.077659 0.034429 0.033810
0.087129 0.039408 0.037140
0.096566 0.043810 0.040182
0.105964 0.047551 0.042896
0.115359 0.051095 0.045498
0.124748 0.054246 0.047877
0.134147 0.057335 0.050218
0.143583 0.060172 0.052408
0.153023 0.062996 0.054588
0.162525 0.065613 0.056632
0.172028 0.068231 0.058675
0.181626 0.070683 0.060605
0.191231 0.073123 0.062527
0.200916 0.075455 0.064382
0.210622 0.077761 0.066221
0.220445 0.080014 0.068020
0.230327 0.082241 0.069798
0.240261 0.084433 0.071556
0.250240 0.086595 0.073296
0.260300 0.088747 0.075025
0.270481 0.090883 0.076737
0.280715 0.093010 0.078447
0.291096 0.095108 0.080149
0.301487 0.097203 0.081847
0.311946 0.099274 0.083517
0.322406 0.101345 0.085188
-0.038177 0.000366 -0.012008
-0.005851 0.002778 -0.007439
0.026476 0.005190 -0.002871
0.039176 0.008990 0.007643
0.048857 0.013004 0.019070
0.058521 0.021678 0.025551
0.068179 0.032047 0.030233
0.077718 0.038711 0.034075
0.087178 0.042906 0.037359
0.096606 0.046722 0.040366
0.105998 0.050106 0.043057
0.115392 0.053352 0.045647
0.124788 0.056324 0.048035
0.134190 0.059242 0.050381
0.143618 0.061947 0.052565
0.153052 0.064639 0.054739
0.162553 0.067144 0.056768
0.172055 0.069649 0.058797
0.181647 0.072016 0.060717
0.191245 0.074372 0.062629
0.200929 0.076638 0.064474
0.210635 0.078880 0.066302
0.220456 0.081079 0.068094
0.230335 0.083257 0.069867
0.240265 0.085403 0.071621
0.250242 0.087522 0.073359
0.260305 0.089635 0.075086
0.270499 0.091736 0.076799
0.280738 0.093828 0.078506
0.291104 0.095892 0.080201
0.301483 0.097953 0.081892
0.311942 0.099995 0.083564
0.322400 0.102037 0.085236
-0.033296 0.037764 0.006939
-0.002228 0.039139 0.011112
0.028840 0.040513 0.015286
0.040537 0.037264 0.018671
0.049253 0.033304 0.021934
0.058635 0.035239 0.026103
0.068259 0.039317 0.030600
0.077778 0.042994 0.034341
0.087227 0.046404 0.037578
0.096647 0.049635 0.040550
0.106033 0.052661 0.043219
0.115425 0.055609 0.045797
0.124827 0.058401 0.048193
0.134233 0.061150 0.050545
0.143654 0.063721 0.052722
0.153080 0.066281 0.054889
0.162581 0.068674 0.056904
0.172081 0.071067 0.058919
0.181667 0.073349 0.060829
0.191259 0.075622 0.062731
0.200942 0.077820 0.064566
0.210649 0.079999 0.066383
0.220467 0.082144 0.068168
0.230342 0.084272 0.069936
0.240270 0.086373 0.071686
0.250244 0.088450 0.073421
0.260310 0.090522 0.075147
0.270516 0.092589 0.076860
0.280761 0.094646 0.078566
0.291113 0.096676 0.080253
0.301480 0.098703 0.081938
0.311937 0.100716 0.083611
0.322395 0.102730 0.085285
-0.013947 0.054101 0.018790
0.007405 0.054872 0.021311
0.028758 0.055644 0.023832
0.040388 0.053522 0.025941
0.050524 0.050955 0.027985
0.059933 0.051077 0.030758
0.069078 0.052176 0.033794
0.078320 0.053899 0.036645
0.087627 0.056036 0.039373
0.096944 0.058231 0.041968
0.106273 0.060492 0.044412
0.115617 0.062752 0.046795
0.124990 0.065014 0.049054
0.134368 0.067258 0.051279
0.143767 0.069435 0.053367
0.153173 0.071606 0.055445
0.162667 0.073704 0.057402
0.172160 0.075802 0.059358
0.181733 0.077846 0.061227
0.191312 0.079885 0.063090
0.200992 0.081888 0.064896
0.210698 0.083881 0.066688
0.220514 0.085857 0.068450
0.230386 0.087826 0.070198
0.240312 0.089782 0.071930
0.250284 0.091726 0.073648
0.260349 0.093672 0.075359
0.270554 0.095622 0.077058
0.280794 0.097567 0.078753
0.291133 0.099500 0.080435
0.301489 0.101432 0.082115
0.311957 0.103354 0.083781
0.322424 0.105277 0.085447
0.007628 0.067197 0.029551
0.017963 0.067432 0.030226
0.028299 0.067667 0.030901
0.040008 0.067931 0.032633
0.051929 0.068199 0.034527
0.061413 0.067266 0.036044
0.070011 0.065896 0.037423
0.078937 0.065822 0.039263
0.088082 0.066613 0.041411
0.097282 0.067702 0.043577
0.106545 0.069134 0.045764
0.115834 0.070647 0.047923
0.125171 0.072324 0.050024
0.134516 0.074013 0.052102
0.143892 0.075754 0.054086
0.153276 0.077497 0.056064
0.162761 0.079272 0.057955
0.172247 0.081047 0.059847
0.181807 0.082829 0.061670
0.191372 0.084613 0.063488
0.201048 0.086399 0.065264
0.210752 0.088187 0.067028
0.220566 0.089978 0.068765
0.230436 0.091771 0.070490
0.240359 0.093566 0.072201
0.250330 0.095363 0.073901
0.260393 0.097170 0.075594
0.270594 0.098990 0.077278
0.280829 0.100812 0.078960
0.291155 0.102639 0.080638
0.301501 0.104465 0.082313
0.311980 0.106288 0.083970
0.322460 0.108110 0.085627
0.018594 0.079330 0.035851
0.024550 0.079404 0.036001
0.030507 0.079479 0.036151
0.040945 0.080179 0.037438
0.052072 0.080976 0.038901
0.061726 0.080385 0.040072
0.070843 0.079291 0.041138
0.079850 0.078776 0.042531
0.088784 0.078647 0.044142
0.097823 0.078937 0.045870
0.106981 0.079705 0.047731
0.116179 0.080605 0.049602
0.125458 0.081766 0.051492
0.134750 0.082961 0.053373
0.144091 0.084289 0.055216
0.153441 0.085625 0.057057
0.162906 0.087067 0.058854
0.172372 0.088509 0.060651
0.181924 0.090007 0.062406
0.191482 0.091508 0.064158
0.201145 0.093044 0.065880
0.210835 0.094589 0.067594
0.220640 0.096161 0.069293
0.230503 0.097747 0.070983
0.240424 0.099347 0.072662
0.250395 0.100958 0.074331
0.260454 0.102587 0.075998
0.270642 0.104240 0.077663
0.280870 0.105899 0.079326
0.291206 0.107578 0.080986
0.301560 0.109257 0.082644
0.312029 0.110943 0.084288
0.322498 0.112629 0.085932
0.025702 0.091113 0.040530
0.029694 0.091163 0.040635
0.033685 0.091213 0.040740
0.042361 0.091641 0.041558
0.051758 0.092128 0.042486
0.061614 0.092389 0.043644
0.071638 0.092568 0.044884
0.080871 0.092104 0.046035
0.089577 0.091211 0.047126
0.098438 0.090812 0.048412
0.107476 0.090978 0.049922
0.116572 0.091312 0.051482
0.125784 0.091983 0.053142
0.135015 0.092705 0.054807
0.144317 0.093630 0.056496
0.153629 0.094567 0.058185
0.163070 0.095673 0.059878
0.172511 0.096779 0.061570
0.182057 0.097982 0.063248
0.191610 0.099192 0.064926
0.201258 0.100465 0.066587
0.210929 0.101754 0.068243
0.220722 0.103095 0.069897
0.230576 0.104462 0.071551
0.240494 0.105854 0.073193
0.250468 0.107266 0.074826
0.260521 0.108702 0.076463
0.270692 0.110173 0.078108
0.280912 0.111657 0.079750
0.291268 0.113172 0.081388
0.301637 0.114690 0.083024
0.312088 0.116226 0.084654
0.322538 0.117761 0.086284
0.030916 0.102697 0.044564
0.033816 0.102735 0.044644
0.036716 0.102773 0.044723
0.044173 0.103047 0.045277
0.052332 0.103359 0.045903
0.061840 0.103877 0.046917
0.071840 0.104470 0.048072
0.081225 0.104277 0.049097
0.090201 0.103560 0.050034
0.099148 0.103036 0.051100
0.108062 0.102733 0.052314
0.117051 0.102623 0.053604
0.126189 0.102901 0.055046
0.135353 0.103241 0.056507
0.144616 0.103830 0.058037
0.153889 0.104433 0.059570
0.163299 0.105245 0.061147
0.172708 0.106057 0.062724
0.182238 0.106998 0.064315
0.191776 0.107949 0.065907
0.201408 0.108982 0.067500
0.211064 0.110036 0.069093
0.220844 0.111159 0.070694
0.230685 0.112317 0.072298
0.240597 0.113506 0.073896
0.250569 0.114723 0.075489
0.260618 0.115971 0.077091
0.270781 0.117263 0.078704
0.280994 0.118570 0.080316
0.291344 0.119917 0.081925
0.301706 0.121268 0.083535
0.312155 0.122647 0.085144
0.322604 0.124026 0.086754
0.034867 0.114150 0.048170
0.037258 0.114183 0.048236
0.039649 0.114216 0.048303
0.046249 0.114416 0.048728
0.053498 0.114641 0.049208
0.062292 0.115020 0.049992
0.071648 0.115454 0.050888
0.081136 0.115680 0.051863
0.090712 0.115766 0.052891
0.099921 0.115493 0.053884
0.108708 0.114809 0.054838
0.117587 0.114337 0.055886
0.126647 0.114286 0.057121
0.135739 0.114305 0.058383
0.144963 0.114602 0.059751
0.154197 0.114916 0.061125
0.163571 0.115462 0.062580
0.172944 0.116007 0.064035
0.182451 0.116708 0.065531
0.191967 0.117421 0.067030
0.201584 0.118230 0.068551
0.211227 0.119064 0.070077
0.220992 0.119978 0.071617
0.230819 0.120931 0.073165
0.240721 0.121923 0.074714
0.250689 0.122948 0.076265
0.260735 0.124009 0.077826
0.270898 0.125123 0.079401
0.281103 0.126254 0.080977
0.291427 0.127430 0.082554
0.301769 0.128611 0.084133
0.312228 0.129828 0.085719
0.322687 0.131046 0.087305
0.038429 0.125513 0.051541
0.040438 0.125543 0.051600
0.042448 0.125573 0.051660
0.048347 0.125718 0.051989
0.054844 0.125880 0.052359
0.063024 0.126157 0.052971
0.071816 0.126477 0.053671
0.081174 0.126889 0.054554
0.090911 0.127361 0.055557
0.100277 0.127333 0.056488
0.109221 0.126732 0.057336
0.118178 0.126220 0.058251
0.127159 0.125885 0.059300
0.136179 0.125626 0.060382
0.145354 0.125669 0.061600
0.154541 0.125730 0.062825
0.163879 0.126042 0.064160
0.173217 0.126354 0.065495
0.182696 0.126842 0.066895
0.192185 0.127342 0.068300
0.201785 0.127949 0.069742
0.211413 0.128584 0.071194
0.221165 0.129307 0.072670
0.230980 0.130075 0.074157
0.240871 0.130886 0.075653
0.250828 0.131736 0.077159
0.260865 0.132624 0.078675
0.271019 0.133570 0.080209
0.281216 0.134535 0.081745
0.291530 0.135551 0.083290
0.301863 0.136573 0.084836
0.312322 0.137636 0.086394
0.322780 0.138698 0.087952
0.041544 0.136773 0.054643
0.043319 0.136802 0.054702
0.045095 0.136831 0.054762
0.050469 0.136944 0.055033
0.056396 0.137069 0.055336
0.064077 0.137289 0.055840
0.072396 0.137543 0.056417
0.081359 0.137875 0.057157
0.090752 0.138259 0.058004
0.100159 0.138469 0.058884
0.109582 0.138480 0.059802
0.118831 0.138298 0.060710
0.127733 0.137731 0.061596
0.136679 0.137242 0.062522
0.145797 0.137072 0.063602
0.154927 0.136921 0.064691
0.164229 0.137038 0.065908
0.173531 0.137155 0.067126
0.182978 0.137459 0.068428
0.192436 0.137776 0.069736
0.202015 0.138207 0.071094
0.211625 0.138667 0.072464
0.221366 0.139222 0.073869
0.231171 0.139824 0.075291
0.241048 0.140474 0.076731
0.250989 0.141167 0.078187
0.261008 0.141899 0.079655
0.271145 0.142688 0.081143
0.281332 0.143499 0.082637
0.291653 0.144368 0.084147
0.301992 0.145244 0.085659
0.312438 0.146158 0.087183
0.322885 0.147073 0.088707
0.044531 0.147996 0.057657
0.046101 0.148022 0.057714
0.047672 0.148049 0.057771
0.052577 0.148135 0.057993
0.057995 0.148231 0.058240
0.065218 0.148404 0.058653
0.073098 0.148605 0.059127
0.081691 0.148870 0.059744
0.090759 0.149177 0.060457
0.100108 0.149528 0.061271
0.109778 0.149928 0.062201
0.119220 0.150011 0.063086
0.128205 0.149458 0.063884
0.137204 0.148943 0.064712
0.146264 0.148579 0.065663
0.155338 0.148234 0.066624
0.164602 0.148168 0.067729
0.173865 0.148103 0.068835
0.183281 0.148236 0.070043
0.192707 0.148384 0.071258
0.202265 0.148652 0.072532
0.211855 0.148951 0.073820
0.221582 0.149348 0.075155
0.231376 0.149795 0.076513
0.241240 0.150295 0.077894
0.251166 0.150842 0.079296
0.261172 0.151427 0.080714
0.271299 0.152068 0.082155
0.281478 0.152733 0.083605
0.291796 0.153463 0.085079
0.302131 0.154199 0.086554
0.312570 0.154975 0.088044
0.323009 0.155751 0.089533
0.047260 0.159142 0.060496
0.048685 0.159163 0.060544
0.050109 0.159184 0.060593
0.054657 0.159258 0.060784
0.059685 0.159339 0.060997
0.066533 0.159487 0.061354
0.074044 0.159660 0.061763
0.082315 0.159881 0.062301
0.091095 0.160135 0.062923
0.100191 0.160432 0.063639
0.109648 0.160777 0.064462
0.119082 0.160993 0.065297
0.128470 0.160951 0.066153
0.137781 0.160813 0.067005
0.146783 0.160291 0.067842
0.155799 0.159789 0.068691
0.165019 0.159568 0.069695
0.174238 0.159347 0.070699
0.183624 0.159335 0.071820
0.193021 0.159337 0.072950
0.202553 0.159471 0.074143
0.212119 0.159638 0.075351
0.221828 0.159899 0.076615
0.231609 0.160208 0.077907
0.241462 0.160578 0.079225
0.251377 0.161002 0.080568
0.261379 0.161461 0.081930
0.271510 0.161972 0.083323
0.281684 0.162508 0.084726
0.291977 0.163112 0.086159
0.302290 0.163724 0.087595
0.312731 0.164379 0.089047
0.323172 0.165035 0.090499
0.049943 0.170269 0.063299
0.051231 0.170285 0.063341
0.052520 0.170301 0.063382
0.056729 0.170362 0.063544
0.061387 0.170431 0.063725
0.067875 0.170554 0.064030
0.075028 0.170697 0.064381
0.082989 0.170878 0.064844
0.091488 0.171084 0.065382
0.100336 0.171331 0.066007
0.109582 0.171625 0.066732
0.118974 0.171941 0.067511
0.128654 0.172300 0.068398
0.138205 0.172476 0.069260
0.147236 0.171919 0.070019
0.156277 0.171375 0.070788
0.165452 0.171006 0.071694
0.174626 0.170637 0.072599
0.183981 0.170485 0.073635
0.193348 0.170349 0.074680
0.202855 0.170353 0.075794
0.212396 0.170392 0.076925
0.222087 0.170525 0.078119
0.231853 0.170703 0.079344
0.241693 0.170948 0.080600
0.251597 0.171250 0.081884
0.261592 0.171586 0.083191
0.271724 0.171974 0.084535
0.281893 0.172387 0.085891
0.292164 0.172870 0.087283
0.302457 0.173360 0.088679
0.312899 0.173897 0.090092
0.323340 0.174434 0.091506
0.052442 0.181312 0.065961
0.053631 0.181326 0.065999
0.054821 0.181339 0.066037
0.058767 0.181393 0.066179
0.063136 0.181454 0.066336
0.069323 0.181554 0.066608
0.076170 0.181668 0.066922
0.083858 0.181819 0.067337
0.092107 0.181995 0.067818
0.100729 0.182211 0.068379
0.109776 0.182473 0.069034
0.118984 0.182753 0.069740
0.128513 0.183071 0.070550
0.138018 0.183306 0.071363
0.147429 0.183209 0.072185
0.156820 0.183085 0.073006
0.165946 0.182595 0.073825
0.175073 0.182105 0.074644
0.184394 0.181842 0.075600
0.193729 0.181596 0.076566
0.203210 0.181489 0.077608
0.212726 0.181417 0.078670
0.222396 0.181445 0.079795
0.232143 0.181523 0.080953
0.241963 0.181660 0.082148
0.251848 0.181847 0.083376
0.261829 0.182077 0.084630
0.271954 0.182371 0.085925
0.282115 0.182687 0.087234
0.292374 0.183061 0.088582
0.302657 0.183442 0.089933
0.313095 0.183867 0.091305
0.323533 0.184291 0.092678
0.054932 0.192350 0.068617
0.056024 0.192361 0.068652
0.057117 0.192371 0.068687
0.060803 0.192419 0.068808
0.064889 0.192471 0.068943
0.070777 0.192549 0.069182
0.077320 0.192636 0.069460
0.084739 0.192759 0.069827
0.092741 0.192907 0.070252
0.101138 0.193093 0.070752
0.109987 0.193320 0.071337
0.119012 0.193566 0.071972
0.128390 0.193845 0.072707
0.137843 0.194134 0.073470
0.147600 0.194463 0.074346
0.157313 0.194732 0.075213
0.166418 0.194157 0.075956
0.175523 0.193583 0.076698
0.184812 0.193212 0.077575
0.194115 0.192855 0.078462
0.203570 0.192639 0.079433
0.213062 0.192457 0.080425
0.222710 0.192382 0.081484
0.232436 0.192360 0.082575
0.242237 0.192389 0.083709
0.252103 0.192464 0.084881
0.262069 0.192589 0.086083
0.272188 0.192790 0.087328
0.282340 0.193009 0.088589
0.292589 0.193276 0.089892
0.302861 0.193549 0.091199
0.313294 0.193863 0.092531
0.323726 0.194178 0.093862
0.057299 0.203308 0.071190
0.058321 0.203312 0.071220
0.059343 0.203316 0.071250
0.062828 0.203363 0.071361
0.066691 0.203415 0.071485
0.072328 0.203488 0.071703
0.078609 0.203567 0.071954
0.085790 0.203682 0.072287
0.093570 0.203820 0.072675
0.101766 0.203984 0.073132
0.110437 0.204179 0.073669
0.119294 0.204395 0.074253
0.128525 0.204652 0.074929
0.137837 0.204918 0.075634
0.147474 0.205215 0.076451
0.157100 0.205483 0.077267
0.166559 0.205336 0.078071
0.176019 0.205189 0.078874
0.185302 0.204750 0.079690
0.194573 0.204291 0.080507
0.204003 0.203981 0.081412
0.213471 0.203709 0.082341
0.223090 0.203541 0.083339
0.232783 0.203426 0.084373
0.242561 0.203367 0.085453
0.252413 0.203358 0.086572
0.262364 0.203396 0.087722
0.272465 0.203503 0.088917
0.282607 0.203632 0.090127
0.292860 0.203821 0.091377
0.303133 0.204014 0.092635
0.313534 0.204237 0.093933
0.323936 0.204460 0.095232
0.059666 0.214265 0.073762
0.060617 0.214263 0.073787
0.061568 0.214262 0.073813
0.064852 0.214307 0.073915
0.068494 0.214359 0.074028
0.073879 0.214426 0.074223
0.079898 0.214499 0.074447
0.086841 0.214604 0.074747
0.094399 0.214732 0.075098
0.102394 0.214875 0.075513
0.110886 0.215038 0.076001
0.119576 0.215224 0.076533
0.128660 0.215460 0.077151
0.137830 0.215702 0.077798
0.147348 0.215967 0.078556
0.156886 0.216234 0.079321
0.166701 0.216514 0.080186
0.176515 0.216795 0.081050
0.185792 0.216289 0.081805
0.195031 0.215726 0.082551
0.204435 0.215324 0.083392
0.213881 0.214961 0.084256
0.223469 0.214701 0.085195
0.233130 0.214492 0.086171
0.242885 0.214345 0.087196
0.252723 0.214253 0.088262
0.262659 0.214203 0.089360
0.272743 0.214216 0.090505
0.282873 0.214255 0.091664
0.293131 0.214366 0.092862
0.303404 0.214479 0.094070
0.313775 0.214611 0.095336
0.324146 0.214743 0.096602
0.061976 0.225177 0.076285
0.062870 0.225178 0.076309
0.063764 0.225179 0.076333
0.066879 0.225215 0.076428
0.070336 0.225256 0.076534
0.075503 0.225317 0.076714
0.081293 0.225384 0.076922
0.088021 0.225480 0.077200
0.095374 0.225595 0.077524
0.103180 0.225725 0.077908
0.111502 0.225872 0.078358
0.120034 0.226039 0.078851
0.128985 0.226245 0.079430
0.138025 0.226460 0.080034
0.147424 0.226712 0.080742
0.156846 0.226967 0.081457
0.166601 0.227253 0.082281
0.176356 0.227539 0.083106
0.185920 0.227378 0.083907
0.195470 0.227185 0.084707
0.204909 0.226788 0.085511
0.214322 0.226339 0.086315
0.223882 0.225994 0.087197
0.233517 0.225701 0.088118
0.243251 0.225480 0.089091
0.253073 0.225322 0.090110
0.262995 0.225199 0.091159
0.273068 0.225130 0.092253
0.283186 0.225090 0.093365
0.293425 0.225128 0.094523
0.303681 0.225169 0.095689
0.314043 0.225223 0.096905
0.324405 0.225277 0.098121
0.064282 0.236086 0.078806
0.065119 0.236091 0.078828
0.065957 0.236095 0.078851
0.068906 0.236121 0.078939
0.072181 0.236150 0.079037
0.077133 0.236204 0.079203
0.082695 0.236266 0.079395
0.089210 0.236352 0.079652
0.096359 0.236454 0.079951
0.103977 0.236571 0.080304
0.112129 0.236704 0.080718
0.120504 0.236852 0.081173
0.129323 0.237028 0.081712
0.138234 0.237216 0.082275
0.147514 0.237457 0.082933
0.156819 0.237699 0.083599
0.166485 0.237960 0.084376
0.176151 0.238221 0.085153
0.186022 0.238435 0.086009
0.195907 0.238646 0.086871
0.205387 0.238260 0.087639
0.214765 0.237726 0.088385
0.224297 0.237297 0.089210
0.233907 0.236920 0.090075
0.243621 0.236625 0.090997
0.253426 0.236402 0.091968
0.263334 0.236209 0.092969
0.273397 0.236058 0.094013
0.283502 0.235940 0.095077
0.293720 0.235907 0.096196
0.303957 0.235876 0.097321
0.314312 0.235853 0.098486
0.324667 0.235830 0.099652
0.066547 0.246916 0.081311
0.067341 0.246922 0.081332
0.068134 0.246929 0.081353
0.070942 0.246952 0.081435
0.074060 0.246977 0.081526
0.078821 0.247027 0.081680
0.084179 0.247086 0.081857
0.090496 0.247165 0.082096
0.097452 0.247255 0.082376
0.104891 0.247361 0.082706
0.112882 0.247484 0.083094
0.121103 0.247619 0.083522
0.129784 0.247780 0.084029
0.138564 0.247953 0.084558
0.147736 0.248174 0.085176
0.156935 0.248398 0.085802
0.166503 0.248646 0.086534
0.176070 0.248894 0.087267
0.185941 0.249166 0.088099
0.195833 0.249440 0.088939
0.205524 0.249301 0.089741
0.215165 0.249059 0.090533
0.224771 0.248683 0.091341
0.234358 0.248241 0.092157
0.244048 0.247874 0.093028
0.253829 0.247573 0.093948
0.263714 0.247307 0.094899
0.273755 0.247097 0.095896
0.283841 0.246915 0.096915
0.294047 0.246812 0.097993
0.304273 0.246710 0.099076
0.314622 0.246619 0.100200
0.324971 0.246527 0.101323
0.068803 0.257727 0.083811
0.069555 0.257734 0.083832
0.070306 0.257742 0.083852
0.072980 0.257763 0.083928
0.075948 0.257787 0.084012
0.080524 0.257835 0.084154
0.085684 0.257891 0.084316
0.091806 0.257962 0.084538
0.098571 0.258042 0.084800
0.105833 0.258138 0.085110
0.113666 0.258250 0.085475
0.121735 0.258375 0.085877
0.130276 0.258524 0.086354
0.138923 0.258685 0.086851
0.147992 0.258885 0.087432
0.157087 0.259088 0.088020
0.166554 0.259326 0.088708
0.176021 0.259564 0.089396
0.185815 0.259815 0.090186
0.195632 0.260067 0.090983
0.205578 0.260233 0.091835
0.215556 0.260377 0.092700
0.225259 0.260090 0.093501
0.234824 0.259588 0.094269
0.244491 0.259149 0.095091
0.254246 0.258765 0.095958
0.264106 0.258428 0.096859
0.274121 0.258163 0.097811
0.284185 0.257922 0.098785
0.294383 0.257749 0.099821
0.304599 0.257577 0.100863
0.314943 0.257418 0.101946
0.325286 0.257259 0.103029
0.071062 0.268520 0.086319
0.071776 0.268528 0.086336
0.072491 0.268536 0.086353
0.075041 0.268558 0.086426
0.077874 0.268583 0.086506
0.082276 0.268626 0.086639
0.087249 0.268676 0.086791
0.093188 0.268740 0.086998
0.099772 0.268813 0.087242
0.106865 0.268900 0.087532
0.114541 0.269001 0.087876
0.122462 0.269117 0.088255
0.130873 0.269262 0.088704
0.139394 0.269415 0.089174
0.148353 0.269600 0.089726
0.157340 0.269788 0.090285
0.166715 0.270005 0.090938
0.176090 0.270222 0.091591
0.185802 0.270461 0.092341
0.195537 0.270702 0.093099
0.205523 0.270963 0.093942
0.215572 0.271230 0.094807
0.225439 0.271133 0.095628
0.235215 0.270853 0.096427
0.244968 0.270485 0.097237
0.254700 0.270040 0.098058
0.264534 0.269639 0.098914
0.274520 0.269304 0.099825
0.284561 0.268998 0.100758
0.294752 0.268769 0.101750
0.304962 0.268542 0.102749
0.315295 0.268317 0.103793
0.325628 0.268093 0.104837
0.073321 0.279306 0.088829
0.074001 0.279313 0.088843
0.074681 0.279320 0.088856
0.077115 0.279344 0.088926
0.079819 0.279371 0.089005
0.084054 0.279409 0.089131
0.088844 0.279451 0.089275
0.094606 0.279508 0.089468
0.101015 0.279576 0.089693
0.107942 0.279655 0.089965
0.115461 0.279745 0.090288
0.123236 0.279853 0.090645
0.131523 0.279997 0.091067
0.139922 0.280146 0.091511
0.148768 0.280318 0.092039
0.157644 0.280492 0.092574
0.166932 0.280683 0.093196
0.176220 0.280874 0.093818
0.185846 0.281105 0.094531
0.195496 0.281339 0.095250
0.205415 0.281592 0.096056
0.215401 0.281850 0.096885
0.225466 0.281992 0.097739
0.235569 0.282076 0.098606
0.245463 0.281851 0.099425
0.255173 0.281356 0.100202
0.264981 0.280895 0.101017
0.274935 0.280483 0.101890
0.284951 0.280108 0.102782
0.295138 0.279832 0.103729
0.305343 0.279555 0.104684
0.315663 0.279267 0.105690
0.325983 0.278978 0.106696
0.075575 0.290038 0.091339
0.076224 0.290045 0.091352
0.076872 0.290053 0.091366
0.079200 0.290076 0.091432
0.081786 0.290102 0.091505
0.085864 0.290138 0.091625
0.090485 0.290178 0.091762
0.096075 0.290232 0.091945
0.102312 0.290297 0.092159
0.109076 0.290371 0.092416
0.116443 0.290457 0.092723
0.124075 0.290558 0.093060
0.132237 0.290690 0.093457
0.140515 0.290827 0.093876
0.149251 0.290982 0.094382
0.158019 0.291139 0.094893
0.167216 0.291317 0.095485
0.176413 0.291494 0.096078
0.185957 0.291717 0.096758
0.195525 0.291942 0.097444
0.205372 0.292186 0.098216
0.215287 0.292433 0.099010
0.225409 0.292683 0.099862
0.235635 0.292932 0.100744
0.245677 0.292876 0.101580
0.255557 0.292553 0.102376
0.265458 0.292170 0.103187
0.275389 0.291699 0.104018
0.285386 0.291266 0.104870
0.295564 0.290936 0.105777
0.305759 0.290605 0.106692
0.316060 0.290261 0.107660
0.326360 0.289917 0.108628
0.077824 0.300723 0.093846
0.078444 0.300731 0.093865
0.079065 0.300739 0.093884
0.081294 0.300760 0.093942
0.083771 0.300782 0.094006
0.087703 0.300820 0.094119
0.092165 0.300863 0.094250
0.097590 0.300918 0.094427
0.103657 0.300981 0.094635
0.110261 0.301055 0.094884
0.117480 0.301141 0.095177
0.124972 0.301236 0.095497
0.133009 0.301348 0.095871
0.141165 0.301465 0.096266
0.149795 0.301600 0.096750
0.158456 0.301738 0.097239
0.167558 0.301912 0.097802
0.176660 0.302087 0.098365
0.186125 0.302300 0.099018
0.195617 0.302516 0.099676
0.205384 0.302748 0.100416
0.215221 0.302984 0.101176
0.225280 0.303225 0.101996
0.235450 0.303468 0.102846
0.245646 0.303603 0.103706
0.255863 0.303645 0.104577
0.265960 0.303463 0.105415
0.275877 0.302947 0.106204
0.285860 0.302465 0.107014
0.296027 0.302077 0.107885
0.306208 0.301687 0.108764
0.316482 0.301295 0.109693
0.326756 0.300903 0.110623
0.080085 0.311404 0.096371
0.080676 0.311411 0.096392
0.081268 0.311418 0.096412
0.083405 0.311435 0.096465
0.085780 0.311454 0.096523
0.089572 0.311489 0.096631
0.093879 0.311531 0.096757
0.099144 0.311584 0.096928
0.105047 0.311645 0.097129
0.111495 0.311718 0.097366
0.118566 0.311803 0.097645
0.125917 0.311893 0.097949
0.133828 0.311991 0.098303
0.141862 0.312095 0.098678
0.150385 0.312221 0.099139
0.158940 0.312349 0.099605
0.167947 0.312516 0.100145
0.176953 0.312684 0.100685
0.186339 0.312885 0.101311
0.195752 0.313089 0.101943
0.205447 0.313312 0.102651
0.215212 0.313540 0.103379
0.225208 0.313775 0.104168
0.235321 0.314014 0.104987
0.245585 0.314260 0.105851
0.255983 0.314513 0.106754
0.266240 0.314506 0.107614
0.276286 0.314110 0.108407
0.286357 0.313701 0.109212
