luts/darken.cube
LUT_3D_SIZE 33
0 0 0
0.00321965 0 0
0.00875868 0 0
0.0157015 0 0
0.0238956 0 0
0.033402 0 0
0.0443885 0 0
0.0570687 0 0
0.0716106 0 0
0.0881361 0 0
0.106645 0 0
0.126879 0 0
0.148669 0 0
0.171633 0 0
0.195331 0 0
0.219989 0 0
0.245838 0 0
0.272602 0 0
0.299992 0 0
0.327688 0 0
0.355367 0 0
0.382635 0 0
0.409247 0 0
0.435172 0 0
0.460365 0 0
0.484825 0 0
0.508705 0 0
0.532265 0 0
0.555718 0 0
0.579309 0 0
0.603235 0 0
0.627771 0 0
0.652995 0 0
0 0.00390631 0
0.00430304 0.00436408 0.000274662
0.0104524 0.00448615 0.000259403
0.0178531 0.0043946 6.10361e-05
0.0264591 0.00411994 0
0.0363317 0.00361639 0
0.0476997 0.00280766 0
0.0608225 0.00163272 0
0.0758373 4.57771e-05 0
0.0928969 0 0
0.112032 0 0
0.132982 0 0
0.155413 0 0
0.178973 0 0
0.203204 0 0
0.228367 0 0
0.254704 0 0
0.281941 0 0
0.309804 0 0
0.337972 0 0
0.36614 0 0
0.393973 0 0
0.42121 0 0
0.447837 0 0
0.473823 0 0
0.499168 0 0
0.52398 0 0
0.548501 0 0
0.572885 0 0
0.597375 0 0
0.622202 0 0
0.647593 0 0
0.673609 0 0
0 0.0105135 0
0.00494392 0.0112612 0.000503548
0.0115511 0.0116884 0.000747692
0.0193484 0.011902 0.000793469
0.0283207 0.0119173 0.000640879
0.0385748 0.0116732 0.00030518
0.050309 0.0111238 0
0.0638285 0.010193 0
0.0792859 0.00881972 0
0.0968338 0.00700389 0
0.116503 0.00469978 0
0.138033 0.00199893 0
0.161089 0 0
0.185275 0 0
0.210163 0 0
0.235996 0 0
0.26305 0 0
0.291051 0 0
0.319692 0 0
0.348684 0 0
0.377676 0 0
0.406332 0 0
0.434394 0 0
0.461814 0 0
0.488563 0 0
0.514626 0 0
0.540139 0 0
0.565347 0 0
0.590433 0 0
0.615625 0 0
0.641154 0 0
0.667231 0 0
0.693965 0 0
0 0.0187228 0
0.00540169 0.0196994 0.00062562
0.0124361 0.0203861 0.00108339
0.0205997 0.0208438 0.00132753
0.0299229 0.0211032 0.00138857
0.0405432 0.0211185 0.00125124
0.0526741 0.0208286 0.000869764
0.0666209 0.0201419 0.000198367
0.082536 0.0190127 0
0.100587 0.0174258 0
0.120806 0.0153658 0
0.142916 0.0128939 0
0.166598 0.010132 0
0.191455 0.007187 0
0.217014 0.00419623 0
0.243565 0.00106813 0
0.271366 0 0
0.300145 0 0
0.32961 0 0
0.359457 0 0
0.389319 0 0
0.41883 0 0
0.44773 0 0
0.47599 0 0
0.503548 0 0
0.530419 0 0
0.55671 0 0
0.582666 0 0
0.608499 0 0
0.63444 0 0
0.660731 0 0
0.687602 0 0
0.715145 0 0
0 0.0283055 0
0.00567636 0.0295109 0.00062562
0.0130922 0.0304417 0.0012665
0.021622 0.0311742 0.00170901
0.0313115 0.031693 0.00196841
0.0423133 0.0319829 0.00204471
0.0548409 0.0319524 0.00187686
0.0692302 0.0315404 0.00141909
0.0856336 0.0307012 0.000656138
0.104219 0.0293889 0
0.125017 0.0276036 0
0.147768 0.0254215 0
0.172107 0.0229496 0
0.197665 0.0203098 0
0.223972 0.0176394 0
0.251316 0.0148775 0
0.279942 0.0119326 0
0.309575 0.00889601 0
0.339925 0.00585946 0
0.370657 0.00292973 0
0.401389 0.000183108 0
0.431785 0 0
0.46154 0 0
0.490639 0 0
0.519036 0 0
0.5467 0 0
0.573785 0 0
0.600549 0 0
0.627192 0 0
0.653941 0 0
0.681025 0 0
0.70869 0 0
0.736996 0 0
0 0.0392615 0
0.00569162 0.0407263 0.000427253
0.0134737 0.0419318 0.00125124
0.0223697 0.0429541 0.00189212
0.0324254 0.0437934 0.00236515
0.0438087 0.0443885 0.00265507
0.0567788 0.0446784 0.00271611
0.0716411 0.0445869 0.00250248
0.0885634 0.0440681 0.00198367
0.107713 0.0430762 0.00111391
0.129152 0.0416266 0
0.15259 0.0397955 0
0.177676 0.037705 0
0.204013 0.0354467 0
0.231113 0.0331731 0
0.259266 0.0307927 0
0.288731 0.0282597 0
0.319249 0.0256504 0
0.350469 0.0230411 0
0.382086 0.0205386 0
0.413733 0.0182498 0
0.444999 0.0162814 0
0.475654 0.014725 0
0.505608 0.0135805 0
0.534859 0.0128634 0
0.563363 0.0125887 0
0.591302 0.0127108 0
0.61886 0.0131685 0
0.646281 0.0138857 0
0.673777 0.014786 0
0.701564 0.0158236 0
0.7299 0.0168917 0
0.758846 0.0179904 0
0 0.0517128 0
0.00535592 0.0534981 0
0.0134737 0.0550393 0.000976577
0.0227359 0.0564126 0.00183108
0.0331731 0.0575875 0.002533
0.0449836 0.0585489 0.0030518
0.0583963 0.0592203 0.00335698
0.0737621 0.0595102 0.00341802
0.0912642 0.0594034 0.00317388
0.11104 0.0588235 0.00259403
0.133165 0.0577859 0.00167849
0.157321 0.0563668 0.000442512
0.183169 0.0546883 0
0.210285 0.0528573 0
0.238193 0.0510262 0
0.267185 0.0490883 0
0.297505 0.047013 0
0.328893 0.0448463 0
0.361013 0.04271 0
0.39353 0.0406958 0
0.426078 0.0389105 0
0.458259 0.0374609 0
0.489799 0.0364233 0
0.520638 0.0358282 0
0.550729 0.0356603 0
0.580041 0.035935 0
0.608713 0.0366064 0
0.636988 0.037583 0
0.665064 0.0388037 0
0.693172 0.0402228 0
0.721553 0.0417487 0
0.750454 0.0433051 0
0.779919 0.0448615 0
0 0.0658732 0
0.00456245 0.06804 0
0.0130159 0.0699779 0.000320439
0.0226291 0.0717632 0.00141909
0.0334783 0.0733806 0.00236515
0.0457313 0.0747845 0.00315862
0.0596475 0.0759136 0.00375372
0.0755474 0.0766766 0.00410468
0.0936294 0.0770123 0.00416571
0.114046 0.0769055 0.00390631
0.136858 0.0763256 0.00331121
0.161746 0.0753796 0.00241093
0.188357 0.0741588 0.00125124
0.216266 0.0728161 0
0.244984 0.071458 0
0.2748 0.0700236 0
0.305989 0.0684367 0
0.338262 0.0667887 0
0.371283 0.0651713 0
0.404715 0.0636912 0
0.438163 0.0624399 0
0.471229 0.0615244 0
0.503578 0.0610208 0
0.535195 0.0609445 0
0.566003 0.0612955 0
0.596002 0.0620737 0
0.625284 0.0632334 0
0.654139 0.0647135 0
0.68275 0.0664073 0
0.71136 0.0682841 0
0.740215 0.0702525 0
0.769528 0.072221 0
0.79939 0.0741741 0
0 0.0819562 0
0.00334173 0.084596 0
0.0121309 0.0870222 0
0.0221256 0.0893111 0.000686656
0.0333867 0.0914473 0.00190738
0.0460822 0.09337 0.00297551
0.060502 0.0950027 0.00386053
0.0769513 0.0962692 0.00451667
0.095613 0.0971237 0.00491341
0.116686 0.0975204 0.00497444
0.140185 0.0974594 0.0047303
0.165805 0.0970169 0.00416571
0.193194 0.0963149 0.00337224
0.221897 0.095491 0.00241093
0.251423 0.094667 0.00137331
0.282078 0.0937819 0.000213626
0.314137 0.0927443 0
0.34728 0.0916457 0
0.381155 0.0905623 0
0.415427 0.089601 0
0.449653 0.0888533 0
0.483467 0.0884413 0
0.516533 0.0884413 0
0.548791 0.088838 0
0.580209 0.089662 0
0.610742 0.090898 0
0.640528 0.0925154 0
0.669841 0.0944228 0
0.698863 0.0965286 0
0.72784 0.0988022 0
0.757 0.101137 0
0.786618 0.103441 0
0.816724 0.10573 0
0 0.100267 0
0.00170901 0.103471 0
0.0108186 0.106462 0
0.0211948 0.1093 0
0.0328679 0.111986 0.00109865
0.0460212 0.114458 0.00247196
0.0609293 0.116655 0.00366217
0.0779278 0.118486 0.00463874
0.0971847 0.119905 0.00535592
0.118898 0.120867 0.00578317
0.143084 0.121355 0.00588998
0.169451 0.121477 0.00570687
0.19762 0.121355 0.00529488
0.227115 0.121096 0.00469978
0.257435 0.120836 0.00404364
0.288884 0.1205 0.00325017
0.321706 0.119982 0.00228885
0.355612 0.119402 0.00120546
0.390234 0.118807 9.15541e-05
0.425193 0.118334 0
0.460105 0.118059 0
0.49453 0.118105 0
0.528176 0.118532 0
0.560952 0.119371 0
0.592844 0.120607 0
0.623804 0.122255 0
0.653956 0.124239 0
0.683574 0.126497 0
0.712871 0.128954 0
0.742077 0.131533 0
0.771435 0.134157 0.000244144
0.80119 0.136751 0.00128176
0.831403 0.139269 0.00230411
0 0.121004 0
0 0.124819 0
0.00917067 0.128405 0
0.019913 0.131853 0
0.0320134 0.135149 0
0.0456245 0.138231 0.00166323
0.0610361 0.141039 0.00317388
0.078584 0.143481 0.00448615
0.0984512 0.14551 0.00556954
0.120821 0.147066 0.00634775
0.145708 0.148165 0.00683604
0.172778 0.148867 0.00701915
0.201663 0.14931 0.00697337
0.231876 0.149584 0.00674449
0.262882 0.149844 0.00642405
0.295018 0.150011 0.00598154
0.328511 0.149996 0.00535592
0.363058 0.149859 0.00460822
0.398306 0.149722 0.0037995
0.43386 0.149676 0.00297551
0.469306 0.149813 0.00224308
0.504234 0.15024 0.00166323
0.538323 0.151064 0.00131228
0.571481 0.152255 0.0011902
0.603708 0.153841 0.00132753
0.634958 0.15581 0.00173953
0.665339 0.158099 0.00238041
0.69514 0.160632 0.00323491
0.724559 0.163348 0.00422675
0.753841 0.166155 0.00531014
0.78323 0.168978 0.00645457
0.812985 0.171725 0.00755322
0.843168 0.174395 0.00863661
0 0.144259 0
0 0.148714 0
0.0074464 0.152941 0
0.0186007 0.157046 0
0.0311284 0.160983 0
0.045243 0.164736 0.000762951
0.0611734 0.168185 0.00260929
0.0793011 0.171267 0.00427253
0.0997635 0.173907 0.00569162
0.122728 0.176059 0.00682078
0.148257 0.177707 0.00764477
0.175967 0.178943 0.00817884
0.205493 0.179889 0.00846876
0.236332 0.180652 0.00857557
0.267948 0.181384 0.00857557
0.300649 0.181994 0.00843824
0.334722 0.182406 0.0081178
0.369802 0.182681 0.00766003
0.405539 0.182925 0.00712596
0.441566 0.18323 0.00657664
0.47744 0.183703 0.00608835
0.512734 0.184451 0.00573739
0.547127 0.185565 0.0055848
0.58056 0.187045 0.0056611
0.612985 0.188876 0.00596628
0.644373 0.191073 0.0065156
0.674846 0.193576 0.00727855
0.704677 0.196307 0.00822461
0.734096 0.199176 0.00929274
0.763348 0.202121 0.0104372
0.792798 0.205142 0.0116732
0.822721 0.208179 0.0129244
0.853193 0.2112 0.0141909
0 0.170108 0
0 0.17525 0
0.00593576 0.180163 0
0.0175479 0.184939 0
0.0305638 0.189548 0
0.0451667 0.193927 0
0.0616159 0.197986 0.00213626
0.0802625 0.201648 0.00410468
0.101274 0.204852 0.00584421
0.124819 0.207523 0.00730907
0.150912 0.209659 0.00843824
0.179202 0.211368 0.00929274
0.209293 0.212757 0.00987259
0.240665 0.213947 0.0102846
0.272801 0.215076 0.0105592
0.305989 0.216052 0.0106966
0.34052 0.216815 0.0106355
0.376028 0.217395 0.0104219
0.412161 0.217945 0.0101167
0.448524 0.218524 0.00978103
0.484703 0.219242 0.00949111
0.520241 0.220233 0.00932326
0.554818 0.221546 0.00933852
0.588388 0.223209 0.00953689
0.620874 0.225193 0.00994888
0.652277 0.227527 0.0105898
0.682765 0.230167 0.0114443
0.712718 0.233127 0.0124971
0.742336 0.236301 0.0137179
0.771908 0.239628 0.0150759
0.801678 0.24303 0.016495
0.831891 0.246433 0.0179294
0.862654 0.249805 0.019379
0 0.198657 0
0 0.20444 0
0.00491341 0.209995 0
0.0169985 0.215381 0
0.0304875 0.220569 0
0.0455787 0.225513 0
0.0625315 0.230121 0.00189212
0.0816815 0.234302 0.00415045
0.103212 0.237964 0.0061799
0.127275 0.241093 0.00791943
0.153887 0.243656 0.00933852
0.182681 0.245747 0.0104524
0.21326 0.247486 0.0113069
0.24509 0.249012 0.0119631
0.277653 0.250446 0.0124819
0.311238 0.251728 0.0128481
0.34612 0.25272 0.0130007
0.381949 0.253544 0.0129854
0.418372 0.254292 0.0128634
0.454978 0.255039 0.0126955
0.491325 0.255924 0.0125429
0.526986 0.257023 0.0124971
0.561639 0.258442 0.0126192
0.5953 0.260258 0.0129397
0.627985 0.262486 0.0135042
0.659678 0.265156 0.0143282
0.690517 0.268177 0.0153964
0.720775 0.271489 0.0166476
0.750698 0.275029 0.0180667
0.780545 0.278706 0.0195926
0.810544 0.282429 0.0211948
0.840986 0.286137 0.0227817
0.871946 0.289799 0.0243839
0 0.229694 0
0 0.236027 0
0.00454719 0.24213 0
0.0171359 0.248035 0
0.0311284 0.253742 0
0.0466926 0.259159 0
0.0641184 0.264225 0.00204471
0.0837415 0.268803 0.00456245
0.105745 0.272877 0.0068513
0.130282 0.276341 0.00883497
0.157351 0.279225 0.0104829
0.186603 0.281621 0.0118257
0.217594 0.283619 0.0128939
0.249821 0.285374 0.0137484
0.282719 0.287037 0.0144656
0.316594 0.288487 0.0149996
0.351751 0.289647 0.0153048
0.387793 0.290578 0.0154269
0.424384 0.291417 0.0154421
0.461128 0.292256 0.0153964
0.497688 0.293294 0.0153964
0.533639 0.294652 0.0155337
0.568673 0.296407 0.0158694
0.602716 0.298573 0.0164187
0.635767 0.301167 0.0171969
0.667781 0.304158 0.0182193
0.698894 0.307515 0.0194705
0.729427 0.311147 0.0209201
0.759579 0.314977 0.0224918
0.789609 0.318929 0.0241703
0.819806 0.322927 0.0259098
0.850401 0.326879 0.0276341
0.881483 0.330755 0.0293431
0 0.263066 0
0 0.269856 0
0.00444038 0.276417 0
0.0175021 0.282765 0
0.0319524 0.288884 0
0.0479591 0.294697 0
0.0658122 0.300114 0.00227359
0.0858473 0.305028 0.00502022
0.108248 0.309392 0.00750744
0.133181 0.313115 0.00968948
0.160632 0.316228 0.0115358
0.190234 0.318807 0.0130465
0.221546 0.320974 0.0142824
0.254047 0.322866 0.0152895
0.287175 0.32462 0.0161288
0.321248 0.326131 0.0167849
0.356588 0.327382 0.0172274
0.39292 0.328511 0.0175174
0.429877 0.329625 0.017731
0.467048 0.3308 0.0179294
0.504021 0.332174 0.0181582
0.540368 0.333867 0.0185245
0.575753 0.335958 0.0190738
0.610132 0.33843 0.0198215
0.643458 0.341314 0.0207828
0.675715 0.344594 0.0219883
0.707057 0.348211 0.0233921
0.737774 0.352087 0.024979
0.768078 0.356161 0.026688
0.798245 0.360327 0.0284886
0.828534 0.364523 0.0303197
0.859205 0.368643 0.0321508
0.890349 0.372686 0.0339361
0 0.298512 0
0 0.305684 0
0.00437934 0.312596 0
0.0178836 0.319295 0
0.0327153 0.325734 0
0.0490883 0.331838 0
0.0672923 0.337514 0.00238041
0.0876631 0.342657 0.00531014
0.110384 0.347204 0.00794995
0.135607 0.35108 0.0102693
0.163333 0.354314 0.012253
0.193179 0.35697 0.013901
0.224704 0.359197 0.0152438
0.25745 0.361196 0.0163882
0.290898 0.363165 0.0174105
0.325368 0.364996 0.0182803
0.361151 0.366598 0.018967
0.39791 0.368048 0.019501
0.435279 0.369467 0.0199435
0.472847 0.370962 0.0203403
0.510185 0.372625 0.0207828
0.546838 0.374594 0.0213474
0.582513 0.376928 0.0220645
0.617136 0.379644 0.0229801
0.650675 0.382757 0.024094
0.683116 0.386267 0.0254368
0.714595 0.390082 0.0269627
0.745418 0.394156 0.0286564
0.775814 0.398383 0.0304723
0.806012 0.402701 0.0323491
0.836332 0.407019 0.0342565
0.867002 0.411246 0.0361334
0.8981 0.415381 0.0379644
0 0.335637 0
0 0.343084 0
0.0043946 0.350256 0
0.018265 0.357198 0
0.0334325 0.363851 0
0.0501106 0.370138 0
0.0685893 0.375952 0.00239567
0.0892042 0.381201 0.00543221
0.112154 0.385824 0.00817884
0.137606 0.389776 0.010605
0.165606 0.393149 0.0127413
0.195819 0.396063 0.0145724
0.227787 0.398611 0.016144
0.26099 0.400961 0.0175326
0.294865 0.40325 0.0187839
0.329732 0.405386 0.0198672
0.365927 0.407279 0.0207675
0.403067 0.409003 0.0215
0.440772 0.410681 0.0221256
0.47866 0.412406 0.0227207
0.516289 0.414282 0.0233463
0.553216 0.416464 0.0240482
0.589105 0.418997 0.0249332
0.623896 0.421897 0.0259709
0.657588 0.425177 0.0272068
0.69012 0.428824 0.0286564
0.721675 0.432776 0.0302739
0.752514 0.436957 0.0320287
0.78291 0.441276 0.0339055
0.813092 0.44567 0.0358129
0.843336 0.450034 0.0377508
0.873915 0.454292 0.0396429
0.904906 0.458427 0.041474
0 0.374014 0
0 0.381613 0
0.00454719 0.388937 0
0.0187228 0.396002 0
0.034165 0.402747 0
0.0510567 0.409094 0
0.0697642 0.415 0.00236515
0.0906844 0.420447 0.00553903
0.114 0.425345 0.00848402
0.139895 0.429648 0.0111391
0.168353 0.433356 0.0134737
0.199008 0.436576 0.0155337
0.231403 0.439429 0.017319
0.265003 0.442054 0.0189059
0.299275 0.444602 0.0203555
0.334524 0.446983 0.0216373
0.371054 0.449088 0.0227054
0.408515 0.451026 0.0236057
0.446525 0.452888 0.0244144
0.484672 0.45478 0.0251469
0.52253 0.456825 0.0259098
0.55964 0.459129 0.0267491
0.595666 0.461784 0.0277256
0.630579 0.46479 0.0288701
0.664332 0.468162 0.0301976
0.696895 0.471885 0.0317082
0.728435 0.475883 0.0333715
0.759243 0.480095 0.035172
0.789563 0.484443 0.0370489
0.819623 0.488823 0.0389715
0.849729 0.493156 0.0408942
0.88014 0.497368 0.0427558
0.910933 0.501411 0.0445411
0 0.413153 0
0 0.420798 0
0.00486763 0.428153 0
0.0193484 0.435325 0
0.0351263 0.442283 0
0.0524147 0.448951 0
0.0715496 0.455222 0.00277714
0.0928969 0.461006 0.00614939
0.11664 0.466209 0.00929274
0.142947 0.470802 0.0121462
0.171832 0.474784 0.0146792
0.202899 0.478248 0.0169223
0.235691 0.481315 0.0188907
0.269688 0.484138 0.0206455
0.304295 0.486885 0.0222477
0.339864 0.489433 0.023682
0.376684 0.491691 0.0249027
0.41442 0.493751 0.0259403
0.452674 0.495735 0.0268711
0.49102 0.497719 0.0277256
0.529046 0.49984 0.0285801
0.566278 0.502205 0.0295109
0.602396 0.504906 0.0305791
0.637354 0.507942 0.0317693
0.671092 0.511315 0.0331426
0.703624 0.515023 0.0346685
0.735073 0.519005 0.036347
0.765759 0.523171 0.0381476
0.795926 0.527443 0.0400092
0.825803 0.531716 0.041886
0.85568 0.535943 0.0437629
0.885847 0.540002 0.0455482
0.91635 0.543893 0.0472419
0 0.452766 0
0 0.460609 0
0.00585946 0.468284 0
0.0208133 0.475792 0
0.0370336 0.483085 0
0.0547494 0.490059 0.000137331
0.0742962 0.49662 0.00390631
0.0960555 0.502647 0.00747692
0.120211 0.508095 0.0107881
0.146944 0.512901 0.0137942
0.176226 0.517067 0.016495
0.207691 0.520699 0.0188754
0.240848 0.523919 0.0209812
0.275181 0.526879 0.0228733
0.310094 0.529732 0.0246128
0.345937 0.532372 0.026154
0.383017 0.534707 0.0274815
0.420966 0.536812 0.0286107
0.459403 0.538827 0.0296178
0.497902 0.540825 0.0305486
0.536019 0.542931 0.0314794
0.573312 0.545281 0.0324559
0.609461 0.547951 0.0335546
0.644373 0.550927 0.0347753
0.67805 0.554223 0.0361486
0.71046 0.557824 0.0376593
0.741756 0.561685 0.0393072
0.772244 0.565713 0.041062
0.802167 0.569818 0.0428626
0.831785 0.573922 0.0446632
0.861357 0.577935 0.0464332
0.891188 0.58175 0.0480964
0.921324 0.585382 0.0496681
0 0.493507 0
0 0.50164 0
0.00798047 0.509575 0
0.0234226 0.517342 0
0.0400702 0.52488 0
0.0582132 0.532067 0.00202945
0.0781872 0.538827 0.00595102
0.100359 0.545052 0.00965896
0.124926 0.550652 0.0131075
0.152041 0.555581 0.0162509
0.181704 0.559853 0.0190585
0.213535 0.563577 0.021561
0.247044 0.566857 0.0237583
0.281666 0.569863 0.025742
0.316854 0.572747 0.0275578
0.352926 0.575387 0.0291752
0.390204 0.577707 0.0305638
0.428321 0.579782 0.031754
0.46688 0.581735 0.0328069
0.50547 0.583673 0.0337682
0.543648 0.585687 0.034699
0.580941 0.58793 0.0356909
0.617029 0.590463 0.0367742
0.65185 0.593286 0.0379797
0.685374 0.596414 0.0393072
0.717601 0.599847 0.0407721
0.748669 0.603494 0.042359
0.778881 0.607279 0.044007
0.808484 0.611124 0.0457008
0.837766 0.614954 0.0473793
0.866987 0.618692 0.0490272
0.896452 0.622232 0.0505684
0.926238 0.625574 0.0520027
0 0.535286 0
0 0.543587 0
0.0112917 0.55172 0
0.0272068 0.559655 0
0.0443122 0.567346 0.000686656
0.0628824 0.574685 0.00492866
0.0832532 0.581567 0.0089723
0.105821 0.587869 0.0127871
0.13077 0.593545 0.0163424
0.158251 0.598535 0.0195621
0.188296 0.602823 0.022446
0.220447 0.606531 0.0250095
0.254261 0.609796 0.0272679
0.289158 0.612757 0.0292973
0.324559 0.615579 0.0311437
0.360815 0.618143 0.0327916
0.398245 0.620356 0.0341955
0.436484 0.622309 0.0353857
0.47512 0.624125 0.0364385
0.513726 0.625895 0.0373846
0.551873 0.627726 0.0382849
0.589105 0.62977 0.0392309
0.625071 0.632074 0.0402686
0.659724 0.634653 0.0413977
0.693034 0.637522 0.042649
0.724987 0.640665 0.044007
0.755764 0.644022 0.0454719
0.785657 0.647517 0.047013
0.814954 0.651072 0.0485847
0.843885 0.654612 0.0501411
0.87277 0.658045 0.0516518
0.901884 0.661295 0.0530556
0.931304 0.664347 0.0543526
0 0.577798 0
0.000244144 0.586206 0
0.0157321 0.594446 0
0.0321202 0.602472 0
0.0496681 0.610224 0.00445563
0.0686351 0.617624 0.0087892
0.0893873 0.624537 0.0129244
0.112322 0.630838 0.0168154
0.137621 0.6365 0.0204166
0.165454 0.641443 0.023682
0.195804 0.64567 0.0265965
0.22826 0.649287 0.0291752
0.262318 0.65243 0.0314336
0.297444 0.655268 0.033463
0.333013 0.657938 0.0352941
0.369406 0.660319 0.0369116
0.406928 0.662348 0.0382849
0.445212 0.664088 0.0394293
0.483848 0.66566 0.0404212
0.522423 0.66717 0.0413062
0.560479 0.668727 0.0421302
0.597559 0.670466 0.0429847
0.633326 0.672465 0.0439155
0.66775 0.674739 0.0449378
0.700816 0.677287 0.046067
0.732494 0.68011 0.0473182
0.762982 0.683162 0.0486763
0.792584 0.686351 0.0500801
0.821546 0.689601 0.0515297
0.850156 0.692821 0.0529488
0.878706 0.695964 0.0543221
0.907485 0.698894 0.0556039
0.936553 0.70164 0.0567636
0 0.620768 0
0.00523384 0.629206 0
0.0212253 0.637446 0
0.038056 0.645472 0.00462348
0.0560006 0.653223 0.00917067
0.075349 0.660578 0.01355
0.0964523 0.66743 0.017731
0.119722 0.673671 0.0216373
0.145327 0.67921 0.0252537
0.173465 0.684016 0.0285039
0.204089 0.68809 0.0314031
0.236789 0.691524 0.0339361
0.271046 0.694469 0.0361639
0.306325 0.697063 0.0381323
0.342016 0.699504 0.0399023
0.37847 0.701625 0.0414588
0.416022 0.703365 0.0427253
0.454276 0.704784 0.0437781
0.492836 0.706035 0.0446632
0.531304 0.707195 0.0454261
0.569223 0.708415 0.0461433
0.606134 0.709804 0.0468757
0.641703 0.711467 0.0476844
0.675914 0.713405 0.0485847
0.708721 0.715633 0.0496071
0.740139 0.718135 0.0507362
0.770336 0.720867 0.051957
0.799634 0.723735 0.0532387
0.82829 0.726665 0.054551
0.85658 0.72958 0.0558328
0.884794 0.732387 0.0570687
0.913237 0.735012 0.0581979
0.94197 0.737438 0.0592203
0 0.663905 0
0.0112001 0.672282 0.000564584
0.0276493 0.680446 0.00543221
0.0449073 0.688396 0.0101625
0.0632029 0.69604 0.014725
0.082887 0.703273 0.0191196
0.10428 0.709972 0.0232853
0.12784 0.71603 0.0271763
0.153719 0.721386 0.0307469
0.182086 0.725963 0.0339361
0.212924 0.729778 0.036759
0.245808 0.732937 0.0392157
0.280217 0.735576 0.0413367
0.315587 0.737865 0.043183
0.351308 0.73994 0.0448463
0.387762 0.741711 0.0462654
0.425269 0.743084 0.0474098
0.463462 0.744152 0.0483253
0.501945 0.745022 0.049073
0.540291 0.74583 0.0496986
0.578073 0.746685 0.0502937
0.614801 0.747738 0.0508888
0.650187 0.749065 0.0515755
0.684169 0.750652 0.0523537
0.716731 0.752544 0.0532387
0.74789 0.754711 0.0542306
0.777813 0.757107 0.0553292
0.806806 0.75964 0.0564736
0.835157 0.762249 0.0576486
0.863127 0.764828 0.058793
0.89102 0.767315 0.0598917
0.919142 0.769619 0.0608682
0.947524 0.77171 0.061738
0.00173953 0.70695 0.00173953
0.0178988 0.715175 0.00677501
0.0347601 0.723186 0.0116274
0.052369 0.730953 0.0163424
0.0709697 0.738399 0.0208896
0.0909133 0.745418 0.0252384
0.112566 0.751888 0.0293431
0.136339 0.757687 0.0331426
0.162417 0.762737 0.0366217
0.190951 0.766995 0.039704
0.221942 0.770459 0.0423896
0.254932 0.773251 0.0446937
0.289403 0.775509 0.0466621
0.324804 0.777401 0.0483711
0.36054 0.77911 0.0498817
0.396948 0.780499 0.0511482
0.434409 0.781491 0.0521401
0.472541 0.782177 0.0529183
0.510918 0.782681 0.0535286
0.549157 0.783123 0.0540169
0.586786 0.783612 0.0544594
0.623346 0.784298 0.0549325
0.658518 0.785275 0.0554665
0.692287 0.786511 0.0561074
0.724605 0.788052 0.0568551
0.755505 0.789883 0.0577096
0.785138 0.791943 0.0586709
0.813855 0.794141 0.059678
0.841901 0.796414 0.0607004
0.869551 0.798657 0.0617075
0.897139 0.800809 0.0626535
0.924941 0.802792 0.0634928
0.953048 0.804593 0.0642405
0.0084535 0.74966 0.0084535
0.0250095 0.757641 0.0134279
0.0422217 0.765408 0.0182345
0.0601053 0.772915 0.0228733
0.0789502 0.780087 0.0273289
0.0990921 0.786801 0.0315862
0.120912 0.792935 0.0355688
0.144823 0.798367 0.0392462
0.171008 0.803037 0.0425727
