luts/gamma.cube
LUT_3D_SIZE 33
0.000000 0.000000 0.000000
0.040211 0.000000 0.000000
0.075913 0.000000 0.000000
0.107960 0.000000 0.000000
0.141040 0.000000 0.000000
0.173128 0.000000 0.000000
0.204591 0.000000 0.000000
0.235788 0.000000 0.000000
0.267369 0.000000 0.000000
0.299417 0.000966 0.000000
0.332327 0.004506 0.000000
0.367239 0.009542 0.000876
0.403846 0.015443 0.002431
0.442639 0.022276 0.004831
0.483915 0.030448 0.007090
0.525995 0.039107 0.009225
0.568740 0.048190 0.011226
0.612277 0.055333 0.012854
0.655857 0.060660 0.014316
0.699278 0.064511 0.015607
0.740762 0.068725 0.016585
0.779967 0.072920 0.017535
0.817129 0.077050 0.018616
0.850953 0.080938 0.020351
0.883570 0.084761 0.022732
0.916102 0.088616 0.025525
0.949616 0.092624 0.028774
0.987092 0.097184 0.032459
1.029042 0.102296 0.036550
1.077283 0.108162 0.041182
1.133142 0.115109 0.046477
1.165776 0.122486 0.051178
1.169624 0.130250 0.055085
0.000000 0.042702 0.000000
0.041890 0.042848 0.000000
0.077728 0.043081 0.000000
0.108665 0.043409 0.000000
0.141013 0.043976 0.000000
0.172482 0.044341 0.000000
0.203299 0.044640 0.000000
0.233445 0.045159 0.000000
0.264065 0.045673 0.000000
0.295222 0.046532 0.000070
0.327336 0.048318 0.000328
0.361607 0.050735 0.001774
0.397744 0.053568 0.003660
0.436310 0.056881 0.005854
0.477803 0.060933 0.007935
0.520367 0.065333 0.009919
0.563863 0.070065 0.011801
0.608066 0.074455 0.013331
0.652053 0.078412 0.014715
0.695677 0.082029 0.015946
0.737486 0.085845 0.016861
0.777031 0.089614 0.017985
0.814532 0.093312 0.019384
0.848659 0.096806 0.021478
0.881550 0.100252 0.024119
0.914339 0.103750 0.027069
0.948087 0.107433 0.030297
0.985783 0.111615 0.033963
1.027874 0.116336 0.038006
1.076125 0.121805 0.042541
1.132015 0.128279 0.047715
1.164641 0.135177 0.052122
1.168431 0.142463 0.055531
0.000000 0.079329 0.000000
0.042646 0.079207 0.000000
0.078588 0.079203 0.000000
0.109128 0.079313 0.000000
0.141516 0.079564 0.000000
0.172902 0.079690 0.000000
0.203512 0.079809 0.000000
0.233209 0.080213 0.000000
0.263179 0.080688 0.000000
0.293603 0.081263 0.000064
0.324966 0.082037 0.000299
0.358482 0.083105 0.001364
0.393868 0.084428 0.003174
0.431687 0.086081 0.005964
0.472756 0.088179 0.008546
0.515262 0.090436 0.010731
0.559101 0.092829 0.012467
0.603723 0.095633 0.013885
0.648052 0.098635 0.015170
0.691964 0.101816 0.016329
0.734151 0.105150 0.017338
0.774062 0.108453 0.018774
0.811910 0.111707 0.020600
0.846337 0.114823 0.023085
0.879506 0.117906 0.025909
0.912557 0.121051 0.028931
0.946548 0.124393 0.032144
0.984452 0.128196 0.035761
1.026676 0.132520 0.039734
1.074941 0.137577 0.044173
1.130842 0.143582 0.049238
1.163427 0.150001 0.053308
1.167115 0.156803 0.056109
0.000000 0.111056 0.000000
0.042441 0.110332 0.000000
0.078403 0.109720 0.000000
0.109187 0.109183 0.000000
0.142186 0.108447 0.000000
0.173938 0.107849 0.000000
0.204749 0.107379 0.000000
0.234531 0.107127 0.000000
0.264163 0.107079 0.000000
0.294051 0.107193 0.000000
0.324768 0.107536 0.000000
0.357525 0.108260 0.000000
0.392030 0.109304 0.001343
0.428804 0.110760 0.005036
0.469011 0.112646 0.008366
0.511025 0.114507 0.010943
0.554794 0.116289 0.012659
0.599524 0.118556 0.014156
0.644032 0.121036 0.015525
0.688199 0.123707 0.016788
0.730805 0.126503 0.018068
0.771097 0.129317 0.019950
0.809295 0.132128 0.022294
0.844020 0.134881 0.025169
0.877468 0.137617 0.028101
0.910782 0.140417 0.031120
0.945016 0.143409 0.034315
0.983115 0.146836 0.037857
1.025463 0.150763 0.041737
1.073742 0.155396 0.046075
1.129637 0.160937 0.050955
1.162149 0.166880 0.054640
1.165686 0.173195 0.056824
0.000000 0.144391 0.000000
0.040309 0.143190 0.000000
0.075735 0.142163 0.000000
0.107231 0.141261 0.000000
0.140109 0.140167 0.000000
0.172246 0.139023 0.000000
0.203683 0.137876 0.000000
0.233875 0.136847 0.000000
0.263701 0.136042 0.000000
0.293688 0.135396 0.000000
0.324473 0.134946 0.000000
0.357334 0.134786 0.000000
0.392021 0.134877 0.000358
0.429095 0.135294 0.001343
0.469413 0.136306 0.002231
0.511112 0.137644 0.004158
0.554079 0.139299 0.007343
0.597873 0.141781 0.010951
0.641466 0.144637 0.014420
0.684851 0.147735 0.017650
0.727811 0.150129 0.019650
0.768441 0.152563 0.022186
0.806963 0.155015 0.025049
0.841994 0.157439 0.028012
0.875690 0.159881 0.030952
0.909222 0.162388 0.033932
0.943655 0.165052 0.037041
0.981910 0.168156 0.040468
1.024342 0.171730 0.044218
1.072600 0.175956 0.048412
1.128489 0.181043 0.052261
1.160884 0.186524 0.055416
1.164172 0.192374 0.057779
0.000000 0.176381 0.000000
0.036886 0.174941 0.000000
0.071569 0.173599 0.000000
0.104411 0.172324 0.000000
0.137172 0.170908 0.000000
0.169321 0.169406 0.000000
0.200891 0.167855 0.000000
0.231433 0.166313 0.000000
0.261737 0.164875 0.000000
0.292172 0.163554 0.000000
0.323192 0.162440 0.000000
0.356284 0.161553 0.000000
0.391242 0.160871 0.000000
0.428659 0.160459 0.000000
0.469311 0.160640 0.000000
0.511254 0.161254 0.000951
0.554359 0.162318 0.003043
0.598292 0.164319 0.005505
0.641992 0.166756 0.008898
0.685415 0.169526 0.013041
0.727999 0.171990 0.016925
0.768251 0.174578 0.021106
0.806392 0.177239 0.025430
0.841037 0.179916 0.029633
0.874479 0.182507 0.033463
0.907903 0.185022 0.036968
0.942483 0.187422 0.039979
0.980865 0.190228 0.043292
1.023353 0.193482 0.046907
1.071550 0.197362 0.050932
1.127422 0.202046 0.053777
1.159678 0.207105 0.056394
1.162674 0.212518 0.058880
0.000000 0.207312 0.000000
0.032278 0.205810 0.000000
0.066065 0.204218 0.000000
0.100893 0.202548 0.000000
0.133572 0.200845 0.000000
0.165545 0.199102 0.000000
0.196970 0.197321 0.000000
0.227743 0.195465 0.000000
0.258573 0.193546 0.000000
0.289593 0.191672 0.000000
0.321066 0.189985 0.000000
0.354525 0.188495 0.000000
0.389851 0.187179 0.000000
0.427670 0.186094 0.000000
0.468807 0.185514 0.000000
0.511325 0.185340 0.000000
0.555102 0.185591 0.000000
0.599780 0.186751 0.000000
0.644171 0.188354 0.002024
0.688133 0.190384 0.005895
0.730184 0.193006 0.011363
0.769884 0.195850 0.017154
0.807461 0.198835 0.023086
0.841527 0.201889 0.028818
0.874530 0.204751 0.033863
0.907659 0.207408 0.038250
0.942187 0.209708 0.041568
0.980484 0.212401 0.045201
1.022798 0.215551 0.049063
1.070674 0.219346 0.053201
1.126449 0.223724 0.055321
1.158517 0.228418 0.057534
1.161188 0.233421 0.060103
0.000000 0.236938 0.000000
0.025663 0.235560 0.000000
0.058387 0.233752 0.000000
0.096464 0.231609 0.000000
0.129201 0.229682 0.000000
0.161117 0.227751 0.000000
0.192412 0.225814 0.000000
0.223032 0.223857 0.000000
0.253861 0.221819 0.000000
0.285197 0.219722 0.000000
0.317678 0.217544 0.000000
0.351788 0.215596 0.000000
0.387680 0.213810 0.000000
0.426057 0.212215 0.000000
0.467787 0.211091 0.000000
0.510931 0.210343 0.000000
0.555368 0.209988 0.000000
0.600754 0.210475 0.000000
0.645841 0.211418 0.000434
0.690484 0.212797 0.001403
0.733173 0.214752 0.004112
0.773382 0.216951 0.008809
0.811376 0.219316 0.014597
0.845779 0.221795 0.020184
0.878803 0.224345 0.025643
0.911637 0.226976 0.031069
0.945346 0.229752 0.036538
0.982679 0.233089 0.042438
1.023855 0.237018 0.048282
1.070346 0.241763 0.053863
1.125698 0.246134 0.056456
1.157416 0.250608 0.058892
1.159712 0.255248 0.061498
0.000000 0.266178 0.000000
0.017208 0.265138 0.000000
0.048719 0.263170 0.000000
0.091195 0.260487 0.000000
0.124118 0.258372 0.000000
0.156124 0.256295 0.000000
0.187438 0.254247 0.000000
0.217991 0.252230 0.000000
0.248784 0.250159 0.000000
0.280166 0.248020 0.000000
0.312882 0.245753 0.000000
0.347816 0.243493 0.000000
0.384628 0.241317 0.000000
0.423861 0.239288 0.000000
0.466338 0.237728 0.000000
0.510219 0.236519 0.000000
0.555395 0.235676 0.000000
0.601503 0.235626 0.000000
0.647281 0.236010 0.000000
0.692584 0.236813 0.000089
0.735883 0.238186 0.001067
0.776606 0.239826 0.003266
0.815033 0.241651 0.006445
0.849751 0.243621 0.010895
0.882964 0.245733 0.016122
0.915874 0.248003 0.021775
0.949476 0.250553 0.027783
0.986723 0.253684 0.034521
1.027738 0.257399 0.041543
1.073930 0.261913 0.048780
1.127435 0.266674 0.053849
1.157410 0.271742 0.058198
1.158273 0.277149 0.061942
0.000000 0.295487 0.000000
0.008578 0.294880 0.000000
0.038618 0.292815 0.000000
0.085206 0.289628 0.000000
0.118444 0.287357 0.000000
0.150657 0.285170 0.000000
0.182092 0.283047 0.000000
0.212665 0.280998 0.000000
0.243448 0.278938 0.000000
0.274811 0.276838 0.000000
0.307509 0.274647 0.000000
0.343107 0.272241 0.000000
0.380809 0.269817 0.000000
0.421064 0.267445 0.000000
0.464471 0.265499 0.000000
0.509226 0.263886 0.000000
0.555220 0.262622 0.000000
0.602082 0.262109 0.000000
0.648566 0.261998 0.000000
0.694528 0.262278 0.000000
0.738404 0.263121 0.000000
0.779627 0.264246 0.000000
0.818481 0.265571 0.000495
0.853504 0.267072 0.003218
0.886977 0.268717 0.007186
0.920108 0.270516 0.011857
0.953879 0.272580 0.017162
0.991370 0.275191 0.023992
1.032592 0.278334 0.031682
1.078897 0.282196 0.040284
1.129639 0.287155 0.048326
1.157348 0.292677 0.055195
1.156884 0.298742 0.060725
0.000000 0.325364 0.000000
0.001320 0.325230 0.000000
0.029351 0.323181 0.000000
0.078139 0.319652 0.000000
0.111908 0.317278 0.000000
0.144485 0.315032 0.000000
0.176170 0.312883 0.000000
0.206906 0.310842 0.000000
0.237786 0.308822 0.000000
0.269223 0.306793 0.000000
0.302005 0.304716 0.000000
0.337668 0.302467 0.000000
0.375831 0.300086 0.000000
0.417250 0.297541 0.000000
0.461921 0.295232 0.000000
0.507803 0.293251 0.000000
0.554747 0.291635 0.000000
0.602432 0.290720 0.000000
0.649666 0.290179 0.000000
0.696303 0.290003 0.000000
0.740705 0.290369 0.000000
0.782380 0.291012 0.000000
0.821626 0.291864 0.000076
0.856955 0.292941 0.000495
0.890701 0.294164 0.001105
0.924076 0.295527 0.002393
0.958041 0.297117 0.005293
0.995778 0.299225 0.011651
1.037210 0.301829 0.019452
1.083641 0.305102 0.028433
1.130601 0.309349 0.038768
1.156041 0.314133 0.048089
1.155592 0.319443 0.056031
0.000000 0.357207 0.000000
0.000000 0.357166 0.000000
0.024968 0.355302 0.000000
0.069715 0.352007 0.000000
0.104178 0.349588 0.000000
0.137356 0.347339 0.000000
0.169543 0.345220 0.000000
0.200574 0.343255 0.000000
0.231702 0.341340 0.000000
0.263347 0.339435 0.000000
0.296274 0.337508 0.000000
0.332112 0.335451 0.000000
0.370523 0.333262 0.000000
0.412303 0.330891 0.000000
0.458157 0.328458 0.000000
0.505347 0.326217 0.000000
0.553650 0.324213 0.000000
0.602278 0.322923 0.000000
0.650345 0.321982 0.000000
0.697706 0.321381 0.000000
0.742678 0.321282 0.000000
0.784829 0.321474 0.000000
0.824476 0.321884 0.000000
0.860103 0.322527 0.000000
0.894084 0.323327 0.000000
0.927666 0.324262 0.000294
0.961832 0.325397 0.001372
0.999860 0.327066 0.004116
1.041569 0.329180 0.008159
1.088220 0.331866 0.013830
1.131421 0.335435 0.024588
1.154602 0.339499 0.035738
1.154174 0.344049 0.046748
0.000000 0.391017 0.000000
0.000000 0.390982 0.000000
0.020062 0.389476 0.000000
0.056916 0.386762 0.000000
0.094501 0.384204 0.000000
0.129304 0.381940 0.000000
0.162201 0.379889 0.000000
0.193676 0.378034 0.000000
0.225159 0.376256 0.000000
0.257105 0.374507 0.000000
0.290275 0.372751 0.000000
0.326351 0.370902 0.000000
0.364990 0.368943 0.000000
0.406984 0.366828 0.000000
0.453677 0.364455 0.000000
0.501975 0.362108 0.000000
0.551635 0.359824 0.000000
0.601469 0.358116 0.000000
0.650526 0.356758 0.000000
0.698678 0.355737 0.000000
0.744261 0.355185 0.000000
0.786911 0.354928 0.000000
0.826969 0.354892 0.000000
0.862912 0.355101 0.000000
0.897147 0.355485 0.000000
0.930956 0.356000 0.000000
0.965335 0.356689 0.000000
1.003662 0.357931 0.000000
1.045665 0.359567 0.000829
1.092564 0.361676 0.003111
1.132027 0.364588 0.011183
1.152969 0.367948 0.021281
1.152579 0.371751 0.033116
0.000000 0.427506 0.000000
0.000000 0.427469 0.000000
0.012340 0.426561 0.000000
0.036987 0.424811 0.000000
0.081880 0.421924 0.000000
0.120009 0.419607 0.000000
0.153883 0.417666 0.000000
0.186010 0.415952 0.000000
0.217976 0.414347 0.000000
0.250334 0.412784 0.000000
0.283897 0.411224 0.000000
0.320276 0.409596 0.000000
0.359193 0.407878 0.000000
0.401454 0.406027 0.000000
0.448414 0.403944 0.000000
0.497402 0.401721 0.000000
0.548259 0.399358 0.000000
0.599710 0.397144 0.000000
0.649998 0.395327 0.000000
0.699037 0.393886 0.000000
0.745288 0.392895 0.000000
0.788467 0.392179 0.000000
0.828956 0.391682 0.000000
0.865246 0.391461 0.000000
0.899786 0.391438 0.000000
0.933868 0.391544 0.000000
0.968476 0.391796 0.000000
1.007104 0.392609 0.000000
1.049401 0.393769 0.000069
1.096559 0.395317 0.000259
1.132316 0.397592 0.000932
1.151050 0.400272 0.005179
1.150725 0.403354 0.013656
0.000000 0.468186 0.000000
0.000000 0.468141 0.000000
0.004364 0.467793 0.000000
0.016227 0.466981 0.000000
0.066705 0.464044 0.000000
0.107998 0.461801 0.000000
0.143521 0.460013 0.000000
0.176695 0.458484 0.000000
0.209472 0.457067 0.000000
0.242495 0.455695 0.000000
0.276572 0.454336 0.000000
0.313420 0.452908 0.000000
0.352772 0.451402 0.000000
0.395430 0.449785 0.000000
0.442662 0.447945 0.000000
0.491930 0.445943 0.000000
0.543091 0.443776 0.000000
0.595470 0.441476 0.000000
0.647102 0.439280 0.000000
0.697750 0.437233 0.000000
0.744776 0.435787 0.000000
0.788641 0.434632 0.000000
0.829722 0.433707 0.000000
0.866402 0.433075 0.000000
0.901239 0.432624 0.000000
0.935568 0.432295 0.000000
0.970381 0.432110 0.000000
1.009365 0.432507 0.000000
1.052013 0.433219 0.000000
1.099450 0.434256 0.000000
1.131698 0.435898 0.000000
1.148359 0.437929 0.001393
1.148138 0.440356 0.004458
0.000000 0.511033 0.000000
0.000000 0.510987 0.000000
0.000000 0.510942 0.000000
0.004358 0.510675 0.000000
0.052293 0.508157 0.000000
0.094067 0.506170 0.000000
0.131650 0.504547 0.000000
0.166222 0.503192 0.000000
0.200034 0.501950 0.000000
0.233891 0.500753 0.000000
0.268623 0.499564 0.000000
0.306029 0.498313 0.000000
0.345881 0.496990 0.000000
0.388974 0.495563 0.000000
0.436530 0.493907 0.000000
0.486062 0.492088 0.000000
0.537429 0.490102 0.000000
0.590318 0.487831 0.000000
0.642801 0.485471 0.000000
0.694588 0.483079 0.000000
0.742789 0.481106 0.000000
0.787548 0.479458 0.000000
0.829306 0.478072 0.000000
0.866412 0.477027 0.000000
0.901587 0.476158 0.000000
0.936209 0.475404 0.000000
0.971288 0.474780 0.000000
1.010649 0.474790 0.000000
1.053669 0.475086 0.000000
1.101429 0.475638 0.000000
1.130490 0.476694 0.000000
1.145257 0.478111 0.000000
1.145115 0.479900 0.000000
0.000000 0.555978 0.000000
0.000000 0.555939 0.000000
0.000000 0.555893 0.000000
0.003259 0.555703 0.000000
0.039106 0.554135 0.000000
0.078157 0.552607 0.000000
0.118215 0.551157 0.000000
0.154557 0.549956 0.000000
0.189635 0.548874 0.000000
0.224496 0.547831 0.000000
0.260040 0.546774 0.000000
0.298090 0.545675 0.000000
0.338499 0.544503 0.000000
0.382061 0.543220 0.000000
0.430000 0.541682 0.000000
0.479825 0.539985 0.000000
0.531388 0.538129 0.000000
0.584367 0.535977 0.000000
0.637096 0.533700 0.000000
0.689375 0.531300 0.000000
0.739217 0.528715 0.000000
0.785099 0.526509 0.000000
0.827619 0.524615 0.000000
0.865190 0.523152 0.000000
0.900751 0.521879 0.000000
0.935726 0.520715 0.000000
0.971148 0.519651 0.000000
1.010899 0.519306 0.000000
1.054312 0.519222 0.000000
1.102446 0.519315 0.000000
1.128683 0.519841 0.000000
1.141754 0.520682 0.000000
1.141653 0.521849 0.000000
0.000000 0.603420 0.000000
0.000000 0.603389 0.000000
0.000000 0.603346 0.000000
0.001018 0.603247 0.000000
0.012221 0.602701 0.000000
0.050298 0.601432 0.000000
0.101122 0.599852 0.000000
0.140195 0.598735 0.000000
0.177208 0.597728 0.000000
0.213542 0.596762 0.000000
0.250120 0.595794 0.000000
0.289018 0.594744 0.000000
0.330151 0.593610 0.000000
0.374296 0.592360 0.000000
0.422653 0.590850 0.000000
0.472830 0.589200 0.000000
0.524687 0.587410 0.000000
0.577786 0.585295 0.000000
0.630538 0.583037 0.000000
0.682750 0.580643 0.000000
0.732469 0.578094 0.000000
0.778889 0.575669 0.000000
0.822385 0.573363 0.000000
0.861217 0.571273 0.000000
0.897453 0.569560 0.000000
0.932870 0.568027 0.000000
0.968699 0.566603 0.000000
1.008898 0.565951 0.000000
1.052769 0.565542 0.000000
1.101366 0.565259 0.000000
1.125730 0.565336 0.000000
1.137671 0.565685 0.000000
1.137615 0.566316 0.000000
0.000000 0.651138 0.000000
0.000000 0.651116 0.000000
0.000000 0.651073 0.000000
0.000000 0.651011 0.000000
0.000000 0.650939 0.000000
0.032437 0.649982 0.000000
0.081848 0.648589 0.000000
0.124225 0.647505 0.000000
0.163566 0.646525 0.000000
0.201669 0.645585 0.000000
0.239505 0.644645 0.000000
0.279362 0.643599 0.000000
0.321308 0.642468 0.000000
0.366125 0.641229 0.000000
0.414970 0.639719 0.000000
0.465526 0.638057 0.000000
0.517651 0.636243 0.000000
0.570863 0.634105 0.000000
0.623648 0.631824 0.000000
0.675822 0.629412 0.000000
0.725447 0.626873 0.000000
0.772039 0.624343 0.000000
0.815903 0.621846 0.000000
0.855292 0.619472 0.000000
0.892210 0.617398 0.000000
0.928370 0.615458 0.000000
0.964979 0.613577 0.000000
1.005731 0.612612 0.000000
1.050103 0.611901 0.000000
1.099202 0.611279 0.000000
1.122263 0.610954 0.000000
1.133414 0.610866 0.000000
1.133400 0.611028 0.000000
0.000000 0.698917 0.000000
0.000000 0.698902 0.000000
0.000000 0.698857 0.000000
0.000000 0.698789 0.000000
0.000000 0.698732 0.000000
0.022289 0.698135 0.000000
0.059484 0.697191 0.000000
0.106445 0.696074 0.000000
0.148725 0.695068 0.000000
0.188917 0.694103 0.000000
0.228225 0.693139 0.000000
0.269158 0.692057 0.000000
0.312008 0.690895 0.000000
0.357578 0.689637 0.000000
0.406971 0.688093 0.000000
0.457931 0.686364 0.000000
0.510312 0.684447 0.000000
0.563632 0.682233 0.000000
0.616463 0.679893 0.000000
0.668627 0.677439 0.000000
0.718187 0.674883 0.000000
0.764655 0.672342 0.000000
0.808385 0.669839 0.000000
0.847738 0.667469 0.000000
0.885273 0.665128 0.000000
0.922330 0.662787 0.000000
0.959932 0.660415 0.000000
1.001351 0.659130 0.000000
1.046313 0.658127 0.000000
1.095986 0.657193 0.000000
1.118317 0.656508 0.000000
1.129017 0.656036 0.000000
1.129041 0.655791 0.000000
0.000000 0.745022 0.000000
0.000000 0.744987 0.000000
0.000000 0.744937 0.000000
0.000000 0.744877 0.000000
0.000000 0.744820 0.000000
0.005944 0.744599 0.000000
0.024411 0.744089 0.000000
0.083950 0.742695 0.000000
0.132007 0.741536 0.000000
0.175028 0.740483 0.000000
0.216103 0.739472 0.000000
0.258344 0.738329 0.000000
0.302258 0.737078 0.000000
0.348646 0.735689 0.000000
0.398615 0.734004 0.000000
0.450022 0.732143 0.000000
0.502726 0.730106 0.000000
0.556185 0.727784 0.000000
0.609099 0.725352 0.000000
0.661293 0.722818 0.000000
0.710833 0.720201 0.000000
0.757248 0.717640 0.000000
0.800901 0.715143 0.000000
0.840157 0.712793 0.000000
0.877599 0.710463 0.000000
0.914593 0.708117 0.000000
0.952208 0.705707 0.000000
0.994568 0.704099 0.000000
1.040618 0.702716 0.000000
1.091283 0.701417 0.000000
1.113856 0.700409 0.000000
1.124663 0.699611 0.000000
1.124721 0.699031 0.000000
0.000000 0.788406 0.000000
0.000000 0.788369 0.000000
0.000000 0.788321 0.000000
0.000000 0.788263 0.000000
0.000000 0.788206 0.000000
0.000000 0.788126 0.000000
0.009966 0.787811 0.000000
0.064780 0.786504 0.000000
0.114388 0.785281 0.000000
0.160799 0.784104 0.000000
0.203889 0.782970 0.000000
0.247524 0.781705 0.000000
0.292547 0.780325 0.000000
0.339788 0.778792 0.000000
0.390357 0.776951 0.000000
0.442237 0.774945 0.000000
0.495291 0.772778 0.000000
0.548921 0.770348 0.000000
0.601953 0.767822 0.000000
0.654213 0.765211 0.000000
0.703732 0.762550 0.000000
0.750121 0.759969 0.000000
0.793739 0.757470 0.000000
0.832934 0.755126 0.000000
0.870315 0.752821 0.000000
0.907261 0.750500 0.000000
0.944859 0.748101 0.000000
0.987453 0.746409 0.000000
1.033995 0.744870 0.000000
1.085503 0.743327 0.000000
1.109160 0.741951 0.000000
1.120584 0.740811 0.000000
1.120670 0.739935 0.000000
0.000000 0.829336 0.000000
0.000000 0.829307 0.000000
0.000000 0.829263 0.000000
0.000000 0.829207 0.000000
0.000000 0.829147 0.000000
0.000000 0.829072 0.000000
0.006856 0.828830 0.000000
0.044563 0.827880 0.000000
0.094412 0.826597 0.000000
0.146334 0.825217 0.000000
0.191645 0.823910 0.000000
0.236760 0.822487 0.000000
0.282942 0.820952 0.000000
0.331064 0.819266 0.000000
0.382250 0.817265 0.000000
0.434619 0.815111 0.000000
0.488041 0.812810 0.000000
0.541871 0.810272 0.000000
0.595045 0.807658 0.000000
0.647390 0.804977 0.000000
0.696908 0.802281 0.000000
0.743295 0.799681 0.000000
0.786904 0.797175 0.000000
0.826065 0.794839 0.000000
0.863413 0.792568 0.000000
0.900328 0.790292 0.000000
0.937901 0.787936 0.000000
0.980335 0.786289 0.000000
1.026972 0.784735 0.000000
1.079077 0.783068 0.000000
1.104382 0.781348 0.000000
1.116773 0.779877 0.000000
1.116884 0.778712 0.000000
0.000000 0.866222 0.000000
0.000000 0.866193 0.000000
0.000000 0.866155 0.000000
0.000000 0.866107 0.000000
0.000000 0.866037 0.000000
0.000000 0.865964 0.000000
0.001705 0.865845 0.000000
0.011084 0.865530 0.000000
0.066145 0.863993 0.000000
0.131690 0.862133 0.000000
0.179507 0.860635 0.000000
0.226266 0.859039 0.000000
0.273707 0.857337 0.000000
0.322756 0.855489 0.000000
0.374569 0.853354 0.000000
0.427432 0.851073 0.000000
0.481225 0.848651 0.000000
0.535313 0.846008 0.000000
0.588649 0.843322 0.000000
0.641076 0.840600 0.000000
0.690679 0.837868 0.000000
0.737100 0.835247 0.000000
0.780714 0.832737 0.000000
0.819871 0.830448 0.000000
0.857228 0.828221 0.000000
0.894158 0.825995 0.000000
0.931747 0.823706 0.000000
0.974055 0.822074 0.000000
1.020543 0.820560 0.000000
1.072512 0.818996 0.000000
1.099839 0.817157 0.000000
1.113463 0.815449 0.000000
1.113600 0.813929 0.000000
0.000000 0.901326 0.000000
0.000000 0.901289 0.000000
0.000000 0.901249 0.000000
0.000000 0.901204 0.000000
0.000000 0.901139 0.000000
0.000000 0.901064 0.000000
0.000150 0.900979 0.000000
0.000977 0.900865 0.000000
0.051754 0.899313 0.000000
0.116192 0.897324 0.000000
0.167107 0.895605 0.000000
0.215720 0.893825 0.000000
0.264517 0.891956 0.000000
0.314529 0.889954 0.000000
0.366997 0.887674 0.000000
0.420385 0.885263 0.000000
0.474581 0.882727 0.000000
0.528921 0.879998 0.000000
0.582434 0.877249 0.000000
0.634974 0.874485 0.000000
0.684665 0.871745 0.000000
0.731147 0.869131 0.000000
0.774804 0.866643 0.000000
0.814005 0.864396 0.000000
0.851399 0.862224 0.000000
0.888365 0.860063 0.000000
0.925998 0.857853 0.000000
0.968208 0.856243 0.000000
1.014578 0.854769 0.000000
1.066449 0.853301 0.000000
1.095696 0.851503 0.000000
1.110484 0.849684 0.000000
1.110635 0.847880 0.000000
0.000000 0.935916 0.000000
0.000000 0.935873 0.000000
0.000000 0.935831 0.000000
0.000000 0.935789 0.000000
0.000000 0.935728 0.000000
0.000000 0.935653 0.000000
0.000000 0.935569 0.000000
0.000000 0.935482 0.000000
0.042385 0.934044 0.000000
0.099642 0.932091 0.000000
0.154168 0.930118 0.000000
0.204855 0.928141 0.000000
0.255128 0.926096 0.000000
0.306173 0.923936 0.000000
0.359339 0.921515 0.000000
0.413289 0.918977 0.000000
0.467927 0.916329 0.000000
0.522524 0.913530 0.000000
0.576238 0.910728 0.000000
0.628925 0.907930 0.000000
0.678708 0.905198 0.000000
0.725271 0.902611 0.000000
0.769001 0.900162 0.000000
0.808265 0.897966 0.000000
0.845714 0.895864 0.000000
0.882737 0.893783 0.000000
0.920440 0.891663 0.000000
0.962575 0.890081 0.000000
1.008850 0.888648 0.000000
1.060646 0.887269 0.000000
1.091787 0.885567 0.000000
1.107715 0.883729 0.000000
1.107866 0.881766 0.000000
0.000000 0.970922 0.000000
0.000000 0.970879 0.000000
0.000000 0.970843 0.000000
0.000000 0.970808 0.000000
0.000000 0.970739 0.000000
0.000000 0.970666 0.000000
0.000000 0.970590 0.000000
0.000000 0.970504 0.000000
0.032535 0.969278 0.000000
0.081138 0.967453 0.000000
0.140056 0.965169 0.000000
0.193184 0.962969 0.000000
0.245165 0.960729 0.000000
0.297390 0.958389 0.000000
0.351341 0.955849 0.000000
0.405929 0.953195 0.000000
0.461076 0.950431 0.000000
0.515951 0.947581 0.000000
0.569910 0.944747 0.000000
0.622803 0.941937 0.000000
0.672689 0.939236 0.000000
0.719361 0.936696 0.000000
0.763198 0.934308 0.000000
0.802532 0.932189 0.000000
0.840060 0.930183 0.000000
0.877172 0.928207 0.000000
0.914984 0.926198 0.000000
0.957083 0.924654 0.000000
1.003293 0.923262 0.000000
1.055032 0.921957 0.000000
