luts/gamma.cube
LUT_3D_SIZE 5
0.000000 0.000000 0.000000
0.267369 0.000000 0.000000
0.568740 0.048190 0.011226
0.883570 0.084761 0.022732
1.169624 0.130250 0.055085
0.000000 0.266178 0.000000
0.248784 0.250159 0.000000
0.555395 0.235676 0.000000
0.882964 0.245733 0.016122
1.158273 0.277149 0.061942
0.000000 0.555978 0.000000
0.189635 0.548874 0.000000
0.531388 0.538129 0.000000
0.900751 0.521879 0.000000
1.141653 0.521849 0.000000
0.000000 0.901326 0.000000
0.051754 0.899313 0.000000
0.474581 0.882727 0.000000
0.851399 0.862224 0.000000
1.110635 0.847880 0.000000
0.000000 1.145168 0.000000
0.000000 1.145168 0.000000
0.414615 1.126303 0.000000
0.811346 1.108153 0.000000
1.103577 1.103577 0.000000
0.000000 0.000000 0.309536
0.284893 0.000000 0.286254
0.618769 0.000000 0.251132
0.946419 0.000000 0.228521
1.182927 0.000000 0.229385
0.000000 0.258699 0.258647
0.244877 0.245177 0.245404
0.535262 0.242349 0.241244
0.870485 0.252966 0.244567
1.155985 0.275481 0.252955
0.000000 0.551691 0.210373
0.208746 0.543743 0.213752
0.533926 0.535583 0.204587
0.883205 0.526830 0.220688
1.135933 0.536914 0.246904
0.000000 0.899380 0.144611
0.075548 0.896054 0.145887
0.479217 0.879806 0.135818
0.852465 0.860257 0.116645
1.108533 0.847180 0.134845
0.000000 1.144545 0.040445
0.000000 1.144623 0.035433
0.405511 1.126182 0.030362
0.806955 1.107954 0.025213
1.103366 1.103366 0.019075
0.000000 0.000000 0.733988
0.265544 0.000000 0.679218
0.603660 0.000000 0.608049
0.968105 0.000000 0.561191
1.173743 0.000000 0.538518
0.000000 0.250889 0.619193
0.233347 0.237847 0.587069
0.560159 0.219859 0.561281
0.942909 0.175725 0.544962
1.158799 0.178138 0.531254
0.000000 0.545286 0.546048
0.219467 0.538879 0.539043
0.532114 0.532661 0.532864
0.858642 0.533532 0.532550
1.129867 0.543055 0.537733
0.000000 0.894008 0.501440
0.102812 0.889156 0.500253
0.496613 0.869441 0.499099
0.852663 0.853841 0.485139
1.103417 0.848820 0.503290
0.000000 1.137832 0.451206
0.000000 1.137871 0.448962
0.411204 1.118322 0.440005
0.807562 1.102790 0.427670
1.099847 1.099847 0.412825
0.000000 0.000000 1.152054
0.221006 0.000000 1.098528
0.578218 0.000000 1.017024
0.954688 0.000000 0.962091
1.165986 0.000000 0.929884
0.000000 0.237377 1.039189
0.188615 0.226032 1.010937
0.553047 0.202891 0.972912
0.940051 0.157651 0.945723
1.160468 0.077558 0.924083
0.000000 0.542601 0.941212
0.172593 0.538199 0.932474
0.525419 0.527835 0.911233
0.889827 0.510777 0.890575
1.129428 0.480404 0.883121
0.000000 0.885920 0.887743
0.126442 0.879726 0.880808
0.503848 0.861166 0.861033
0.848909 0.849418 0.849603
1.099955 0.853901 0.853843
0.000000 1.130821 0.843785
0.000000 1.130835 0.843038
0.419299 1.111245 0.827999
0.824940 1.099201 0.826438
1.098167 1.098167 0.817969
0.000000 0.000000 1.352490
0.222234 0.000000 1.284307
0.554185 0.000000 1.203464
0.938348 0.000000 1.167496
1.164951 0.000000 1.164951
0.000000 0.232446 1.222426
0.163095 0.222099 1.196974
0.530674 0.195362 1.168766
0.927942 0.140341 1.157484
1.160178 0.068881 1.160178
0.000000 0.539026 1.162503
0.055018 0.535856 1.160799
0.499316 0.521078 1.146218
0.889654 0.497894 1.129927
1.129097 0.467933 1.129097
0.000000 0.883932 1.136554
0.040103 0.881431 1.134801
0.470568 0.862359 1.114714
0.845214 0.846496 1.101628
1.100002 0.836154 1.100002
0.000000 1.128599 1.128599
0.000000 1.128599 1.128599
0.431119 1.108881 1.108881
0.834278 1.098587 1.098587
1.098066 1.098066 1.098066
