luts/gamma.cube
LUT_3D_SIZE 9
0.000000 0.000000 0.000000
0.141040 0.000000 0.000000
0.267369 0.000000 0.000000
0.403846 0.015443 0.002431
0.568740 0.048190 0.011226
0.740762 0.068725 0.016585
0.883570 0.084761 0.022732
1.029042 0.102296 0.036550
1.169624 0.130250 0.055085
0.000000 0.144391 0.000000
0.140109 0.140167 0.000000
0.263701 0.136042 0.000000
0.392021 0.134877 0.000358
0.554079 0.139299 0.007343
0.727811 0.150129 0.019650
0.875690 0.159881 0.030952
1.024342 0.171730 0.044218
1.164172 0.192374 0.057779
0.000000 0.266178 0.000000
0.124118 0.258372 0.000000
0.248784 0.250159 0.000000
0.384628 0.241317 0.000000
0.555395 0.235676 0.000000
0.735883 0.238186 0.001067
0.882964 0.245733 0.016122
1.027738 0.257399 0.041543
1.158273 0.277149 0.061942
0.000000 0.391017 0.000000
0.094501 0.384204 0.000000
0.225159 0.376256 0.000000
0.364990 0.368943 0.000000
0.551635 0.359824 0.000000
0.744261 0.355185 0.000000
0.897147 0.355485 0.000000
1.045665 0.359567 0.000829
1.152579 0.371751 0.033116
0.000000 0.555978 0.000000
0.039106 0.554135 0.000000
0.189635 0.548874 0.000000
0.338499 0.544503 0.000000
0.531388 0.538129 0.000000
0.739217 0.528715 0.000000
0.900751 0.521879 0.000000
1.054312 0.519222 0.000000
1.141653 0.521849 0.000000
0.000000 0.745022 0.000000
0.000000 0.744820 0.000000
0.132007 0.741536 0.000000
0.302258 0.737078 0.000000
0.502726 0.730106 0.000000
0.710833 0.720201 0.000000
0.877599 0.710463 0.000000
1.040618 0.702716 0.000000
1.124721 0.699031 0.000000
0.000000 0.901326 0.000000
0.000000 0.901139 0.000000
0.051754 0.899313 0.000000
0.264517 0.891956 0.000000
0.474581 0.882727 0.000000
0.684665 0.871745 0.000000
0.851399 0.862224 0.000000
1.014578 0.854769 0.000000
1.110635 0.847880 0.000000
0.000000 1.056251 0.000000
0.000000 1.056053 0.000000
0.000000 1.055701 0.000000
0.222552 1.046106 0.000000
0.447900 1.034616 0.000000
0.662648 1.022604 0.000000
0.831170 1.013220 0.000000
0.994654 1.006194 0.000000
1.103577 1.000143 0.000000
0.000000 1.145168 0.000000
0.000000 1.145168 0.000000
0.000000 1.145168 0.000000
0.156143 1.138522 0.000000
0.414615 1.126303 0.000000
0.639139 1.115517 0.000000
0.811346 1.108153 0.000000
0.976271 1.103577 0.000000
1.103577 1.103577 0.000000
0.000000 0.000000 0.150915
0.148442 0.000000 0.148705
0.286847 0.000000 0.144673
0.429714 0.000000 0.136438
0.603784 0.000000 0.128525
0.781928 0.000000 0.123839
0.925593 0.002917 0.122502
1.073010 0.011161 0.123757
1.177691 0.051405 0.128433
0.000000 0.142458 0.142335
0.138366 0.138489 0.138698
0.255419 0.136580 0.136874
0.382344 0.136393 0.135077
0.547739 0.139419 0.133923
0.726531 0.147411 0.135008
0.875550 0.157006 0.137429
1.024851 0.168683 0.140896
1.163140 0.189127 0.147620
0.000000 0.262521 0.130678
0.129263 0.253705 0.129527
0.247060 0.247270 0.125570
0.374578 0.242314 0.126550
0.538723 0.242320 0.131977
0.718657 0.248289 0.137517
0.869458 0.255139 0.141262
1.019315 0.263259 0.144995
1.157061 0.278339 0.151711
0.000000 0.387297 0.110629
0.106887 0.379396 0.111784
0.230475 0.372799 0.108989
0.365773 0.367118 0.103345
0.545596 0.361129 0.106675
0.731322 0.361047 0.120598
0.880058 0.364976 0.130833
1.024647 0.372338 0.141038
1.149958 0.386679 0.153985
0.000000 0.554225 0.074071
0.051687 0.551478 0.077033
0.198777 0.546740 0.073987
0.343088 0.542992 0.066978
0.532936 0.537236 0.058151
0.737348 0.528905 0.056356
0.893621 0.524133 0.079064
1.042888 0.523371 0.099785
1.138901 0.529065 0.122282
0.000000 0.744440 0.022525
0.000000 0.743908 0.025167
0.141941 0.740440 0.022041
0.307012 0.736267 0.014354
0.505138 0.729546 0.006426
0.712183 0.719885 0.000726
0.878628 0.710208 0.000000
1.038881 0.703254 0.009976
1.123527 0.700964 0.051733
0.000000 0.901141 0.000000
0.000000 0.900850 0.000000
0.061218 0.898798 0.000000
0.267562 0.891641 0.000000
0.476098 0.882541 0.000000
0.685576 0.871631 0.000000
0.852280 0.862099 0.000000
1.015820 0.854555 0.000000
1.110605 0.848221 0.000000
0.000000 1.056324 0.000000
0.000000 1.056191 0.000000
0.000000 1.055837 0.000000
0.222218 1.046291 0.000000
0.447537 1.034845 0.000000
0.662426 1.022840 0.000000
0.831181 1.013421 0.000000
0.995140 1.006273 0.000000
1.103577 0.999848 0.000000
0.000000 1.145168 0.000000
0.000000 1.145168 0.000000
0.000000 1.145168 0.000000
0.145656 1.138987 0.000000
0.410066 1.126526 0.000000
0.636219 1.115651 0.000000
0.809291 1.108233 0.000000
0.974941 1.103577 0.000000
1.103577 1.103577 0.000000
0.000000 0.000000 0.309536
0.147264 0.000000 0.296843
0.284893 0.000000 0.286254
0.433122 0.000000 0.271937
0.618769 0.000000 0.251132
0.800161 0.000000 0.235393
0.946419 0.000000 0.228521
1.097936 0.000000 0.226920
1.182927 0.000000 0.229385
0.000000 0.141277 0.278705
0.136590 0.136593 0.267761
0.259402 0.131623 0.259407
0.398176 0.122121 0.252039
0.571200 0.115477 0.241270
0.753485 0.115490 0.235382
0.903591 0.119780 0.233935
1.054037 0.127883 0.234972
1.165133 0.145903 0.239335
0.000000 0.258699 0.258647
0.130689 0.250548 0.250408
0.244877 0.245177 0.245404
0.368786 0.242239 0.242630
0.535262 0.242349 0.241244
0.718678 0.246857 0.242433
0.870485 0.252966 0.244567
1.020394 0.260748 0.247332
1.155985 0.275481 0.252955
0.000000 0.383274 0.238378
0.110843 0.375926 0.235714
0.235094 0.369276 0.235244
0.365028 0.365332 0.232145
0.536362 0.363368 0.236083
0.717721 0.366944 0.243319
0.866971 0.371698 0.247774
1.014866 0.377248 0.251219
1.148373 0.388362 0.256847
0.000000 0.551691 0.210373
0.057723 0.548991 0.211421
0.208746 0.543743 0.213752
0.349425 0.540238 0.211978
0.533926 0.535583 0.204587
0.731846 0.529235 0.207815
0.883205 0.526830 0.220688
1.028593 0.528140 0.231345
1.135933 0.536914 0.246904
0.000000 0.742755 0.177516
0.000000 0.742149 0.178691
0.155220 0.737752 0.180764
0.315709 0.733194 0.179041
0.508472 0.726719 0.171408
0.712408 0.717456 0.160909
0.877055 0.708265 0.153643
1.032994 0.702519 0.170418
1.120563 0.702281 0.198926
0.000000 0.899380 0.144611
0.000000 0.899027 0.144895
0.075548 0.896054 0.145887
0.275257 0.888635 0.143360
0.479217 0.879806 0.135818
0.686484 0.869367 0.125803
0.852465 0.860257 0.116645
1.015995 0.852985 0.107759
1.108533 0.847180 0.134845
0.000000 1.054699 0.105796
0.000000 1.054540 0.104732
0.007721 1.053842 0.103806
0.226343 1.044211 0.100048
0.448808 1.033080 0.091918
0.662654 1.021541 0.081386
0.831294 1.012507 0.072370
0.995648 1.005612 0.061591
1.103067 0.998905 0.047276
0.000000 1.144545 0.040445
0.000000 1.144575 0.038514
0.000000 1.144623 0.035433
0.135959 1.138857 0.032910
0.405511 1.126182 0.030362
0.633017 1.115319 0.027398
0.806955 1.107954 0.025213
0.973441 1.103339 0.021577
1.103366 1.103366 0.019075
0.000000 0.000000 0.494644
0.138615 0.000000 0.475185
0.279177 0.000000 0.450029
0.426638 0.000000 0.429409
0.614027 0.000000 0.402185
0.811333 0.000000 0.377662
0.967364 0.000000 0.363020
1.121565 0.000000 0.356732
1.178806 0.000000 0.354214
0.000000 0.138658 0.447583
0.128207 0.132905 0.430227
0.257550 0.126750 0.410924
0.397576 0.116084 0.398483
0.588658 0.090394 0.385177
0.786406 0.064099 0.370090
0.937613 0.061789 0.360971
1.089564 0.064142 0.357693
1.169414 0.078202 0.357848
0.000000 0.255512 0.404293
0.123588 0.248460 0.392097
0.242793 0.242708 0.381132
0.373778 0.237370 0.373707
0.556203 0.227680 0.367961
0.746394 0.224305 0.361744
0.900374 0.225215 0.359413
1.051959 0.229036 0.359388
1.156902 0.239801 0.362432
0.000000 0.378894 0.379032
0.115939 0.372298 0.372091
0.236620 0.367033 0.366810
0.363695 0.364258 0.364437
0.531617 0.364312 0.364688
0.715749 0.367099 0.366067
0.866933 0.370653 0.367580
1.015389 0.375436 0.369499
1.146806 0.386060 0.374506
0.000000 0.549000 0.354821
0.063534 0.546420 0.354307
0.212942 0.541722 0.353861
0.355707 0.537293 0.355888
0.533783 0.533869 0.352238
0.721873 0.530884 0.357383
0.868117 0.531348 0.363780
1.010022 0.534539 0.369625
1.132869 0.543599 0.377352
0.000000 0.740897 0.327470
0.000000 0.740250 0.328210
0.162145 0.735651 0.328501
0.325263 0.729719 0.330932
0.514145 0.722944 0.327238
0.712609 0.714678 0.317310
0.872987 0.706703 0.313724
1.023184 0.703013 0.327989
1.117443 0.705637 0.346754
0.000000 0.897212 0.302205
0.000000 0.896809 0.302480
0.085516 0.893302 0.302609
0.285410 0.884738 0.303350
0.486355 0.875473 0.299571
0.688897 0.865835 0.289942
0.852762 0.857482 0.281295
1.014903 0.850838 0.274513
1.106151 0.846831 0.299352
0.000000 1.051929 0.276702
0.000000 1.051708 0.276304
0.018219 1.050462 0.275901
0.235275 1.040054 0.274532
0.454668 1.028643 0.270301
0.664817 1.017954 0.261646
0.832081 1.009774 0.254130
0.996007 1.003524 0.246991
1.101198 0.996659 0.238376
0.000000 1.141356 0.241324
0.000000 1.141386 0.239504
0.000000 1.141432 0.236702
0.137479 1.135333 0.232287
0.404598 1.122573 0.226352
0.630928 1.112143 0.219460
0.804751 1.105426 0.213782
0.971725 1.101460 0.208794
1.101509 1.101509 0.203342
0.000000 0.000000 0.733988
0.112825 0.000000 0.713130
0.265544 0.000000 0.679218
0.414887 0.000000 0.642618
0.603660 0.000000 0.608049
0.803838 0.000000 0.579163
0.968105 0.000000 0.561191
1.130942 0.000000 0.550443
1.173743 0.000000 0.538518
0.000000 0.132016 0.678622
0.102744 0.125983 0.658966
0.247662 0.117153 0.631449
0.392403 0.107145 0.604762
0.584483 0.078476 0.587480
0.793507 0.043490 0.570653
0.965357 0.000000 0.558234
1.129026 0.000000 0.547897
1.173751 0.000000 0.538192
0.000000 0.250889 0.619193
0.097798 0.245041 0.604835
0.233347 0.237847 0.587069
0.373246 0.231405 0.570542
0.560159 0.219859 0.561281
0.771608 0.197405 0.554029
0.942909 0.175725 0.544962
1.097753 0.172336 0.536795
1.158799 0.178138 0.531254
0.000000 0.375011 0.570117
0.101776 0.370419 0.562284
0.227472 0.365946 0.554123
0.362423 0.362419 0.546515
0.541919 0.358229 0.541924
0.748388 0.346728 0.539451
0.905626 0.343307 0.532948
1.058009 0.343108 0.529513
1.147419 0.347777 0.529116
0.000000 0.545286 0.546048
0.078114 0.542747 0.543266
0.219467 0.538879 0.539043
0.359020 0.535126 0.535141
0.532114 0.532661 0.532864
0.711738 0.532915 0.532774
0.858642 0.533532 0.532550
1.003197 0.535440 0.533107
1.129867 0.543055 0.537733
0.000000 0.738070 0.524589
0.002539 0.737300 0.524557
0.170551 0.732422 0.522359
0.330174 0.726337 0.520834
0.521629 0.717717 0.521699
0.710900 0.711210 0.515766
0.861945 0.706308 0.516472
1.004552 0.705846 0.523214
1.113450 0.712121 0.533549
0.000000 0.894008 0.501440
0.000000 0.893510 0.501614
0.102812 0.889156 0.500253
0.291553 0.880596 0.498093
0.496613 0.869441 0.499099
0.693824 0.860466 0.493623
0.852663 0.853841 0.485139
1.009500 0.849030 0.483546
1.103417 0.848820 0.503290
0.000000 1.048263 0.478986
0.000000 1.047942 0.478840
0.024107 1.046256 0.478430
0.242627 1.035342 0.474937
0.465046 1.022555 0.474459
0.672545 1.012194 0.470048
0.835758 1.005732 0.462106
0.997398 1.000900 0.454715
1.099579 0.995315 0.454591
0.000000 1.137832 0.451206
0.000000 1.137848 0.450306
0.000000 1.137871 0.448962
0.146016 1.131101 0.444922
0.411204 1.118322 0.440005
0.636418 1.108514 0.434915
0.807562 1.102790 0.427670
0.973456 1.099792 0.421077
1.099847 1.099847 0.412825
0.000000 0.000000 0.974189
0.068996 0.000000 0.959072
0.241116 0.000000 0.917895
0.397664 0.000000 0.877101
0.590400 0.000000 0.832862
0.794615 0.000000 0.800969
0.961415 0.000000 0.781134
1.124752 0.000000 0.768497
1.169101 0.000000 0.753202
0.000000 0.122464 0.917216
0.058484 0.117215 0.904322
0.225566 0.106597 0.870089
0.381127 0.092554 0.841324
0.577212 0.064435 0.812679
0.788356 0.025499 0.793735
0.959461 0.000000 0.778510
1.124307 0.000000 0.766753
1.169124 0.000000 0.752027
0.000000 0.243643 0.854719
0.050489 0.239844 0.845311
0.211691 0.231348 0.822117
0.364594 0.222983 0.803170
0.557687 0.212195 0.781859
0.769522 0.189892 0.773157
0.943520 0.164839 0.764089
1.112143 0.135567 0.756010
1.161983 0.090731 0.744510
0.000000 0.371551 0.800107
0.048555 0.369071 0.794679
0.203789 0.363561 0.782657
0.353609 0.358578 0.771713
0.543680 0.352500 0.757364
0.750303 0.340630 0.751670
0.923612 0.324248 0.746679
1.094008 0.306482 0.740643
1.148463 0.294769 0.729561
0.000000 0.542758 0.752733
0.064689 0.541166 0.749983
0.207356 0.538173 0.744841
0.348702 0.535010 0.738913
0.530772 0.530863 0.730205
0.724075 0.525375 0.723858
0.888892 0.515775 0.721027
1.047251 0.509994 0.715923
1.129736 0.510534 0.711986
0.000000 0.734362 0.735502
0.010235 0.733442 0.734229
0.181194 0.728256 0.728617
0.336441 0.722262 0.722114
0.523632 0.714420 0.714098
0.708394 0.708740 0.708945
0.853022 0.706291 0.706983
0.995596 0.706353 0.706642
1.110535 0.711355 0.710287
0.000000 0.889838 0.715293
0.000000 0.889281 0.715018
0.114737 0.884246 0.711437
0.297849 0.875655 0.705722
0.500050 0.864908 0.700444
0.699006 0.855051 0.699027
0.850519 0.850703 0.694885
0.997420 0.849351 0.697636
1.101089 0.853744 0.707644
0.000000 1.043764 0.693851
0.000000 1.043338 0.693691
0.028617 1.041284 0.692733
0.249339 1.029990 0.686436
0.469482 1.017556 0.681947
0.681727 1.006032 0.682714
0.841464 1.000896 0.679900
0.997727 0.998322 0.674086
1.098506 0.996166 0.680873
0.000000 1.134021 0.667654
0.000000 1.134029 0.667203
0.000000 1.134040 0.666576
0.152543 1.126780 0.661702
0.415888 1.114298 0.654832
0.645831 1.105141 0.653648
0.817632 1.100473 0.651946
0.979448 1.098633 0.645293
1.098669 1.098669 0.636059
0.000000 0.000000 1.152054
0.048963 0.000000 1.141933
0.221006 0.000000 1.098528
0.380649 0.000000 1.059275
0.578218 0.000000 1.017024
0.785996 0.000000 0.983282
0.954688 0.000000 0.962091
1.119022 0.000000 0.947810
1.165986 0.000000 0.929884
0.000000 0.115198 1.097229
0.021006 0.110799 1.094151
0.204978 0.099550 1.055224
0.367059 0.080877 1.029342
0.568786 0.054513 1.001049
0.782582 0.007931 0.978642
0.953388 0.000000 0.960290
1.119025 0.000000 0.947012
1.165987 0.000000 0.929793
0.000000 0.237377 1.039189
0.000540 0.235400 1.038456
0.188615 0.226032 1.010937
0.351358 0.216708 0.992825
0.553047 0.202891 0.972912
0.765738 0.182727 0.956059
0.940051 0.157651 0.945723
1.108898 0.128779 0.936711
1.160468 0.077558 0.924083
0.000000 0.367643 0.990111
0.000000 0.366502 0.988467
0.176812 0.360451 0.974642
0.340044 0.354613 0.963065
0.540369 0.346195 0.947399
0.748758 0.335338 0.931112
0.921569 0.318828 0.925138
1.092079 0.300426 0.919254
1.147584 0.271694 0.909322
0.000000 0.542601 0.941212
0.000000 0.542008 0.939755
0.172593 0.538199 0.932474
0.331113 0.534081 0.924214
0.525419 0.527835 0.911233
0.725061 0.520895 0.895180
0.889827 0.510777 0.890575
1.059269 0.498152 0.888657
1.129428 0.480404 0.883121
0.000000 0.731177 0.903668
0.018830 0.730155 0.901476
0.185883 0.725220 0.894104
0.334858 0.719945 0.885852
0.517593 0.713200 0.875381
0.706901 0.706686 0.864453
0.859124 0.701641 0.858964
1.017092 0.695524 0.858143
1.109642 0.693972 0.855588
0.000000 0.885920 0.887743
0.000000 0.885328 0.886872
0.126442 0.879726 0.880808
0.304379 0.871327 0.871833
0.503848 0.861166 0.861033
0.700227 0.852617 0.852355
0.848909 0.849418 0.849603
0.992061 0.849833 0.850394
1.099955 0.853901 0.853843
0.000000 1.039595 0.868527
0.000000 1.039097 0.868170
0.032551 1.036751 0.866334
0.254760 1.025323 0.857348
0.473265 1.013410 0.849229
0.684240 1.003070 0.844961
0.846041 0.997794 0.846054
0.996763 0.997098 0.845067
1.098120 0.998891 0.852482
0.000000 1.130821 0.843785
0.000000 1.130826 0.843486
0.000000 1.130835 0.843038
0.156254 1.123338 0.836976
0.419299 1.111245 0.827999
0.648932 1.103020 0.824252
0.824940 1.099201 0.826438
0.986500 1.098155 0.825974
1.098167 1.098167 0.817969
0.000000 0.000000 1.315785
0.041154 0.000000 1.307807
0.210862 0.000000 1.261780
0.369280 0.000000 1.222400
0.567850 0.000000 1.183277
0.778936 0.000000 1.152790
0.948739 0.000000 1.132347
1.114442 0.000000 1.119643
1.164951 0.000000 1.103781
0.000000 0.112094 1.259730
0.001677 0.108214 1.263387
0.191627 0.096824 1.219566
0.355584 0.076025 1.194933
0.559710 0.048760 1.170529
0.776713 0.001788 1.150770
0.947986 0.000000 1.131864
1.114844 0.000000 1.119928
1.164951 0.000000 1.105062
0.000000 0.233889 1.203364
0.000000 0.231911 1.204348
0.168990 0.222918 1.177900
0.338089 0.212814 1.160326
0.544685 0.196800 1.144797
0.761302 0.174832 1.129184
0.936246 0.150327 1.118484
1.106022 0.122178 1.110680
1.159988 0.071680 1.100603
0.000000 0.364876 1.161170
0.000000 0.363633 1.160609
0.147822 0.357941 1.148511
0.324172 0.351296 1.137602
0.532515 0.341242 1.124887
0.747064 0.328262 1.109197
0.919282 0.313483 1.099015
1.090179 0.295334 1.093794
1.146831 0.267865 1.085862
0.000000 0.541725 1.122283
0.000000 0.540982 1.121263
0.130264 0.537602 1.115214
0.310435 0.532617 1.106510
0.516524 0.524914 1.093539
0.725265 0.515253 1.076950
0.889606 0.506622 1.062884
1.058784 0.493877 1.061385
1.128560 0.473420 1.057752
0.000000 0.731626 1.082647
0.000000 0.731202 1.081675
0.135691 0.727116 1.075065
0.306144 0.721192 1.065294
0.503316 0.713072 1.051157
0.703628 0.704347 1.034930
0.861089 0.698227 1.022108
1.020312 0.691655 1.020424
1.109458 0.678283 1.022295
0.000000 0.882870 1.053448
0.000000 0.882288 1.051958
0.140392 0.876214 1.043239
0.310221 0.868396 1.031778
0.502173 0.859645 1.018901
0.695416 0.852385 1.007709
0.848674 0.848546 1.000803
0.999451 0.846739 0.999259
1.099784 0.842608 1.000833
0.000000 1.036302 1.038654
0.000000 1.035749 1.037858
0.041056 1.032940 1.034570
0.262154 1.021592 1.022599
0.478633 1.010179 1.010366
0.687831 1.000905 1.000524
0.847972 0.996881 0.996584
0.996314 0.997082 0.997263
1.098066 1.000240 1.000844
0.000000 1.128599 1.016871
0.000000 1.128599 1.016556
0.000000 1.128599 1.016016
0.159728 1.120938 1.008290
0.422921 1.109205 0.996728
0.652541 1.101723 0.989969
0.828115 1.098646 0.988995
0.992656 1.098066 0.992584
1.098066 1.098066 0.990314
0.000000 0.000000 1.352490
0.082774 0.000000 1.327489
0.222234 0.000000 1.284307
0.364694 0.000000 1.243873
0.554185 0.000000 1.203464
0.764656 0.000000 1.178407
0.938348 0.000000 1.167496
1.106870 0.000000 1.164951
1.164951 0.000000 1.164951
0.000000 0.117041 1.282085
0.042765 0.112676 1.271907
0.196851 0.102694 1.235624
0.347454 0.086748 1.210313
0.545620 0.052888 1.190526
0.763143 0.002348 1.178094
0.938148 0.000000 1.167506
1.107881 0.000000 1.164951
1.164951 0.000000 1.164951
0.000000 0.232446 1.222426
0.000000 0.230661 1.223186
0.163095 0.222099 1.196974
0.326749 0.212179 1.180406
0.530674 0.195362 1.168766
0.749734 0.168980 1.161724
0.927942 0.140341 1.157484
1.100567 0.113474 1.157218
1.160178 0.068881 1.160178
0.000000 0.361422 1.183614
0.000000 0.360227 1.183853
0.120131 0.355073 1.174629
0.305388 0.347988 1.165346
0.517785 0.337017 1.158288
0.737912 0.321061 1.151966
0.913758 0.305040 1.146546
1.086299 0.288114 1.145255
1.147179 0.263299 1.147179
0.000000 0.539026 1.162503
0.000000 0.538214 1.162562
0.055018 0.535856 1.160799
0.279372 0.529839 1.153643
0.499316 0.521078 1.146218
0.718093 0.509058 1.137442
0.889654 0.497894 1.129927
1.057308 0.487825 1.127147
1.129097 0.467933 1.129097
0.000000 0.731911 1.149501
0.000000 0.731362 1.149542
0.038619 0.729475 1.148186
0.259508 0.722078 1.139315
0.480052 0.712400 1.129312
0.694571 0.701337 1.119312
0.861993 0.692400 1.112020
1.023706 0.686196 1.108823
1.109842 0.673540 1.109842
0.000000 0.883932 1.136554
0.000000 0.883560 1.136590
0.040103 0.881431 1.134801
0.255957 0.872313 1.124639
0.470568 0.862359 1.114714
0.680350 0.852860 1.106434
0.845214 0.846496 1.101628
1.004015 0.842773 1.099767
1.100002 0.836154 1.100002
0.000000 1.033087 1.128599
0.000000 1.032645 1.128599
0.051904 1.029700 1.126102
0.266690 1.019318 1.115932
0.474888 1.009397 1.107213
0.678746 1.001785 1.101096
0.840496 0.997888 1.098526
0.996589 0.996412 1.098066
1.098066 0.994532 1.098066
0.000000 1.128599 1.128599
0.000000 1.128599 1.128599
0.000000 1.128599 1.128599
0.169263 1.120484 1.120484
0.431119 1.108881 1.108881
0.659991 1.101541 1.101541
0.834278 1.098587 1.098587
0.996999 1.098066 1.098066
1.098066 1.098066 1.098066
