luts/gray_to_blue.cube
LUT_3D_SIZE 9
-0.000032 0.000565 0.000826
0.018067 -0.011617 0.002376
0.064143 -0.035044 -0.029479
0.124408 -0.057400 -0.053603
0.193152 -0.079238 -0.076025
0.266666 -0.100140 -0.097132
0.342472 -0.119970 -0.116911
0.424187 -0.139987 -0.136917
0.521850 -0.162582 -0.159439
0.006215 0.040745 0.008550
0.039184 0.048467 0.017634
0.090750 0.051125 0.005583
0.153968 0.049827 -0.058742
0.224848 0.039937 -0.089098
0.304793 0.027216 -0.112664
0.385640 0.014570 -0.133474
0.472494 -0.005907 -0.154272
0.575771 -0.079036 -0.177772
0.030589 0.102073 0.015728
0.075538 0.112090 0.023384
0.119248 0.122959 0.048969
0.189124 0.123038 0.006654
0.267154 0.120212 -0.064219
0.339239 0.122295 -0.106219
0.414223 0.125903 -0.132950
0.500338 0.129952 -0.157591
0.609580 0.131506 -0.185375
0.062766 0.175415 0.018458
0.115664 0.187362 0.022605
0.174042 0.197631 0.076999
0.219692 0.211397 0.062107
0.304845 0.206309 0.015706
0.395280 0.201481 -0.040063
0.467879 0.209651 -0.105668
0.554924 0.219065 -0.144184
0.652885 0.234358 -0.175173
0.102152 0.255978 0.023628
0.160656 0.268858 0.028147
0.230362 0.278411 0.090870
0.278990 0.294301 0.123139
0.334460 0.306609 0.069753
0.426743 0.301744 0.028813
0.529760 0.296668 -0.017964
0.622248 0.306587 -0.101775
0.707658 0.333178 -0.134437
0.147054 0.343463 0.030794
0.210013 0.357199 0.035722
0.283234 0.369045 0.069935
0.353212 0.379382 0.163859
0.393055 0.401124 0.149494
0.459096 0.411241 0.075816
0.554894 0.411018 0.034995
0.662615 0.416236 0.034718
0.786387 0.425915 -0.056225
0.197267 0.440227 0.037706
0.264620 0.454667 0.043034
0.339765 0.468558 0.048415
0.427573 0.474753 0.200795
0.479706 0.495886 0.195506
0.520148 0.518988 0.173977
0.590552 0.529219 0.089288
0.683353 0.543503 0.044308
0.794879 0.567449 0.037843
0.255024 0.551574 0.044011
0.327374 0.566667 0.049708
0.407023 0.581313 0.055141
0.504221 0.586946 0.217479
0.573296 0.604570 0.251853
0.611691 0.630943 0.244530
0.652618 0.656765 0.227647
0.714015 0.674761 0.162064
0.822534 0.704784 0.064733
0.323126 0.682355 0.048621
0.401278 0.698299 0.054723
0.482751 0.714567 0.061103
0.568898 0.728574 0.137340
0.656060 0.737653 0.318491
0.712836 0.762368 0.326710
0.753549 0.791246 0.322491
0.802985 0.819521 0.300867
0.870739 0.838466 0.223819
-0.000182 0.001794 0.024055
0.018097 0.002511 0.033381
0.062422 -0.015954 0.036626
0.125636 -0.056417 0.036511
0.195876 -0.081537 0.026823
0.270294 -0.103061 0.015241
0.347403 -0.123205 0.000980
0.430608 -0.143506 -0.059296
0.529706 -0.166376 -0.095746
0.003382 0.046551 0.037984
0.033064 0.054574 0.049070
0.095702 0.053332 0.049714
0.174444 0.030892 0.024431
0.253030 -0.018040 -0.045591
0.331441 -0.074502 -0.084947
0.411759 -0.108843 -0.116753
0.498453 -0.135787 -0.141930
0.600336 -0.162890 -0.168029
0.016790 0.110971 0.052097
0.054074 0.123108 0.047504
0.120343 0.130957 0.064501
0.200266 0.124612 0.038248
0.276726 0.118566 -0.002472
0.354341 0.114110 -0.090669
0.440285 0.106550 -0.128420
0.534975 0.098076 -0.157302
0.644678 0.077537 -0.186053
0.025886 0.188046 0.049237
0.083721 0.201209 0.031439
0.163883 0.210137 0.059306
0.227862 0.220938 0.075494
0.316808 0.209619 0.044420
0.399334 0.204752 0.016197
0.475582 0.208847 -0.079732
0.563784 0.215146 -0.136376
0.663395 0.226763 -0.172062
0.050847 0.271373 0.033777
0.131169 0.284156 0.037255
0.209596 0.295324 0.044535
0.284608 0.305253 0.133408
0.343844 0.316537 0.084396
0.441619 0.304655 0.052515
0.536341 0.299400 0.041798
0.622250 0.310202 -0.037372
0.713047 0.331095 -0.117427
0.104516 0.359718 0.040708
0.182022 0.373566 0.046536
0.260694 0.385803 0.051890
0.350627 0.393048 0.158689
0.403855 0.413124 0.160667
0.468510 0.421264 0.091144
0.568098 0.415072 0.057538
0.679248 0.413744 0.056916
0.793174 0.423737 -0.014136
0.157933 0.457084 0.048530
0.236594 0.471820 0.055390
0.317560 0.484904 0.062022
0.414452 0.491785 0.169189
0.488933 0.507605 0.208528
0.531298 0.531050 0.185822
0.599061 0.539173 0.104436
0.693530 0.549096 0.062783
0.808635 0.567524 0.059584
0.216317 0.568945 0.055802
0.297838 0.584026 0.063477
0.383088 0.597872 0.071413
0.482961 0.606988 0.156333
0.573160 0.617196 0.272122
0.622639 0.642339 0.256477
0.661332 0.668945 0.243738
0.721138 0.686043 0.178910
0.830692 0.711495 0.077129
0.283233 0.700107 0.061578
0.369101 0.715148 0.069826
0.457451 0.730758 0.079553
0.543438 0.747483 0.092345
0.643199 0.754908 0.280650
0.716504 0.773483 0.344417
0.763950 0.801488 0.334008
0.811056 0.830365 0.315776
0.877357 0.849084 0.240449
-0.000342 0.003365 0.058165
0.018218 0.003077 0.071124
0.063520 0.003956 0.076384
0.120280 -0.007899 0.079682
0.192387 -0.067762 0.082717
0.269895 -0.099252 0.082671
0.349021 -0.123005 0.081508
0.434245 -0.145126 0.080903
0.534941 -0.169112 0.078994
0.002136 0.050479 0.075146
0.027072 0.056466 0.096080
0.090564 0.050968 0.106659
0.169896 0.036401 0.102251
0.254422 -0.027650 0.093073
0.336553 -0.093151 0.083277
0.418772 -0.123774 0.072904
0.507566 -0.149656 0.048838
0.610664 -0.176365 0.029457
0.012177 0.117995 0.094297
0.037137 0.131469 0.105898
0.093039 0.135618 0.104186
0.208302 0.118763 0.096707
0.301217 0.097804 0.069935
0.390386 0.073384 0.037482
0.478187 0.039239 -0.015503
0.571592 0.007225 -0.091117
0.678225 -0.079623 -0.146677
0.020734 0.196382 0.108545
0.034916 0.212485 0.090071
0.105507 0.222155 0.042119
0.228045 0.226779 0.091681
0.326944 0.210392 0.086855
0.409710 0.203218 0.066026
0.494658 0.198272 0.012892
0.589526 0.194143 -0.106647
0.700681 0.187826 -0.165144
0.032307 0.281696 0.109558
0.060526 0.298127 0.063510
0.166163 0.308765 0.051249
0.274617 0.316047 0.117404
0.352010 0.323455 0.103076
0.453879 0.306600 0.092452
0.543634 0.301164 0.081580
0.627628 0.309963 0.033783
0.723803 0.323625 -0.062506
0.048789 0.373848 0.094030
0.121211 0.389134 0.059981
0.224380 0.400809 0.066005
0.331004 0.407692 0.135170
0.411273 0.422864 0.175153
0.477400 0.429295 0.110449
0.582771 0.417230 0.096221
0.692618 0.411777 0.094480
0.788729 0.428935 0.072851
0.081237 0.474317 0.071021
0.185607 0.488225 0.069865
0.283867 0.500905 0.079440
0.386037 0.511134 0.114996
0.489897 0.518362 0.230309
0.543147 0.541508 0.198283
0.607329 0.547791 0.124588
0.704693 0.553256 0.092290
0.825191 0.564145 0.095613
0.149058 0.587029 0.071482
0.250832 0.601165 0.080551
0.348971 0.614366 0.091787
0.449999 0.627052 0.108390
0.562639 0.631091 0.275082
0.629813 0.652801 0.277861
0.669796 0.679899 0.263610
0.728048 0.697039 0.201266
0.838890 0.717332 0.097892
0.222585 0.718614 0.079547
0.322690 0.733196 0.090126
0.421160 0.746698 0.102766
0.515456 0.762812 0.118181
0.616817 0.775175 0.205453
0.713422 0.784540 0.367656
0.772490 0.811181 0.354196
0.819022 0.840077 0.335463
0.883705 0.859661 0.263577
-0.000500 0.005134 0.099111
0.017831 0.003515 0.114450
0.064475 0.004164 0.121957
0.122106 0.004759 0.126791
0.186184 -0.006088 0.130638
0.261618 -0.068382 0.136588
0.343914 -0.107772 0.142229
0.431994 -0.136754 0.148061
0.535071 -0.164847 0.154194
0.001776 0.053678 0.119062
0.021336 0.056282 0.146722
0.081245 0.041041 0.164337
0.165432 0.035584 0.167155
0.241372 0.027701 0.161578
0.325190 -0.035397 0.159898
0.412520 -0.106130 0.158487
0.505236 -0.142075 0.157934
0.611961 -0.174002 0.157654
0.008555 0.122312 0.140350
0.026635 0.132997 0.164707
0.053466 0.116706 0.189721
0.193513 0.067717 0.191800
0.300266 0.080345 0.168804
0.396397 0.059355 0.155620
0.488313 0.013175 0.142686
0.584411 -0.089961 0.129930
0.693895 -0.155645 0.113795
0.017701 0.204019 0.162067
0.030390 0.221049 0.173901
0.038467 0.231527 0.162540
0.175586 0.220942 0.135161
0.334186 0.201940 0.165047
0.432974 0.182581 0.135089
0.530462 0.162273 0.108244
0.633501 0.138352 0.071409
0.746644 0.087785 -0.011413
0.029540 0.290606 0.176263
0.044326 0.308553 0.167151
0.077466 0.321392 0.115567
0.216861 0.327393 0.095462
0.354935 0.326524 0.140183
0.460641 0.308907 0.159630
0.549073 0.302003 0.134923
0.643933 0.298549 0.098255
0.747884 0.298506 0.031471
0.043107 0.383807 0.180564
0.063200 0.402352 0.144609
0.140206 0.415589 0.093423
0.279471 0.424449 0.100868
0.407403 0.430346 0.196195
0.485222 0.433901 0.141989
0.595550 0.417583 0.159341
0.693552 0.416385 0.152664
0.790925 0.428072 0.122588
0.059038 0.486073 0.172470
0.101490 0.504572 0.118764
0.217233 0.517137 0.103346
0.341736 0.527452 0.118426
0.469872 0.532003 0.222983
0.553345 0.548596 0.219536
0.614806 0.554448 0.156636
0.716655 0.555709 0.144501
0.845585 0.554808 0.157517
0.080068 0.602739 0.148777
0.165815 0.619552 0.108165
0.292141 0.631548 0.119819
0.409455 0.642678 0.136891
0.530747 0.649931 0.227358
0.627787 0.662375 0.315750
0.678453 0.689466 0.292920
0.733784 0.707668 0.235730
0.847514 0.721467 0.134682
0.125102 0.737537 0.123218
0.248490 0.752235 0.119925
0.368951 0.764722 0.136104
0.475159 0.777656 0.154977
0.579748 0.793438 0.182044
0.696158 0.799830 0.350745
0.776105 0.820105 0.391035
0.827684 0.849140 0.366212
0.889705 0.870206 0.299082
-0.000661 0.007040 0.146854
0.017199 0.003802 0.163776
0.064433 0.004129 0.173425
0.123207 0.004763 0.179480
0.188702 0.005418 0.185245
0.256484 -0.001595 0.190760
0.332234 -0.044353 0.200116
0.421027 -0.104185 0.213136
0.527001 -0.144016 0.227216
0.001662 0.056722 0.169259
0.016974 0.056638 0.200722
0.072540 0.035947 0.224228
0.158288 0.031708 0.229090
0.239724 0.030897 0.229806
0.314132 0.031225 0.227527
0.396030 -0.014576 0.231314
0.491221 -0.100790 0.239301
0.602174 -0.151295 0.248096
0.006396 0.125328 0.192754
0.021918 0.131405 0.221906
0.047599 0.107271 0.254995
0.160797 0.057844 0.271647
0.286504 0.065013 0.264785
0.374772 0.074694 0.252175
0.468497 0.055149 0.248552
0.570368 -0.009052 0.247306
0.685903 -0.136810 0.246135
0.014721 0.208365 0.217121
0.028807 0.222589 0.242422
0.043771 0.225512 0.268312
0.101799 0.172417 0.292942
0.319479 0.146553 0.275747
0.434575 0.156049 0.250673
0.539749 0.137402 0.235847
0.646604 0.109167 0.221204
0.763250 0.045376 0.205351
0.026189 0.299108 0.238953
0.041170 0.317643 0.252410
0.058604 0.332307 0.254302
0.109644 0.339353 0.222779
0.319426 0.319014 0.218057
0.462819 0.303654 0.253492
0.567493 0.284326 0.222286
0.676957 0.262030 0.191593
0.794051 0.235832 0.157670
0.039195 0.393593 0.253879
0.058195 0.412773 0.251243
0.087315 0.428428 0.222687
0.177067 0.438311 0.167876
0.359905 0.441041 0.202224
0.489214 0.433433 0.208647
0.596198 0.422508 0.252220
0.692660 0.418940 0.230157
0.791611 0.422980 0.190880
0.053700 0.496835 0.261900
0.079683 0.516462 0.241010
0.128168 0.532831 0.187155
0.260092 0.543047 0.165958
0.417458 0.548674 0.212751
0.551465 0.553225 0.275647
0.620979 0.557993 0.214849
0.727718 0.557678 0.239002
0.855769 0.550082 0.249293
0.071078 0.614486 0.262234
0.108374 0.634311 0.221246
0.196033 0.649774 0.174213
0.343828 0.659763 0.184466
0.478661 0.669152 0.210945
0.606654 0.674193 0.341073
0.684275 0.696519 0.344071
0.738270 0.717413 0.291540
0.855981 0.723822 0.202421
0.093811 0.751078 0.253054
0.154322 0.770871 0.196773
0.285448 0.784394 0.185674
0.419743 0.795517 0.208108
0.534062 0.807811 0.233379
0.655375 0.820073 0.300087
0.768889 0.828747 0.446705
0.836518 0.856691 0.416686
0.894776 0.880788 0.357036
-0.000827 0.009091 0.200626
0.016544 0.004303 0.219214
0.064352 0.004463 0.230810
0.124336 0.005119 0.238281
0.190666 0.005897 0.244853
0.260156 0.006847 0.252226
0.330662 0.007921 0.261099
0.409797 -0.022631 0.275357
0.511559 -0.089275 0.296256
0.001754 0.060041 0.225605
0.015760 0.058724 0.259223
0.068498 0.037633 0.287159
0.152923 0.033774 0.293871
0.235761 0.031856 0.297239
0.315552 0.031882 0.300183
0.390556 0.033148 0.302785
0.475258 0.019948 0.312929
0.583212 -0.067791 0.329655
0.005821 0.129004 0.251226
0.021777 0.132535 0.283397
0.051942 0.109914 0.321462
0.146754 0.069017 0.342081
0.270378 0.063495 0.346156
0.369965 0.067321 0.342908
0.452130 0.074448 0.336797
0.545594 0.063342 0.341366
0.661849 -0.025007 0.351441
0.012925 0.211054 0.276714
0.029043 0.220306 0.306784
0.051915 0.214963 0.339845
0.101724 0.158729 0.372906
0.275415 0.107712 0.385741
0.416718 0.126019 0.370301
0.511654 0.140562 0.354834
0.619238 0.125883 0.352652
0.741023 0.089056 0.353450
0.022819 0.305110 0.302789
0.038343 0.321773 0.328736
0.057657 0.331652 0.354424
0.094271 0.323327 0.379710
0.237678 0.264427 0.399949
0.452032 0.254748 0.376873
0.568968 0.256014 0.353031
0.686738 0.235232 0.339338
0.807580 0.205946 0.326852
0.034961 0.403182 0.324295
0.052906 0.422807 0.339211
0.078326 0.439469 0.346717
0.127887 0.451444 0.340438
0.253357 0.454295 0.317873
0.467937 0.433507 0.350851
0.592224 0.422903 0.363432
0.701964 0.407070 0.332852
0.820188 0.386041 0.301261
0.048368 0.507424 0.341212
0.071759 0.527413 0.342751
0.109893 0.544723 0.330418
0.180654 0.557893 0.295010
0.326798 0.564442 0.274303
0.510527 0.563112 0.336131
0.623079 0.558606 0.325598
0.728860 0.559054 0.363441
0.838223 0.560317 0.351778
0.063504 0.625952 0.355449
0.095826 0.645966 0.342826
0.151291 0.663739 0.313060
0.254016 0.677011 0.275651
0.410610 0.685168 0.283145
0.554870 0.692266 0.334903
0.674634 0.702218 0.427344
0.741276 0.724709 0.377900
0.863787 0.724182 0.317843
0.081988 0.763653 0.365238
0.128791 0.783678 0.338153
0.207881 0.801727 0.296446
0.342130 0.814285 0.286274
0.479463 0.824911 0.311353
0.604459 0.836164 0.339083
0.738413 0.844223 0.451089
0.838389 0.862983 0.499886
0.899280 0.890323 0.443228
-0.000996 0.011380 0.259779
0.015977 0.005032 0.281099
0.064843 0.004992 0.295077
0.126135 0.005623 0.304199
0.193983 0.006375 0.311502
0.264208 0.007368 0.319512
0.334771 0.008590 0.328869
0.411857 0.009920 0.343747
0.504677 0.011115 0.365426
0.001979 0.063843 0.288242
0.014766 0.061320 0.323895
0.065030 0.038275 0.356144
0.149574 0.034327 0.364815
0.233295 0.032712 0.369125
0.314905 0.032020 0.374327
0.393847 0.032489 0.380708
0.475647 0.033304 0.391094
0.572030 0.032236 0.407694
0.005642 0.133835 0.316653
0.020985 0.135301 0.351327
0.052575 0.112794 0.393183
0.139212 0.074034 0.417526
0.257572 0.069254 0.423764
0.361014 0.065759 0.427829
0.452760 0.067512 0.429371
0.539741 0.071320 0.432090
0.641463 0.066293 0.442954
0.011779 0.216162 0.344292
0.028138 0.222085 0.377055
0.054634 0.213018 0.414638
0.104649 0.160816 0.452187
0.246370 0.116987 0.469044
0.395072 0.111330 0.474460
0.506914 0.120851 0.467735
0.599969 0.132427 0.460618
0.708708 0.123263 0.467292
0.020375 0.309841 0.371524
0.036920 0.321333 0.402286
0.060116 0.323339 0.434866
0.099358 0.301964 0.468994
0.198726 0.232249 0.497236
0.405630 0.200278 0.507259
0.549572 0.220446 0.487817
0.652936 0.232993 0.473728
0.772222 0.218658 0.476923
0.031060 0.413366 0.398682
0.048157 0.432265 0.425464
0.072105 0.446076 0.451364
0.114448 0.450408 0.475920
0.204719 0.435104 0.498313
0.390409 0.388375 0.511964
0.579707 0.388801 0.492071
0.703689 0.382108 0.476496
0.829496 0.362452 0.468419
0.043086 0.518700 0.419174
0.064102 0.538773 0.434510
0.096902 0.556665 0.444733
0.154966 0.571193 0.447621
0.258174 0.579887 0.442264
0.416916 0.580567 0.437765
0.602911 0.567096 0.485010
0.712416 0.567515 0.488409
0.833098 0.555625 0.464212
0.056337 0.637394 0.440823
0.084478 0.657488 0.444138
0.131897 0.675727 0.439063
0.211951 0.690835 0.425032
0.333533 0.700683 0.407886
0.488479 0.707668 0.417471
0.630540 0.715708 0.468699
0.740271 0.728639 0.497605
0.872151 0.723214 0.498281
0.071422 0.776006 0.462902
0.111427 0.795977 0.454501
0.179488 0.814450 0.437579
0.284325 0.829915 0.417909
0.414752 0.841801 0.417561
0.552906 0.852194 0.442015
0.685998 0.862510 0.474792
0.822859 0.870604 0.596376
0.905121 0.896760 0.556655
-0.001174 0.013965 0.326880
0.015718 0.005826 0.350805
0.066400 0.005544 0.367420
0.129555 0.006164 0.379016
0.199713 0.006888 0.387945
0.271419 0.007890 0.396441
0.342841 0.009177 0.406046
0.416105 0.010632 0.417230
0.508454 0.011847 0.440429
0.002292 0.068590 0.359144
0.013761 0.064180 0.396304
0.062152 0.037695 0.433658
0.148610 0.033476 0.444666
0.234469 0.032180 0.450468
0.317590 0.031715 0.456339
0.398270 0.032088 0.464188
0.479385 0.032880 0.473296
0.575354 0.032627 0.491078
0.005790 0.140615 0.391293
0.019888 0.140034 0.428225
0.050218 0.114928 0.473217
0.133981 0.074761 0.501994
0.251915 0.070370 0.509367
0.355089 0.067209 0.514396
0.450599 0.065622 0.520699
0.542185 0.066057 0.526173
0.642563 0.065890 0.537472
0.011274 0.224883 0.422051
0.026627 0.228104 0.457097
0.053588 0.215274 0.497282
0.103533 0.163211 0.538103
0.233366 0.121149 0.558092
0.374850 0.116008 0.565858
0.495563 0.113080 0.571999
0.601244 0.117031 0.571617
0.703598 0.121656 0.575773
0.018709 0.319593 0.451564
0.034769 0.327248 0.484457
0.059437 0.323960 0.520078
0.100896 0.296955 0.558559
0.188724 0.228596 0.590815
0.364620 0.196817 0.605007
0.528074 0.194807 0.612761
0.650974 0.206501 0.603529
0.753670 0.216884 0.601408
0.028091 0.425215 0.480651
0.044897 0.438534 0.510943
0.069627 0.444799 0.542440
0.111077 0.438005 0.574929
0.189570 0.407571 0.606412
0.331178 0.347945 0.626395
0.540624 0.334983 0.636078
0.682955 0.351132 0.619602
0.790664 0.359962 0.614027
0.038848 0.538145 0.506631
0.057925 0.557940 0.532183
0.087089 0.575418 0.558314
0.136981 0.587398 0.583602
0.224439 0.588451 0.605572
0.359630 0.573995 0.622415
0.536151 0.544277 0.632764
0.701228 0.545230 0.630666
0.835694 0.539058 0.623073
0.049783 0.650172 0.524609
0.074135 0.670147 0.539193
0.114488 0.688472 0.549997
0.182448 0.704620 0.556883
0.288510 0.716868 0.561369
0.425559 0.723978 0.568000
0.565359 0.729798 0.582061
0.711864 0.735832 0.634691
0.867702 0.721569 0.652920
0.062042 0.788479 0.554041
0.095972 0.808350 0.557555
0.154153 0.826967 0.556361
0.247327 0.843244 0.552852
0.369410 0.856740 0.555612
0.500225 0.868096 0.570544
0.636145 0.878915 0.593159
0.775575 0.890328 0.628685
0.907827 0.902974 0.692100
-0.001369 0.017176 0.404771
0.015775 0.006681 0.431353
0.069455 0.006101 0.449965
0.135283 0.006725 0.463908
0.208344 0.007435 0.474641
0.282867 0.008414 0.484629
0.356472 0.009690 0.495387
0.431678 0.011107 0.506430
0.511764 0.012544 0.516503
0.002702 0.074959 0.441607
0.012759 0.067560 0.477952
0.060408 0.036200 0.518963
0.150275 0.031538 0.532886
0.239135 0.030482 0.541170
0.325018 0.030229 0.548577
0.407477 0.030808 0.557124
0.490721 0.031730 0.566297
0.578478 0.032580 0.574783
0.006129 0.150137 0.477493
0.018692 0.146902 0.514811
0.045820 0.116321 0.561397
0.130249 0.072096 0.596485
0.250741 0.067248 0.605128
0.356039 0.064416 0.611293
0.452944 0.063125 0.618312
0.548272 0.062669 0.626071
0.644432 0.062588 0.631674
0.011127 0.237859 0.511667
0.024928 0.238139 0.547544
0.049681 0.220645 0.589497
0.097462 0.163598 0.633971
0.225384 0.119201 0.657791
0.366394 0.114197 0.666946
0.486655 0.111315 0.674334
0.599956 0.110064 0.681601
0.704649 0.111161 0.685611
0.017650 0.335747 0.544226
0.032135 0.340052 0.578159
0.055453 0.331899 0.615597
0.096306 0.298830 0.656682
0.179171 0.227099 0.692318
0.344464 0.192972 0.709678
0.502551 0.190641 0.720478
0.640026 0.190756 0.729393
0.755829 0.196348 0.731426
0.025676 0.443834 0.575165
0.040998 0.452934 0.606901
0.064698 0.453243 0.640699
0.105339 0.438546 0.676581
0.178887 0.399165 0.713072
0.304070 0.332810 0.737155
0.494841 0.316523 0.751280
0.660035 0.321719 0.762566
0.792308 0.332873 0.761636
0.035466 0.562924 0.605216
0.052529 0.578103 0.634250
0.079528 0.587299 0.663909
0.125550 0.587844 0.694773
0.203822 0.576060 0.725452
0.323941 0.546893 0.750546
0.478710 0.503800 0.766488
0.661954 0.505743 0.781214
0.818049 0.517381 0.778637
0.045359 0.683737 0.628109
0.066556 0.703895 0.651506
0.102034 0.721825 0.675095
0.162064 0.737652 0.700296
0.256702 0.749342 0.726385
0.385296 0.751335 0.750003
0.523950 0.741707 0.768308
0.667877 0.727188 0.785354
0.838972 0.729273 0.792912
0.054332 0.800773 0.642640
0.082347 0.820730 0.655601
0.131510 0.839052 0.666775
0.212204 0.856066 0.677172
0.325939 0.870776 0.689199
0.453207 0.883756 0.707995
0.585233 0.896031 0.732267
0.725959 0.907709 0.761411
0.873407 0.921542 0.795295
