luts/gray_to_blue.cube
LUT_3D_SIZE 5
-0.000032 0.000565 0.000826
0.064143 -0.035044 -0.029479
0.193152 -0.079238 -0.076025
0.342472 -0.119970 -0.116911
0.521850 -0.162582 -0.159439
0.030589 0.102073 0.015728
0.119248 0.122959 0.048969
0.267154 0.120212 -0.064219
0.414223 0.125903 -0.132950
0.609580 0.131506 -0.185375
0.102152 0.255978 0.023628
0.230362 0.278411 0.090870
0.334460 0.306609 0.069753
0.529760 0.296668 -0.017964
0.707658 0.333178 -0.134437
0.197267 0.440227 0.037706
0.339765 0.468558 0.048415
0.479706 0.495886 0.195506
0.590552 0.529219 0.089288
0.794879 0.567449 0.037843
0.323126 0.682355 0.048621
0.482751 0.714567 0.061103
0.656060 0.737653 0.318491
0.753549 0.791246 0.322491
0.870739 0.838466 0.223819
-0.000342 0.003365 0.058165
0.063520 0.003956 0.076384
0.192387 -0.067762 0.082717
0.349021 -0.123005 0.081508
0.534941 -0.169112 0.078994
0.012177 0.117995 0.094297
0.093039 0.135618 0.104186
0.301217 0.097804 0.069935
0.478187 0.039239 -0.015503
0.678225 -0.079623 -0.146677
0.032307 0.281696 0.109558
0.166163 0.308765 0.051249
0.352010 0.323455 0.103076
0.543634 0.301164 0.081580
0.723803 0.323625 -0.062506
0.081237 0.474317 0.071021
0.283867 0.500905 0.079440
0.489897 0.518362 0.230309
0.607329 0.547791 0.124588
0.825191 0.564145 0.095613
0.222585 0.718614 0.079547
0.421160 0.746698 0.102766
0.616817 0.775175 0.205453
0.772490 0.811181 0.354196
0.883705 0.859661 0.263577
-0.000661 0.007040 0.146854
0.064433 0.004129 0.173425
0.188702 0.005418 0.185245
0.332234 -0.044353 0.200116
0.527001 -0.144016 0.227216
0.006396 0.125328 0.192754
0.047599 0.107271 0.254995
0.286504 0.065013 0.264785
0.468497 0.055149 0.248552
0.685903 -0.136810 0.246135
0.026189 0.299108 0.238953
0.058604 0.332307 0.254302
0.319426 0.319014 0.218057
0.567493 0.284326 0.222286
0.794051 0.235832 0.157670
0.053700 0.496835 0.261900
0.128168 0.532831 0.187155
0.417458 0.548674 0.212751
0.620979 0.557993 0.214849
0.855769 0.550082 0.249293
0.093811 0.751078 0.253054
0.285448 0.784394 0.185674
0.534062 0.807811 0.233379
0.768889 0.828747 0.446705
0.894776 0.880788 0.357036
-0.000996 0.011380 0.259779
0.064843 0.004992 0.295077
0.193983 0.006375 0.311502
0.334771 0.008590 0.328869
0.504677 0.011115 0.365426
0.005642 0.133835 0.316653
0.052575 0.112794 0.393183
0.257572 0.069254 0.423764
0.452760 0.067512 0.429371
0.641463 0.066293 0.442954
0.020375 0.309841 0.371524
0.060116 0.323339 0.434866
0.198726 0.232249 0.497236
0.549572 0.220446 0.487817
0.772222 0.218658 0.476923
0.043086 0.518700 0.419174
0.096902 0.556665 0.444733
0.258174 0.579887 0.442264
0.602911 0.567096 0.485010
0.833098 0.555625 0.464212
0.071422 0.776006 0.462902
0.179488 0.814450 0.437579
0.414752 0.841801 0.417561
0.685998 0.862510 0.474792
0.905121 0.896760 0.556655
-0.001369 0.017176 0.404771
0.069455 0.006101 0.449965
0.208344 0.007435 0.474641
0.356472 0.009690 0.495387
0.511764 0.012544 0.516503
0.006129 0.150137 0.477493
0.045820 0.116321 0.561397
0.250741 0.067248 0.605128
0.452944 0.063125 0.618312
0.644432 0.062588 0.631674
0.017650 0.335747 0.544226
0.055453 0.331899 0.615597
0.179171 0.227099 0.692318
0.502551 0.190641 0.720478
0.755829 0.196348 0.731426
0.035466 0.562924 0.605216
0.079528 0.587299 0.663909
0.203822 0.576060 0.725452
0.478710 0.503800 0.766488
0.818049 0.517381 0.778637
0.054332 0.800773 0.642640
0.131510 0.839052 0.666775
0.325939 0.870776 0.689199
0.585233 0.896031 0.732267
0.873407 0.921542 0.795295
