luts/gray_to_blue.cube
LUT_3D_SIZE 33
-0.000032 0.000565 0.000826
0.001690 0.000914 0.001754
0.003411 0.001263 0.002681
0.010339 -0.004692 0.002606
0.018067 -0.011617 0.002376
0.028071 -0.017797 -0.004869
0.038902 -0.023705 -0.014665
0.051075 -0.029434 -0.022669
0.064143 -0.035044 -0.029479
0.078079 -0.040661 -0.035912
0.093007 -0.046286 -0.041917
0.108321 -0.051877 -0.047841
0.124408 -0.057400 -0.053603
0.140713 -0.062913 -0.059339
0.157888 -0.068386 -0.064967
0.175120 -0.073853 -0.070583
0.193152 -0.079238 -0.076025
0.211184 -0.084623 -0.081468
0.229594 -0.089843 -0.086761
0.248032 -0.095052 -0.092043
0.266666 -0.100140 -0.097132
0.285350 -0.105197 -0.102173
0.304253 -0.110165 -0.107127
0.323266 -0.115088 -0.112039
0.342472 -0.119970 -0.116911
0.361846 -0.124815 -0.121747
0.381811 -0.129748 -0.126676
0.402660 -0.134809 -0.131744
0.424187 -0.139987 -0.136917
0.447573 -0.145486 -0.142379
0.471217 -0.151022 -0.147883
0.496534 -0.156802 -0.153661
0.521850 -0.162582 -0.159439
0.000335 0.008578 0.002873
0.003566 0.009533 0.003823
0.006796 0.010488 0.004774
0.013886 0.008000 0.004821
0.021570 0.004983 0.004728
0.032398 0.001826 0.000129
0.044370 -0.001382 -0.006109
0.057140 -0.004555 -0.016231
0.070443 -0.007705 -0.028943
0.084738 -0.011171 -0.038863
0.100168 -0.014998 -0.045591
0.116009 -0.019036 -0.052076
0.132670 -0.023493 -0.058076
0.149503 -0.029358 -0.064014
0.167021 -0.040855 -0.069701
0.184589 -0.052191 -0.075370
0.202838 -0.061283 -0.080796
0.221087 -0.070374 -0.086221
0.239721 -0.077084 -0.091480
0.258383 -0.083623 -0.096726
0.277329 -0.089568 -0.101836
0.296345 -0.095364 -0.106912
0.315475 -0.100833 -0.111886
0.334661 -0.106137 -0.116808
0.354065 -0.111304 -0.121695
0.373659 -0.116351 -0.126551
0.393928 -0.121457 -0.131515
0.415209 -0.126654 -0.136640
0.437104 -0.131952 -0.141864
0.460685 -0.137526 -0.147362
0.484559 -0.143140 -0.152906
0.510335 -0.149012 -0.158757
0.536112 -0.154885 -0.164608
0.000702 0.016591 0.004919
0.005442 0.018152 0.005893
0.010181 0.019713 0.006867
0.017434 0.020693 0.007035
0.025073 0.021583 0.007080
0.036726 0.021448 0.005127
0.049837 0.020940 0.002448
0.063205 0.020323 -0.009793
0.076742 0.019634 -0.028408
0.091397 0.018319 -0.041813
0.107330 0.016289 -0.049264
0.123697 0.013806 -0.056311
0.140932 0.010414 -0.062550
0.158293 0.004196 -0.068689
0.176155 -0.013323 -0.074435
0.194058 -0.030528 -0.080158
0.212524 -0.043327 -0.085566
0.230990 -0.056126 -0.090975
0.249848 -0.064324 -0.096199
0.268735 -0.072194 -0.101409
0.287991 -0.078996 -0.106540
0.307340 -0.085531 -0.111651
0.326697 -0.091500 -0.116644
0.346056 -0.097187 -0.121578
0.365658 -0.102639 -0.126480
0.385471 -0.107886 -0.131355
0.406044 -0.113167 -0.136353
0.427759 -0.118499 -0.141536
0.450022 -0.123917 -0.146812
0.473797 -0.129566 -0.152344
0.497900 -0.135258 -0.157929
0.524137 -0.141223 -0.163853
0.550373 -0.147187 -0.169778
0.003288 0.028377 0.006751
0.009566 0.030140 0.008076
0.015845 0.031902 0.009401
0.023736 0.033583 0.010771
0.031875 0.035251 0.012148
0.042616 0.036215 0.010659
0.054304 0.036922 0.008128
0.068248 0.036831 -0.000273
0.083696 0.036207 -0.012588
0.099151 0.035451 -0.025955
0.114614 0.034542 -0.040525
0.130585 0.033236 -0.052954
0.147575 0.031135 -0.061101
0.164677 0.027242 -0.068896
0.182232 0.016184 -0.075287
0.199886 0.005284 -0.081644
0.218937 -0.003386 -0.087547
0.237988 -0.012057 -0.093449
0.257431 -0.018016 -0.098957
0.276902 -0.023781 -0.104438
0.296554 -0.028928 -0.109719
0.316250 -0.033920 -0.114951
0.335999 -0.038612 -0.120050
0.355774 -0.043152 -0.125082
0.375763 -0.047601 -0.130069
0.395940 -0.051970 -0.135017
0.416836 -0.056569 -0.140075
0.438811 -0.061514 -0.145300
0.461379 -0.068553 -0.150629
0.485578 -0.081352 -0.156241
0.510090 -0.093854 -0.161903
0.536637 -0.104425 -0.167881
0.563184 -0.114996 -0.173859
0.006215 0.040745 0.008550
0.014037 0.042646 0.010277
0.021859 0.044547 0.012004
0.030461 0.046503 0.014741
0.039184 0.048467 0.017634
0.048747 0.050234 0.016273
0.058616 0.051930 0.013365
0.073134 0.052052 0.009720
0.090750 0.051125 0.005583
0.107072 0.050681 -0.007204
0.121916 0.050790 -0.029877
0.137351 0.050603 -0.048429
0.153968 0.049827 -0.058742
0.170692 0.048671 -0.068416
0.187839 0.045995 -0.075541
0.205155 0.043274 -0.082623
0.224848 0.039937 -0.089098
0.244541 0.036600 -0.095573
0.264623 0.033454 -0.101415
0.284733 0.030322 -0.107211
0.304793 0.027216 -0.112664
0.324839 0.024118 -0.118030
0.345006 0.020978 -0.123248
0.365233 0.017818 -0.128392
0.385640 0.014570 -0.133474
0.406203 0.011245 -0.138503
0.427425 0.007460 -0.143626
0.449633 0.002985 -0.148891
0.472494 -0.005907 -0.154272
0.497154 -0.026945 -0.159972
0.522103 -0.047294 -0.165716
0.548937 -0.063165 -0.171744
0.575771 -0.079036 -0.177772
0.011230 0.054861 0.010394
0.020039 0.056902 0.012388
0.028848 0.058942 0.014382
0.038243 0.061049 0.017114
0.047729 0.063166 0.019960
0.057181 0.065316 0.021830
0.066622 0.067477 0.023344
0.080026 0.068373 0.020565
0.096073 0.068427 0.014924
0.112541 0.068283 0.004089
0.129491 0.067912 -0.012680
0.146411 0.067537 -0.029417
0.163271 0.067155 -0.046088
0.180176 0.066802 -0.061303
0.197254 0.066568 -0.070697
0.214467 0.066269 -0.079953
0.233560 0.065052 -0.087288
0.252654 0.063835 -0.094623
0.271779 0.062511 -0.100810
0.290906 0.061180 -0.106915
0.310677 0.059488 -0.112765
0.330610 0.057706 -0.118552
0.350986 0.055695 -0.124168
0.371585 0.053571 -0.129698
0.392417 0.051351 -0.135110
0.413454 0.049049 -0.140418
0.435168 0.046411 -0.145799
0.457898 0.043273 -0.151288
0.481275 0.036809 -0.156880
0.506435 0.021201 -0.162753
0.531888 0.006102 -0.168668
0.559249 -0.005686 -0.174853
0.586610 -0.017474 -0.181039
0.017006 0.069612 0.012254
0.026598 0.071793 0.014466
0.036191 0.073973 0.016678
0.046409 0.076187 0.018906
0.056723 0.078405 0.021138
0.066453 0.080784 0.027365
0.075970 0.083221 0.035047
0.087648 0.085096 0.031719
0.100766 0.086596 0.021053
0.117117 0.086746 0.012670
0.137164 0.085352 0.006897
0.156305 0.084314 -0.005137
0.173632 0.083986 -0.029691
0.190921 0.083733 -0.051779
0.208055 0.083783 -0.063999
0.225249 0.083812 -0.075957
0.243292 0.083546 -0.084257
0.261335 0.083281 -0.092557
0.278922 0.083418 -0.099093
0.296476 0.083585 -0.105503
0.315706 0.083078 -0.111833
0.335355 0.082403 -0.118144
0.355865 0.081368 -0.124259
0.376806 0.080154 -0.130275
0.398067 0.078900 -0.136102
0.419609 0.077611 -0.141762
0.441876 0.076243 -0.147471
0.465233 0.074757 -0.153251
0.489207 0.072279 -0.159111
0.514881 0.067070 -0.165189
0.540862 0.061984 -0.171307
0.568837 0.057691 -0.177689
0.596812 0.053397 -0.184070
0.023543 0.085473 0.014022
0.033766 0.087796 0.016221
0.043990 0.090118 0.018420
0.054952 0.092479 0.020366
0.066028 0.094847 0.022274
0.076692 0.097226 0.031465
0.087207 0.099609 0.043304
0.097959 0.102142 0.042420
0.108870 0.104774 0.033054
0.123817 0.105719 0.025115
0.143377 0.104737 0.018808
0.162821 0.103771 0.007962
0.182032 0.102838 -0.011963
0.201107 0.102007 -0.031426
0.219640 0.101583 -0.049041
0.238046 0.101232 -0.066138
0.254673 0.101919 -0.075985
0.271300 0.102606 -0.085832
0.289023 0.103094 -0.094114
0.306825 0.103567 -0.102285
0.325788 0.103682 -0.109495
0.345041 0.103707 -0.116465
0.364864 0.103638 -0.122933
0.384972 0.103523 -0.129151
0.405538 0.103413 -0.135168
0.426505 0.103308 -0.141011
0.448346 0.103178 -0.146932
0.471500 0.103009 -0.152969
0.495365 0.102774 -0.159099
0.521183 0.102354 -0.165482
0.547346 0.101891 -0.171908
0.575748 0.101148 -0.178613
0.604150 0.100406 -0.185318
0.030589 0.102073 0.015728
0.041340 0.104539 0.017760
0.052092 0.107005 0.019791
0.063746 0.109542 0.021604
0.075538 0.112090 0.023384
0.087576 0.114317 0.034607
0.099703 0.116427 0.049264
0.110064 0.119404 0.052817
0.119248 0.122959 0.048969
0.131932 0.125034 0.040137
0.148617 0.125418 0.025609
0.167086 0.125015 0.013606
0.189124 0.123038 0.006654
0.210920 0.121176 -0.003853
0.231749 0.119772 -0.028576
0.252187 0.118572 -0.052437
0.267154 0.120212 -0.064219
0.282120 0.121852 -0.076002
0.301097 0.121948 -0.086962
0.320361 0.121934 -0.097863
0.339239 0.122295 -0.106219
0.358021 0.122749 -0.113939
0.376609 0.123640 -0.120664
0.395101 0.124750 -0.126891
0.414223 0.125903 -0.132950
0.433895 0.127096 -0.138862
0.454657 0.128181 -0.144918
0.477055 0.129106 -0.151190
0.500338 0.129952 -0.157591
0.526055 0.130580 -0.164346
0.552169 0.131148 -0.171150
0.580874 0.131327 -0.178262
0.609580 0.131506 -0.185375
0.038012 0.119392 0.016971
0.049286 0.122010 0.018786
0.060561 0.124629 0.020601
0.072816 0.127310 0.022205
0.085223 0.130000 0.023777
0.098403 0.132203 0.035659
0.111864 0.134229 0.051290
0.122532 0.137378 0.058676
0.131338 0.141274 0.060567
0.142563 0.144193 0.054075
0.156553 0.145996 0.038004
0.173324 0.146500 0.025627
0.195659 0.144408 0.020638
0.218046 0.142314 0.012263
0.240643 0.140208 -0.009658
0.262824 0.138318 -0.031006
0.279197 0.139433 -0.044346
0.295570 0.140548 -0.057686
0.314746 0.140689 -0.073352
0.334122 0.140760 -0.089184
0.352336 0.141636 -0.099207
0.370259 0.142713 -0.107777
0.388598 0.144020 -0.115584
0.407144 0.145443 -0.123010
0.426120 0.147057 -0.129916
0.445472 0.148839 -0.136368
0.465789 0.150628 -0.142835
0.487555 0.152429 -0.149327
0.510165 0.154229 -0.155912
0.535096 0.156026 -0.162757
0.560417 0.157779 -0.169642
0.588271 0.159247 -0.176793
0.616125 0.160715 -0.183945
0.045868 0.137531 0.017684
0.057657 0.140312 0.019226
0.069447 0.143094 0.020769
0.082203 0.145883 0.022078
0.095108 0.148673 0.023351
0.109165 0.150999 0.034322
0.123643 0.153156 0.048820
0.135415 0.156164 0.059348
0.145385 0.159739 0.067231
0.156069 0.163176 0.066776
0.167570 0.166456 0.056793
0.181817 0.168260 0.044936
0.201557 0.167115 0.029329
0.222101 0.165700 0.015285
0.245862 0.163211 0.007493
0.269458 0.160815 -0.000743
0.290741 0.159717 -0.015207
0.312024 0.158618 -0.029671
0.330194 0.159300 -0.052362
0.348143 0.160110 -0.075640
0.365029 0.161808 -0.087924
0.381650 0.163729 -0.097459
0.400864 0.164833 -0.107293
0.421375 0.165528 -0.117277
0.441690 0.166685 -0.125951
0.461834 0.168247 -0.133478
0.482430 0.170154 -0.140673
0.503704 0.172581 -0.147367
0.525537 0.175189 -0.154039
0.548903 0.178294 -0.160648
0.572578 0.181408 -0.167278
0.598262 0.184585 -0.174045
0.623947 0.187761 -0.180813
0.054020 0.156072 0.018234
0.066294 0.158982 0.019536
0.078569 0.161891 0.020839
0.091805 0.164788 0.021913
0.105189 0.167682 0.022951
0.119923 0.170174 0.032176
0.135147 0.172519 0.044378
0.148113 0.175328 0.058163
0.159572 0.178444 0.073005
0.170163 0.182134 0.078538
0.179760 0.186478 0.073434
0.191878 0.189416 0.062990
0.209040 0.189538 0.041869
0.227552 0.189130 0.024554
0.251466 0.186600 0.022467
0.275426 0.184068 0.019681
0.300039 0.181506 0.007091
0.324651 0.178945 -0.005499
0.343431 0.179409 -0.029011
0.361795 0.180089 -0.053302
0.378938 0.181813 -0.070317
0.395776 0.183797 -0.085513
0.415072 0.185047 -0.098007
0.435596 0.185928 -0.109150
0.456022 0.187240 -0.118897
0.476361 0.188928 -0.127423
0.497172 0.191009 -0.135584
0.518690 0.193679 -0.143196
0.540570 0.196638 -0.150638
0.563441 0.200393 -0.157614
0.586502 0.204227 -0.164545
0.610797 0.208580 -0.171191
0.635092 0.212933 -0.177837
0.062766 0.175415 0.018458
0.075463 0.178385 0.019586
0.088161 0.181355 0.020714
0.101837 0.184356 0.021672
0.115664 0.187362 0.022605
0.130669 0.190107 0.028413
0.146103 0.192757 0.035992
0.160438 0.195247 0.053264
0.174042 0.197631 0.076999
0.185432 0.201042 0.088423
0.194294 0.205626 0.085778
0.205075 0.209361 0.078537
0.219692 0.211397 0.062107
0.235794 0.212648 0.046316
0.257838 0.210762 0.033087
0.280064 0.208833 0.020424
0.304845 0.206309 0.015706
0.329625 0.203785 0.010987
0.352246 0.202512 -0.000937
0.374712 0.201327 -0.013377
0.395280 0.201481 -0.040063
0.415372 0.201969 -0.070310
0.433162 0.204064 -0.086730
0.449800 0.206962 -0.096235
0.467879 0.209651 -0.105668
0.487219 0.212157 -0.115037
0.508116 0.214519 -0.124642
0.531349 0.216667 -0.134602
0.554924 0.219065 -0.144184
0.579440 0.222153 -0.152728
0.603950 0.225425 -0.161073
0.628418 0.229891 -0.168123
0.652885 0.234358 -0.175173
0.071731 0.194895 0.018925
0.084842 0.197930 0.019928
0.097953 0.200965 0.020930
0.112046 0.204055 0.021815
0.126291 0.207154 0.022683
0.141567 0.210117 0.025552
0.157218 0.213031 0.029149
0.172845 0.215237 0.049596
0.188457 0.216972 0.081278
0.200756 0.220113 0.097931
0.209270 0.224861 0.097409
0.219007 0.229262 0.093158
0.231190 0.232968 0.081446
0.244952 0.235732 0.067687
0.265034 0.234726 0.045742
0.285419 0.233628 0.025231
0.310047 0.231233 0.024799
0.334674 0.228837 0.024366
0.360292 0.226227 0.021957
0.385982 0.223601 0.019407
0.409479 0.222424 -0.011739
0.432428 0.221609 -0.050034
0.449990 0.223920 -0.070235
0.464858 0.227794 -0.081389
0.481765 0.231259 -0.092374
0.500456 0.234366 -0.103211
0.521164 0.237118 -0.114207
0.544899 0.239339 -0.125443
0.569059 0.241738 -0.136249
0.594386 0.244625 -0.145876
0.619638 0.247732 -0.155248
0.644392 0.252267 -0.162970
0.669147 0.256801 -0.170692
0.081573 0.214922 0.020363
0.095057 0.218041 0.021439
0.108541 0.221160 0.022516
0.122962 0.224277 0.023491
0.137526 0.227394 0.024452
0.153071 0.230434 0.026302
0.168972 0.233447 0.028475
0.185578 0.235507 0.050851
0.202653 0.236932 0.086694
0.216294 0.239840 0.105931
0.226008 0.244444 0.106191
0.235881 0.248984 0.104070
0.246070 0.253393 0.097187
0.257772 0.257085 0.087491
0.275525 0.257905 0.066543
0.293641 0.258543 0.046292
0.316829 0.256641 0.035801
0.340017 0.254738 0.025310
0.365267 0.252393 0.024133
0.390664 0.250016 0.023622
0.415111 0.248466 0.008861
0.439322 0.247122 -0.009463
0.461767 0.247134 -0.032869
0.483330 0.247823 -0.058818
0.503763 0.249657 -0.078822
0.523206 0.252494 -0.093623
0.542628 0.256068 -0.105795
0.562017 0.260749 -0.114022
0.582316 0.265394 -0.122391
0.605119 0.269943 -0.131153
0.628281 0.274474 -0.140008
0.653782 0.278898 -0.149474
0.679284 0.283322 -0.158941
0.091472 0.235013 0.021824
0.105324 0.238213 0.022971
0.119176 0.241412 0.024118
0.133921 0.244558 0.025181
0.148803 0.247695 0.026231
0.164617 0.250810 0.027132
0.180770 0.253919 0.027981
0.198322 0.255847 0.052085
0.216807 0.256989 0.091694
0.231780 0.259667 0.113450
0.242739 0.264100 0.114802
0.252821 0.268747 0.114923
0.261148 0.273822 0.112583
0.270894 0.278402 0.106793
0.286314 0.281005 0.087203
0.302153 0.283344 0.067583
0.323866 0.281996 0.047550
0.345579 0.280648 0.027518
0.370406 0.278581 0.026916
0.395455 0.276464 0.027702
0.420766 0.274582 0.028133
0.446143 0.272760 0.028475
0.473095 0.270657 0.002930
0.500834 0.268414 -0.035559
0.524636 0.268694 -0.063160
0.544993 0.271181 -0.081233
0.563530 0.275369 -0.094839
0.579339 0.282110 -0.101741
0.596412 0.288668 -0.108977
0.616963 0.294720 -0.117128
0.638222 0.300569 -0.125625
0.664074 0.305107 -0.136376
0.689926 0.309644 -0.147127
0.102152 0.255978 0.023628
0.116308 0.259215 0.024797
0.130464 0.262452 0.025965
0.145493 0.265657 0.027062
0.160656 0.268858 0.028147
0.176749 0.272020 0.029092
0.193180 0.275170 0.029986
0.211232 0.277173 0.053041
0.230362 0.278411 0.090870
0.246543 0.280885 0.114219
0.259353 0.284770 0.121019
0.270667 0.289096 0.124949
0.278990 0.294301 0.123139
0.288252 0.299222 0.119058
0.301267 0.303004 0.105889
0.314730 0.306539 0.092107
0.334460 0.306609 0.069753
0.354189 0.306679 0.047399
0.377846 0.305085 0.038174
0.401784 0.303372 0.029887
0.426743 0.301744 0.028813
0.451958 0.300138 0.029541
0.478127 0.298517 0.016802
0.504775 0.296889 -0.002670
0.529760 0.296668 -0.017964
0.553292 0.297680 -0.029602
0.576586 0.299576 -0.048253
0.599524 0.302798 -0.077424
0.622248 0.306587 -0.101775
0.644378 0.311931 -0.112873
0.666314 0.317601 -0.123238
0.686986 0.325389 -0.128838
0.707658 0.333178 -0.134437
0.112831 0.276944 0.025432
0.127291 0.280218 0.026622
0.141751 0.283492 0.027812
0.157064 0.286757 0.028942
0.172509 0.290021 0.030064
0.188882 0.293231 0.031052
0.205591 0.296421 0.031991
0.224141 0.298498 0.053997
0.243918 0.299833 0.090046
0.261307 0.302103 0.114988
0.275967 0.305440 0.127235
0.288513 0.309444 0.134974
0.296832 0.314781 0.133695
0.305609 0.320042 0.131322
0.316221 0.325004 0.124575
0.327308 0.329734 0.116632
0.345054 0.331223 0.091956
0.362800 0.332711 0.067280
0.385286 0.331589 0.049433
0.408112 0.330280 0.032073
0.432719 0.328906 0.029493
0.457772 0.327517 0.030607
0.483160 0.326378 0.030675
0.508715 0.325363 0.030219
0.534884 0.324642 0.027232
0.561590 0.324179 0.022030
0.589641 0.323782 -0.001667
0.619710 0.323486 -0.053106
0.648083 0.324505 -0.094573
0.671793 0.329142 -0.108619
0.694407 0.334632 -0.120851
0.709898 0.345672 -0.121299
0.725390 0.356712 -0.121747
0.124025 0.298779 0.027226
0.138767 0.302123 0.028439
0.153509 0.305466 0.029652
0.169083 0.308788 0.030811
0.184785 0.312106 0.031962
0.201389 0.315355 0.032989
0.218322 0.318579 0.033970
0.237060 0.320870 0.053051
0.257003 0.322540 0.084197
0.275291 0.324639 0.110772
0.291687 0.327231 0.132121
0.305863 0.330709 0.145652
0.315603 0.335961 0.143546
0.325257 0.341228 0.141049
0.334572 0.346559 0.136986
0.344291 0.351733 0.131940
0.359675 0.354698 0.113133
0.375058 0.357663 0.094326
0.395822 0.357606 0.072526
0.416969 0.357333 0.050512
0.440620 0.356410 0.040630
0.464898 0.355324 0.033782
0.489855 0.354477 0.032085
0.515150 0.353750 0.032964
0.541124 0.353326 0.032139
0.567691 0.353168 0.029822
0.595380 0.353166 0.016524
0.624754 0.353397 -0.013246
0.653419 0.354455 -0.038626
0.680136 0.357786 -0.051930
0.706395 0.361580 -0.066809
0.729675 0.368389 -0.091932
0.752956 0.375198 -0.117054
0.135257 0.320676 0.029020
0.150279 0.324091 0.030256
0.165300 0.327507 0.031491
0.181134 0.330885 0.032679
0.197092 0.334257 0.033859
0.213924 0.337545 0.034924
0.231075 0.340801 0.035947
0.249980 0.343317 0.051969
0.270056 0.345338 0.077990
0.289220 0.347270 0.106199
0.307343 0.349101 0.136911
0.323178 0.352039 0.156376
0.334440 0.357191 0.153347
0.345068 0.362440 0.150595
0.353166 0.368083 0.148949
0.361590 0.373646 0.146590
0.374584 0.378091 0.134237
0.387578 0.382537 0.121883
0.406578 0.383588 0.096464
0.426006 0.384397 0.070111
0.448659 0.383938 0.052515
0.472118 0.383162 0.037108
0.496668 0.382594 0.032606
0.521763 0.382130 0.033556
0.547443 0.382060 0.034168
0.573634 0.382335 0.034484
0.600596 0.382920 0.032687
0.628716 0.383968 0.027723
0.657290 0.385265 0.020803
0.687116 0.387246 0.008505
0.717232 0.389235 -0.009078
0.749228 0.391279 -0.061005
0.781224 0.393323 -0.112932
0.147054 0.343463 0.030794
0.162364 0.346923 0.032051
0.177674 0.350383 0.033308
0.193782 0.353795 0.034519
0.210013 0.357199 0.035722
0.227068 0.360551 0.036827
0.244422 0.363884 0.037895
0.263315 0.366653 0.050177
0.283234 0.369045 0.069935
0.303134 0.370840 0.099585
0.323013 0.371952 0.140542
0.340502 0.374366 0.166849
0.353212 0.379382 0.163859
0.365053 0.384540 0.161129
0.373424 0.390263 0.159440
0.381975 0.395950 0.157341
0.393055 0.401124 0.149494
0.404134 0.406298 0.141648
0.420859 0.408696 0.120013
0.437986 0.410897 0.097393
0.459096 0.411241 0.075816
0.481202 0.411122 0.054500
0.505008 0.410956 0.043386
0.529664 0.410768 0.037375
0.554894 0.411018 0.034995
0.580627 0.411652 0.035795
0.607079 0.412690 0.036362
0.634611 0.414333 0.036580
0.662615 0.416236 0.034718
0.691922 0.418851 0.027140
0.721638 0.421418 0.015773
0.754013 0.423666 -0.020226
0.786387 0.425915 -0.056225
0.158992 0.366472 0.032562
0.174593 0.369970 0.033841
0.190193 0.373469 0.035120
0.206580 0.376908 0.036352
0.223089 0.380338 0.037577
0.240364 0.383761 0.038721
0.257919 0.387182 0.039836
0.276754 0.390211 0.048208
0.296444 0.392979 0.061419
0.317045 0.394644 0.092461
0.338688 0.395049 0.143882
0.357829 0.396942 0.177260
0.371967 0.401814 0.174549
0.385081 0.406861 0.171911
0.394097 0.412608 0.169563
0.403132 0.418352 0.167116
0.412416 0.424066 0.163290
0.421701 0.429780 0.159465
0.436021 0.433586 0.143465
0.450701 0.437255 0.126596
0.470133 0.438488 0.101972
0.490752 0.439112 0.075408
0.513730 0.439380 0.056732
0.537887 0.439470 0.041999
0.562629 0.440032 0.035522
0.587883 0.441006 0.036269
0.613879 0.442464 0.036914
0.640989 0.444648 0.037408
0.668304 0.447248 0.037255
0.696184 0.450993 0.035326
0.724437 0.454732 0.032403
0.755105 0.458427 0.023016
0.785774 0.462123 0.013629
0.171420 0.390442 0.034298
0.187301 0.393993 0.035601
0.203182 0.397543 0.036904
0.219828 0.401022 0.038163
0.236591 0.404489 0.039416
0.254130 0.407953 0.040597
0.271950 0.411415 0.041752
0.290822 0.414625 0.047066
0.310396 0.417667 0.055151
0.331590 0.419299 0.086575
0.354635 0.419320 0.144672
0.375133 0.420849 0.183593
0.390538 0.425392 0.184162
0.404930 0.430165 0.183883
0.415268 0.435853 0.180214
0.425478 0.441561 0.176659
0.433904 0.447549 0.174707
0.442331 0.453538 0.172755
0.454719 0.458361 0.161645
0.467391 0.463102 0.149881
0.484698 0.465436 0.127533
0.503163 0.467169 0.102539
0.524522 0.468044 0.080329
0.547328 0.468489 0.059512
0.571111 0.469418 0.046757
0.595750 0.470772 0.041057
0.620972 0.472742 0.037737
0.647070 0.475637 0.037988
0.673394 0.478992 0.038165
0.700342 0.483613 0.038137
0.727693 0.488241 0.038057
0.757664 0.492916 0.037641
0.787635 0.497590 0.037225
0.184091 0.414893 0.036018
0.200248 0.418502 0.037347
0.216405 0.422112 0.038676
0.233299 0.425635 0.039964
0.250307 0.429146 0.041246
0.268130 0.432635 0.042463
0.286248 0.436116 0.043657
0.305205 0.439467 0.046337
0.324720 0.442732 0.050007
0.346452 0.444379 0.081308
0.370717 0.444179 0.144186
0.392426 0.445420 0.187888
0.409018 0.449544 0.193236
0.424691 0.453961 0.196450
0.436687 0.459548 0.191129
0.448418 0.465172 0.186086
0.456456 0.471303 0.184934
0.464493 0.477433 0.183782
0.475186 0.483081 0.177189
0.486069 0.488693 0.170207
0.501027 0.492236 0.152797
0.517004 0.495261 0.132780
0.536349 0.496828 0.109052
0.557377 0.497666 0.083469
0.579966 0.498991 0.063346
0.603921 0.500743 0.048002
0.628211 0.503271 0.038695
0.653002 0.506964 0.038444
0.678185 0.511103 0.038260
0.704448 0.516472 0.038259
0.731179 0.521847 0.038223
0.760957 0.527267 0.037957
0.790735 0.532687 0.037691
0.197267 0.440227 0.037706
0.213715 0.443886 0.039053
0.230162 0.447546 0.040399
0.247335 0.451114 0.041719
0.264620 0.454667 0.043034
0.282701 0.458199 0.044287
0.301072 0.461723 0.045516
0.320175 0.465167 0.046911
0.339765 0.468558 0.048415
0.361913 0.470294 0.078766
0.386984 0.470138 0.142085
0.409667 0.471214 0.188422
0.427573 0.474753 0.200795
0.444594 0.478681 0.209430
0.458071 0.484166 0.203119
0.471216 0.489698 0.197121
0.479706 0.495886 0.195506
0.488197 0.502074 0.193890
0.497617 0.508231 0.190378
0.507104 0.514386 0.186730
0.520148 0.518988 0.173977
0.534081 0.523201 0.158948
0.551235 0.525702 0.137143
0.570000 0.527346 0.111950
0.590552 0.529219 0.089288
0.612669 0.531290 0.068839
0.635415 0.534290 0.054426
0.659105 0.538681 0.049066
0.683353 0.543503 0.044308
0.709134 0.549509 0.041205
0.735440 0.555510 0.038473
0.765160 0.561479 0.038158
0.794879 0.567449 0.037843
0.210886 0.466334 0.039365
0.227636 0.470035 0.040724
0.244387 0.473737 0.042082
0.261864 0.477348 0.043434
0.279453 0.480945 0.044785
0.297772 0.484535 0.046073
0.316356 0.488122 0.047337
0.335659 0.491617 0.048625
0.355441 0.495050 0.049931
0.377898 0.496938 0.078609
0.403411 0.497059 0.138570
0.426864 0.498077 0.185665
0.446195 0.500887 0.207027
0.464621 0.504211 0.222773
0.479425 0.509591 0.216050
0.493888 0.515024 0.209564
0.503569 0.521195 0.206379
0.513250 0.527367 0.203195
0.521767 0.533759 0.201507
0.530201 0.540167 0.199926
0.541711 0.545697 0.191584
0.553989 0.551008 0.181552
0.568800 0.554654 0.164681
0.584876 0.557468 0.144390
0.602654 0.560019 0.123412
0.621921 0.562341 0.101831
0.642589 0.565736 0.083082
0.665358 0.570740 0.068582
0.688850 0.576155 0.055564
0.714329 0.582702 0.046621
0.740381 0.589222 0.038798
0.770160 0.595569 0.038260
0.799939 0.601917 0.037721
0.224985 0.493479 0.040980
0.242050 0.497216 0.042352
0.259115 0.500953 0.043725
0.276893 0.504610 0.045106
0.294782 0.508255 0.046489
0.313373 0.511894 0.047814
0.332221 0.515532 0.049118
0.351778 0.519076 0.050362
0.371809 0.522556 0.051566
0.394511 0.524627 0.078112
0.420264 0.525087 0.133620
0.444382 0.526076 0.181072
0.465231 0.528123 0.212414
