luts/sad_warm.cube
LUT_3D_SIZE 9
0.030669 0.025641 0.010462
0.030669 0.025641 0.010462
0.084650 0.025641 0.010462
0.315673 0.025641 0.022741
0.585982 0.088686 0.082540
0.819134 0.162791 0.143821
0.974056 0.215466 0.187012
0.991390 0.234480 0.201803
0.991390 0.234471 0.205752
0.030669 0.025641 0.010462
0.030669 0.025641 0.010462
0.084661 0.025641 0.010462
0.311287 0.025641 0.021047
0.583260 0.090798 0.082758
0.817503 0.162258 0.145619
0.973418 0.215204 0.187782
0.991390 0.234495 0.202040
0.991390 0.234470 0.205753
0.030669 0.098393 0.010462
0.030669 0.097075 0.010462
0.106823 0.101041 0.010462
0.315920 0.142514 0.029471
0.577079 0.169919 0.083968
0.813450 0.184332 0.147995
0.973120 0.216883 0.194127
0.991390 0.234438 0.203018
0.991390 0.234471 0.205783
0.087711 0.329640 0.066477
0.091229 0.328638 0.066274
0.154768 0.325653 0.065551
0.337277 0.330280 0.078240
0.574442 0.370652 0.117596
0.793992 0.385146 0.160066
0.962962 0.333176 0.193932
0.991390 0.253919 0.204517
0.991390 0.234483 0.205899
0.201276 0.577970 0.162519
0.201328 0.577684 0.162854
0.221661 0.576307 0.162190
0.379341 0.571180 0.165052
0.585131 0.575055 0.184395
0.779852 0.603790 0.216506
0.940329 0.604497 0.231394
0.991372 0.517825 0.216011
0.991390 0.328234 0.200580
0.285342 0.780425 0.291940
0.285628 0.780489 0.292832
0.297942 0.779854 0.295419
0.416944 0.775102 0.293441
0.616831 0.770959 0.302069
0.782914 0.772532 0.317983
0.925826 0.785413 0.325377
0.985748 0.775979 0.291968
0.990412 0.700234 0.244194
0.343225 0.922437 0.447389
0.343746 0.922379 0.448100
0.359064 0.921850 0.449664
0.472624 0.917020 0.445598
0.647625 0.912126 0.446053
0.801840 0.910271 0.455353
0.922463 0.910967 0.458465
0.978663 0.913013 0.428289
0.987287 0.901774 0.340052
0.397706 0.966497 0.590235
0.409899 0.966497 0.589828
0.470963 0.966497 0.587506
0.578462 0.966498 0.585744
0.704128 0.965679 0.587135
0.830349 0.963426 0.593749
0.926354 0.962921 0.598095
0.974283 0.963672 0.586374
0.985762 0.963730 0.517987
0.572332 0.966497 0.704649
0.582253 0.966497 0.704770
0.620027 0.966497 0.705391
0.686499 0.966076 0.706760
0.772715 0.964847 0.710345
0.861418 0.964276 0.715721
0.931276 0.964213 0.720356
0.970011 0.964380 0.718633
0.983829 0.964989 0.694908
0.030669 0.025641 0.010462
0.030669 0.025641 0.010462
0.084597 0.025641 0.010462
0.316022 0.025641 0.033845
0.587242 0.089085 0.094242
0.819798 0.162973 0.154711
0.974180 0.215494 0.192683
0.991390 0.234473 0.202811
0.991390 0.234471 0.205752
0.030669 0.025641 0.010462
0.030669 0.025641 0.010462
0.083752 0.025641 0.010462
0.312781 0.025641 0.028642
0.585296 0.089289 0.089212
0.818584 0.162614 0.150466
0.973706 0.215325 0.189704
0.991390 0.234483 0.202401
0.991390 0.234470 0.205751
0.030669 0.096452 0.016830
0.030669 0.095909 0.013547
0.103644 0.098256 0.010796
0.316071 0.131102 0.033930
0.578392 0.157635 0.089471
0.814753 0.178331 0.153808
0.973387 0.216172 0.197136
0.991390 0.234445 0.203172
0.991390 0.234473 0.205768
0.086998 0.328204 0.077830
0.089583 0.328045 0.073779
0.147977 0.325094 0.071136
0.335901 0.328593 0.083834
0.574626 0.364383 0.122046
0.795119 0.374499 0.163727
0.963798 0.322957 0.198145
0.991390 0.249854 0.207015
0.991390 0.234482 0.205883
0.200880 0.577014 0.172913
0.201035 0.577280 0.168080
0.218415 0.575982 0.168082
0.373683 0.570790 0.171093
0.584375 0.574072 0.189656
0.779961 0.600346 0.221116
0.940746 0.598631 0.234647
0.991389 0.507796 0.218308
0.991390 0.321364 0.201388
0.284884 0.779436 0.306710
0.285239 0.779930 0.300235
0.295849 0.779480 0.302209
0.410203 0.774926 0.300146
0.613706 0.770529 0.308093
0.782402 0.771793 0.324040
0.925722 0.783427 0.330458
0.985770 0.772937 0.294664
0.990418 0.695196 0.243902
0.342870 0.921797 0.457711
0.343169 0.922207 0.453058
0.356656 0.921524 0.454279
0.465613 0.916874 0.450707
0.643626 0.911824 0.450515
0.800188 0.909965 0.459884
0.922119 0.910359 0.463175
0.978771 0.912079 0.433018
0.987252 0.900423 0.343873
0.397551 0.966497 0.597101
0.402605 0.966497 0.593633
0.463426 0.966497 0.591018
0.572801 0.966498 0.589081
0.700668 0.965653 0.590299
0.828698 0.963400 0.596889
0.925709 0.962771 0.601447
0.974171 0.963597 0.590291
0.985728 0.963562 0.522660
0.572214 0.966497 0.709410
0.577660 0.966502 0.707227
0.615501 0.966497 0.707469
0.683002 0.966076 0.709131
0.770153 0.964842 0.712647
0.860039 0.964250 0.717758
0.930717 0.964215 0.722574
0.969928 0.964366 0.721173
0.983776 0.964922 0.698050
0.030669 0.025641 0.010462
0.030669 0.025641 0.010462
0.088025 0.025641 0.031459
0.317674 0.025641 0.090491
0.588346 0.090219 0.154416
0.819929 0.163365 0.211463
0.973951 0.215501 0.239515
0.991390 0.234422 0.221282
0.991390 0.234490 0.206147
0.030669 0.025641 0.010462
0.030669 0.025641 0.010462
0.085369 0.025641 0.032004
0.316542 0.025641 0.087576
0.587468 0.090172 0.149563
0.819431 0.163206 0.205693
0.973850 0.215430 0.234289
0.991390 0.234439 0.218528
0.991390 0.234491 0.206068
0.030669 0.089093 0.052031
0.030669 0.088244 0.050828
0.096465 0.086738 0.054218
0.318634 0.097858 0.085288
0.583722 0.126304 0.138883
0.817997 0.167288 0.195643
0.973877 0.215415 0.226130
0.991390 0.234433 0.214656
0.991390 0.234472 0.205950
0.084374 0.322292 0.130935
0.086107 0.322156 0.127555
0.131650 0.320219 0.119864
0.330758 0.320649 0.127044
0.575966 0.341518 0.158947
0.799378 0.338566 0.199353
0.966849 0.290465 0.231576
0.991390 0.242155 0.227764
0.991390 0.234472 0.207759
0.198767 0.572318 0.233020
0.198940 0.572637 0.227491
0.208982 0.572748 0.215669
0.355881 0.567618 0.213772
0.580937 0.569157 0.230620
0.779666 0.587704 0.257408
0.942106 0.578250 0.265603
0.991390 0.477701 0.240279
0.991390 0.301368 0.208659
0.283185 0.775560 0.363342
0.283478 0.775839 0.357458
0.289966 0.776767 0.344539
0.389899 0.772816 0.340785
0.603270 0.767665 0.345641
0.780128 0.768304 0.360820
0.925058 0.776092 0.365035
0.985602 0.761965 0.324399
0.990422 0.681330 0.249742
0.341553 0.919037 0.498502
0.341823 0.919269 0.493909
0.350808 0.919719 0.483570
0.445537 0.915736 0.479972
0.631255 0.910012 0.477957
0.795107 0.907919 0.486998
0.920798 0.907979 0.491749
0.978065 0.907977 0.464399
0.986893 0.894251 0.371016
0.396912 0.966497 0.625143
0.402279 0.966497 0.621562
0.445823 0.966497 0.612050
0.557383 0.966497 0.608701
0.691165 0.965249 0.609710
0.823281 0.962868 0.616135
0.923645 0.962090 0.621672
0.973673 0.962881 0.613070
0.985352 0.962036 0.550592
0.571586 0.966497 0.728856
0.576598 0.966499 0.726620
0.605292 0.966497 0.722206
0.674116 0.966099 0.722975
0.763697 0.964903 0.726203
0.856364 0.964118 0.731626
0.928790 0.964076 0.737070
0.969182 0.964519 0.736848
0.983512 0.964752 0.716595
0.030669 0.025641 0.138561
0.030669 0.025641 0.142894
0.127357 0.025641 0.170989
0.325948 0.025872 0.206994
0.588030 0.094608 0.280541
0.818571 0.165393 0.344963
0.972928 0.216309 0.375153
0.991390 0.234668 0.346961
0.991390 0.234377 0.257999
0.030669 0.025641 0.144150
0.030669 0.025641 0.143324
0.117167 0.025641 0.169841
0.324636 0.025877 0.206787
0.587504 0.094324 0.277675
0.818218 0.165171 0.340199
0.972885 0.216206 0.369263
0.991390 0.234636 0.340641
0.991390 0.234382 0.254772
0.030669 0.087355 0.184683
0.030669 0.080154 0.182213
0.096669 0.048343 0.184473
0.323953 0.060072 0.213636
0.587543 0.106989 0.275656
0.818624 0.165725 0.333185
0.973414 0.216361 0.360011
0.991390 0.234555 0.329534
0.991390 0.234398 0.250079
0.081428 0.312301 0.244552
0.081270 0.310915 0.243939
0.119290 0.304702 0.243036
0.322445 0.295840 0.249700
0.579103 0.296680 0.280282
0.805933 0.283555 0.322329
0.970646 0.253719 0.355544
0.991390 0.237258 0.332839
0.991390 0.234415 0.253702
0.195180 0.561540 0.346198
0.195254 0.561658 0.343366
0.203280 0.561621 0.336930
0.332368 0.557664 0.328291
0.574387 0.556051 0.337594
0.779841 0.561410 0.357287
0.944538 0.535614 0.367554
0.991390 0.425988 0.349830
0.991390 0.281065 0.281875
0.280453 0.767640 0.459845
0.280619 0.768063 0.456126
0.285651 0.768686 0.446707
0.364211 0.766503 0.433903
0.586394 0.760705 0.432493
0.775845 0.760172 0.445561
0.923641 0.761977 0.449882
0.985023 0.741542 0.417851
0.990168 0.652211 0.329978
0.339270 0.913033 0.571963
0.339517 0.913294 0.568544
0.347382 0.913766 0.559563
0.421602 0.911338 0.547615
0.614236 0.905231 0.543254
0.786815 0.902688 0.550747
0.917960 0.902031 0.557974
0.976743 0.899575 0.538605
0.985930 0.882364 0.463598
0.396278 0.966499 0.678603
0.402733 0.966529 0.675515
0.442141 0.966497 0.666597
0.540790 0.966283 0.657346
0.679535 0.963440 0.657460
0.815895 0.960959 0.663077
0.920218 0.960250 0.670036
0.972165 0.961120 0.666559
0.984618 0.958574 0.618445
0.570172 0.966497 0.766715
0.575073 0.966521 0.764593
0.602762 0.966497 0.760103
0.666345 0.966126 0.757511
0.757304 0.964757 0.760553
0.852238 0.963855 0.766204
0.926305 0.963900 0.772306
0.967693 0.964210 0.774243
0.982865 0.964355 0.760617
0.030669 0.025641 0.387359
0.030669 0.025641 0.387573
0.127291 0.025641 0.398057
0.366548 0.045307 0.423478
0.593794 0.106890 0.457974
0.816212 0.171124 0.520460
0.971172 0.219850 0.558674
0.991390 0.237968 0.554493
0.991390 0.236574 0.481116
0.030669 0.025641 0.388322
0.030669 0.025641 0.387231
0.113495 0.025641 0.396242
0.360459 0.044128 0.422370
0.592869 0.106591 0.457366
0.815897 0.170908 0.518263
0.971262 0.219789 0.555568
0.991390 0.237854 0.550444
0.991390 0.236490 0.475952
0.030669 0.037440 0.403083
0.030669 0.033272 0.401104
0.083616 0.025641 0.401398
0.347481 0.044092 0.425334
0.592994 0.107254 0.460591
0.816291 0.170959 0.516526
0.971900 0.219978 0.551955
0.991390 0.237694 0.544922
0.991390 0.236392 0.470512
0.088792 0.304882 0.442936
0.086199 0.296915 0.441822
0.099334 0.272411 0.439653
0.312214 0.238610 0.444129
0.583932 0.241259 0.468971
0.809499 0.238991 0.516081
0.971591 0.236484 0.555103
0.991390 0.238485 0.551764
0.991390 0.236696 0.483766
0.193014 0.551216 0.493505
0.192803 0.550606 0.493270
0.197621 0.548702 0.493314
0.314490 0.540768 0.492492
0.566798 0.531813 0.499689
0.781074 0.523358 0.519876
0.947245 0.482358 0.543591
0.991390 0.382348 0.555408
0.991390 0.272371 0.526541
0.277050 0.755192 0.581313
0.277122 0.755335 0.579684
0.280874 0.755787 0.576110
0.350625 0.753505 0.569983
0.569999 0.747751 0.565536
0.770363 0.745540 0.575556
0.922084 0.740903 0.583060
0.984242 0.713400 0.573874
0.989690 0.614474 0.540557
0.336229 0.903165 0.671006
0.336582 0.903458 0.668964
0.343403 0.903730 0.663606
0.412674 0.901283 0.655005
0.599714 0.895580 0.648274
0.778356 0.892547 0.654253
0.913764 0.891319 0.663275
0.974509 0.886449 0.653954
0.984687 0.867283 0.615050
0.396930 0.966251 0.755774
0.402896 0.966114 0.753434
0.438277 0.965728 0.746884
0.534411 0.963348 0.738917
0.672026 0.959462 0.737299
0.810843 0.956705 0.743186
0.915973 0.955909 0.750978
0.969511 0.956242 0.753213
0.983400 0.951609 0.723590
0.567955 0.966490 0.822153
0.572696 0.966502 0.820499
0.600755 0.966497 0.817276
0.663920 0.965911 0.814713
0.756823 0.964463 0.818890
0.851536 0.963479 0.825124
0.924542 0.963429 0.831376
0.965633 0.963712 0.835252
0.981712 0.964040 0.830938
0.063369 0.044939 0.631045
0.063375 0.044936 0.630978
0.103744 0.046734 0.634409
0.383121 0.078222 0.650992
0.627279 0.130253 0.672133
0.818016 0.180709 0.696837
0.969439 0.226057 0.733869
0.991390 0.244172 0.742525
0.991390 0.243086 0.715049
0.063267 0.044814 0.630532
0.063215 0.044755 0.630202
0.092597 0.046084 0.632960
0.371908 0.076366 0.649333
0.623876 0.129377 0.671290
0.817368 0.180540 0.696454
0.969484 0.225993 0.732669
0.991390 0.244085 0.740574
0.991390 0.242998 0.712482
0.064642 0.046280 0.636733
0.064384 0.046010 0.635650
0.076529 0.045950 0.634449
0.343941 0.072644 0.648299
0.616390 0.127600 0.671330
0.817073 0.180480 0.697649
0.970090 0.226276 0.732107
0.991390 0.243986 0.738554
0.991390 0.242960 0.710224
0.100494 0.260036 0.654893
0.097115 0.246733 0.653975
0.094846 0.210690 0.652106
0.294128 0.170575 0.655487
0.599796 0.183174 0.675118
0.813441 0.209269 0.702909
0.970696 0.231042 0.737816
0.991390 0.244345 0.745830
0.991390 0.243391 0.720823
0.198574 0.555334 0.681403
0.197300 0.552111 0.681056
0.194796 0.542619 0.680692
0.288929 0.521434 0.678772
0.558651 0.494961 0.682090
0.781048 0.480293 0.700225
0.947593 0.436929 0.727987
0.991390 0.351479 0.749947
0.991390 0.253977 0.751626
0.274275 0.743906 0.721609
0.274197 0.743680 0.721554
0.276239 0.743036 0.721866
0.337267 0.739136 0.721354
0.558252 0.729634 0.721043
0.765241 0.724335 0.730954
0.920641 0.717447 0.743449
0.983551 0.688170 0.751210
0.989409 0.598525 0.752422
0.333172 0.889784 0.785620
0.333893 0.889914 0.784768
0.338830 0.890073 0.782807
0.403968 0.887308 0.778808
0.590454 0.881113 0.775632
0.773564 0.877855 0.782840
0.908775 0.876159 0.792448
0.971736 0.870146 0.792769
0.983895 0.852249 0.781410
0.395155 0.960039 0.844835
0.400225 0.959890 0.843408
0.430169 0.959131 0.839880
0.527669 0.955471 0.834623
0.667755 0.951005 0.834015
0.810944 0.947574 0.841878
0.913347 0.946261 0.849416
0.965868 0.945859 0.853263
0.981983 0.941122 0.842283
0.566147 0.966497 0.875415
0.570888 0.966497 0.874771
0.599177 0.966497 0.873349
0.662666 0.965529 0.872328
0.756740 0.963601 0.874599
0.856287 0.962577 0.879180
0.925546 0.962215 0.879934
0.963906 0.961979 0.879934
0.979801 0.961994 0.879934
0.106560 0.088389 0.829441
0.106503 0.088347 0.829316
0.114967 0.088814 0.830823
0.365619 0.106500 0.837829
0.638639 0.149935 0.850416
0.832242 0.194491 0.862551
0.968919 0.233931 0.874662
0.991390 0.251756 0.879934
0.991390 0.251010 0.872151
0.106328 0.088190 0.828702
0.106385 0.088233 0.828917
0.111440 0.088567 0.830014
0.350984 0.105019 0.836930
0.633472 0.148813 0.849759
0.830414 0.194022 0.862307
0.968889 0.233906 0.874986
0.991390 0.251726 0.879934
0.991390 0.250978 0.871370
0.106891 0.088724 0.830943
0.106766 0.088595 0.830438
0.107175 0.088420 0.829649
0.314312 0.101667 0.835329
0.620075 0.146067 0.848589
0.826047 0.192944 0.862478
0.969088 0.234132 0.876306
0.991390 0.251694 0.879778
0.991390 0.250943 0.870651
0.118077 0.199264 0.836852
0.116463 0.188612 0.836742
0.113840 0.159363 0.836097
0.267256 0.128268 0.838014
0.600407 0.159762 0.850137
0.819009 0.199122 0.865383
0.968973 0.235840 0.879407
0.991390 0.251919 0.879786
0.991390 0.251275 0.872297
0.199421 0.534000 0.845955
0.197452 0.528072 0.845847
0.193092 0.511347 0.845483
0.267167 0.479731 0.843962
0.549529 0.441744 0.844941
0.781416 0.430085 0.856276
0.948788 0.392273 0.871545
0.991390 0.326117 0.879934
0.991390 0.252494 0.879080
0.274560 0.738516 0.862000
0.274047 0.736968 0.862103
0.273314 0.732891 0.862228
0.318514 0.724714 0.861636
0.544846 0.708156 0.859147
0.759232 0.701280 0.864068
0.917529 0.694020 0.872479
0.983034 0.662265 0.876574
0.989401 0.569064 0.878514
0.330777 0.879004 0.878117
0.331201 0.878930 0.878204
0.334547 0.878445 0.878298
0.391843 0.875360 0.878321
0.582281 0.867287 0.878298
0.769025 0.863082 0.879934
0.905197 0.860896 0.879934
0.969341 0.855769 0.879936
0.983116 0.844405 0.879934
0.391521 0.950438 0.879934
0.395591 0.950388 0.879934
0.421476 0.949188 0.879934
0.523698 0.944912 0.879934
0.665315 0.940079 0.879946
0.809487 0.936848 0.879934
0.912460 0.934903 0.879934
0.962942 0.934481 0.879934
0.980213 0.930872 0.879934
0.567630 0.965817 0.879934
0.572401 0.965756 0.879934
0.600740 0.964844 0.879934
0.663685 0.963189 0.879934
0.757057 0.961153 0.879934
0.856621 0.959457 0.879934
0.928642 0.958211 0.879934
0.963417 0.957554 0.879934
0.977945 0.957317 0.879934
0.134652 0.115860 0.879934
0.134659 0.115857 0.879934
0.134843 0.115962 0.879934
0.336723 0.126012 0.879934
0.627493 0.162295 0.879934
0.826844 0.202980 0.879934
0.967048 0.240467 0.879934
0.991390 0.258042 0.879934
0.991390 0.257648 0.879934
0.134516 0.115730 0.879934
0.134595 0.115785 0.879934
0.134693 0.115858 0.879934
0.320569 0.124836 0.879934
0.620986 0.161120 0.879934
0.824181 0.202329 0.879934
0.966393 0.240240 0.879934
0.991390 0.258028 0.879934
0.991390 0.257624 0.879934
0.134430 0.115609 0.879934
0.134415 0.115616 0.879934
0.134394 0.115585 0.879934
0.281659 0.122077 0.879934
0.603717 0.158078 0.879934
0.816808 0.200644 0.879934
0.964754 0.239697 0.879934
0.991390 0.258018 0.879934
0.991390 0.257647 0.879934
0.137199 0.178367 0.879934
0.136704 0.170232 0.879934
0.135057 0.149479 0.879934
0.244216 0.131083 0.879934
0.583102 0.164023 0.879934
0.807262 0.202088 0.879934
0.961893 0.239625 0.879934
0.991390 0.258007 0.879934
0.991390 0.257852 0.879934
0.201342 0.511584 0.879934
0.199145 0.503536 0.879934
0.193990 0.481964 0.879934
0.253798 0.448034 0.879934
0.539747 0.416556 0.879934
0.773212 0.409683 0.879934
0.940954 0.382863 0.879934
0.991390 0.323589 0.879934
0.991390 0.261899 0.879934
0.273722 0.725959 0.879934
0.272857 0.723540 0.879934
0.272316 0.717199 0.879934
0.313220 0.707409 0.879934
0.537224 0.691229 0.879934
0.755318 0.689668 0.879934
0.910508 0.684801 0.879934
0.981710 0.654209 0.879934
0.989361 0.562069 0.879934
0.329220 0.868780 0.879934
0.329290 0.868105 0.879934
0.333112 0.866245 0.879934
0.385860 0.861682 0.879934
0.579199 0.852683 0.879934
0.767341 0.850665 0.879934
0.902570 0.852508 0.879934
0.967102 0.847942 0.879934
0.982760 0.837324 0.879934
0.389449 0.942830 0.879934
0.392486 0.942576 0.879934
0.421221 0.941254 0.879934
0.527062 0.936444 0.879934
0.667535 0.931787 0.879934
0.809854 0.928741 0.879934
0.911323 0.927881 0.879934
0.961601 0.927699 0.879934
0.979076 0.926681 0.879934
0.574188 0.962230 0.879934
0.578799 0.961999 0.879934
0.606789 0.961084 0.879934
0.668193 0.959291 0.879934
0.759938 0.957070 0.879934
0.857723 0.955028 0.879934
0.928733 0.953575 0.879934
0.963957 0.952598 0.879934
0.976768 0.952677 0.879934
0.146579 0.127452 0.879934
0.146568 0.127429 0.879934
0.146731 0.127440 0.879934
0.295314 0.133036 0.879934
0.600029 0.164652 0.879934
0.806147 0.203052 0.879934
0.955794 0.239571 0.879934
0.991390 0.260545 0.879934
0.991390 0.260781 0.879934
0.146492 0.127350 0.879934
0.146540 0.127399 0.879934
0.146564 0.127414 0.879934
0.282066 0.132147 0.879934
0.592800 0.163552 0.879934
0.802789 0.202302 0.879934
0.954626 0.239222 0.879934
0.991390 0.260520 0.879934
0.991390 0.260783 0.879934
0.146261 0.127129 0.879934
0.146277 0.127144 0.879934
0.146330 0.127187 0.879934
0.254685 0.130586 0.879934
0.574728 0.160798 0.879934
0.794298 0.200430 0.879934
0.950934 0.238121 0.879934
0.991390 0.260437 0.879934
0.991390 0.260798 0.879934
0.147762 0.194034 0.879934
0.147654 0.185815 0.879934
0.146749 0.167364 0.879934
0.231173 0.151580 0.879934
0.559943 0.171155 0.879934
0.786280 0.204034 0.879934
0.945957 0.239614 0.879934
0.991390 0.260118 0.879934
0.991390 0.260809 0.879934
0.205706 0.510258 0.879934
0.203610 0.502255 0.879934
0.198618 0.482244 0.879934
0.250757 0.456804 0.879934
0.529904 0.440903 0.879934
0.756150 0.440494 0.879934
0.922167 0.416731 0.879934
0.990590 0.356264 0.879934
0.991390 0.275355 0.879934
0.271971 0.715025 0.879934
0.271004 0.712391 0.879934
0.270663 0.705839 0.879934
0.312798 0.697326 0.879934
0.537109 0.686423 0.879934
0.753762 0.693978 0.879934
0.901106 0.692294 0.879934
0.976830 0.671277 0.879934
0.989161 0.586786 0.879934
0.325433 0.855933 0.879934
0.325313 0.855029 0.879934
0.328672 0.852452 0.879934
0.382723 0.847668 0.879934
0.578523 0.840083 0.879934
0.768360 0.842849 0.879934
0.901827 0.851513 0.879934
0.963456 0.848915 0.879934
0.982383 0.838872 0.879934
0.382835 0.934125 0.879934
0.385506 0.933825 0.879934
0.409154 0.932017 0.879934
0.514523 0.926997 0.879934
0.660285 0.922259 0.879934
0.807555 0.920431 0.879934
0.910864 0.922272 0.879934
0.960927 0.925390 0.879934
0.978529 0.924564 0.879934
0.587475 0.958788 0.879934
0.591974 0.958562 0.879934
0.618504 0.957528 0.879934
0.677909 0.955721 0.879934
0.766659 0.953589 0.879934
0.861165 0.951804 0.879934
0.929528 0.950832 0.879934
0.963907 0.950684 0.879934
0.976421 0.950675 0.879934
