luts/sad_warm.cube
LUT_3D_SIZE 33
0.030669 0.025641 0.010462
0.030669 0.025641 0.010462
0.030669 0.025641 0.010462
0.030669 0.025641 0.010462
0.030669 0.025641 0.010462
0.030669 0.025641 0.010462
0.030669 0.025641 0.010462
0.050912 0.025641 0.010462
0.084650 0.025641 0.010462
0.130124 0.025641 0.010462
0.189012 0.025641 0.010462
0.250121 0.025641 0.013532
0.315673 0.025641 0.022741
0.382005 0.029396 0.033304
0.451460 0.048173 0.049284
0.520641 0.067135 0.065344
0.585982 0.088686 0.082540
0.651323 0.110236 0.099735
0.709613 0.128683 0.115195
0.767400 0.146909 0.130532
0.819134 0.162791 0.143821
0.869356 0.178086 0.156599
0.911778 0.191747 0.167881
0.950301 0.204590 0.178416
0.974056 0.215466 0.187012
0.984890 0.224620 0.193913
0.991390 0.230931 0.198695
0.991390 0.232978 0.200301
0.991390 0.234480 0.201803
0.991390 0.234488 0.203017
0.991390 0.234494 0.204174
0.991390 0.234482 0.204963
0.991390 0.234471 0.205752
0.030669 0.025641 0.010462
0.030669 0.025641 0.010462
0.030669 0.025641 0.010462
0.030669 0.025641 0.010462
0.030669 0.025641 0.010462
0.030669 0.025641 0.010462
0.030669 0.025641 0.010462
0.050750 0.025641 0.010462
0.084219 0.025641 0.010462
0.129602 0.025641 0.010462
0.188601 0.025641 0.010462
0.249748 0.025641 0.013517
0.315189 0.025641 0.022684
0.381448 0.029389 0.033225
0.450979 0.048130 0.049265
0.520234 0.067058 0.065384
0.585633 0.088598 0.082617
0.651032 0.110138 0.099850
0.709386 0.128604 0.115346
0.767237 0.146850 0.130717
0.818984 0.162739 0.143965
0.869205 0.178039 0.156681
0.911628 0.191700 0.167944
0.950151 0.204542 0.178482
0.973944 0.215424 0.187082
0.984848 0.224590 0.193989
0.991390 0.230913 0.198765
0.991390 0.232971 0.200347
0.991390 0.234483 0.201827
0.991390 0.234489 0.203027
0.991390 0.234493 0.204173
0.991390 0.234482 0.204962
0.991390 0.234471 0.205752
0.030669 0.025641 0.010462
0.030669 0.025641 0.010462
0.030669 0.025641 0.010462
0.030669 0.025641 0.010462
0.030669 0.025641 0.010462
0.030669 0.025641 0.010462
0.030669 0.025641 0.010462
0.050589 0.025641 0.010462
0.083788 0.025641 0.010462
0.129080 0.025641 0.010462
0.188191 0.025641 0.010462
0.249375 0.025641 0.013503
0.314705 0.025641 0.022627
0.380891 0.029382 0.033146
0.450497 0.048088 0.049246
0.519828 0.066981 0.065423
0.585284 0.088511 0.082694
0.650741 0.110040 0.099965
0.709160 0.128524 0.115496
0.767075 0.146791 0.130903
0.818834 0.162687 0.144108
0.869055 0.177991 0.156763
0.911478 0.191653 0.168007
0.950002 0.204494 0.178547
0.973832 0.215381 0.187153
0.984806 0.224559 0.194065
0.991390 0.230894 0.198835
0.991390 0.232965 0.200393
0.991390 0.234485 0.201852
0.991390 0.234490 0.203038
0.991390 0.234493 0.204172
0.991390 0.234482 0.204962
0.991390 0.234471 0.205752
0.030669 0.025641 0.010462
0.030669 0.025641 0.010462
0.030669 0.025641 0.010462
0.030669 0.025641 0.010462
0.030669 0.025641 0.010462
0.030669 0.025641 0.010462
0.030669 0.025641 0.010462
0.050729 0.025641 0.010462
0.084163 0.025641 0.010462
0.129339 0.025641 0.010462
0.187935 0.025641 0.010462
0.248520 0.025641 0.013319
0.313083 0.025641 0.021889
0.378769 0.029561 0.032053
0.448945 0.049160 0.048593
0.518809 0.068834 0.065198
0.584320 0.089566 0.082729
0.649830 0.110298 0.100261
0.708365 0.128537 0.115996
0.766401 0.146598 0.131603
0.818206 0.162484 0.144820
0.868452 0.177827 0.157439
0.910986 0.191520 0.168565
0.949663 0.204387 0.178944
0.973632 0.215296 0.187450
0.984731 0.224491 0.194316
0.991390 0.230848 0.199037
0.991390 0.232949 0.200537
0.991390 0.234490 0.201941
0.991390 0.234492 0.203077
0.991390 0.234492 0.204168
0.991390 0.234481 0.204960
0.991390 0.234471 0.205752
0.030669 0.025641 0.010462
0.030669 0.025641 0.010462
0.030669 0.025641 0.010462
0.030669 0.025641 0.010462
0.030669 0.025641 0.010462
0.030669 0.025641 0.010462
0.030669 0.025641 0.010462
0.050916 0.025641 0.010462
0.084661 0.025641 0.010462
0.129718 0.025641 0.010462
0.187704 0.025641 0.010462
0.247592 0.025641 0.013108
0.311287 0.025641 0.021047
0.376407 0.029768 0.030805
0.447227 0.050404 0.047842
0.517697 0.070984 0.064933
0.583260 0.090798 0.082758
0.648823 0.110611 0.100584
0.707482 0.128564 0.116550
0.765648 0.146384 0.132383
0.817503 0.162258 0.145619
0.867780 0.177645 0.158207
0.910442 0.191373 0.169199
0.949295 0.204272 0.179392
0.973418 0.215204 0.187782
0.984650 0.224416 0.194595
0.991390 0.230797 0.199258
0.991390 0.232931 0.200697
0.991390 0.234495 0.202040
0.991390 0.234494 0.203121
0.991390 0.234492 0.204163
0.991390 0.234481 0.204958
0.991390 0.234470 0.205753
0.030669 0.025641 0.010462
0.030669 0.025641 0.010462
0.030669 0.025641 0.010462
0.030669 0.025641 0.010462
0.030669 0.025641 0.010462
0.030669 0.025641 0.010462
0.030669 0.025641 0.010462
0.052020 0.028025 0.010462
0.087606 0.031998 0.010462
0.132773 0.035780 0.010462
0.188889 0.039344 0.010462
0.247425 0.042440 0.013028
0.310801 0.044600 0.020725
0.375605 0.049528 0.030244
0.446125 0.065528 0.047051
0.516317 0.081600 0.063943
0.581911 0.098695 0.082036
0.647506 0.115789 0.100128
0.706435 0.131437 0.116776
0.764888 0.146982 0.133320
0.816876 0.162334 0.146930
0.867248 0.177637 0.159808
0.910031 0.191316 0.170683
0.949019 0.204182 0.180556
0.973258 0.215117 0.188669
0.984590 0.224362 0.195241
0.991390 0.230768 0.199698
0.991390 0.232915 0.200982
0.991390 0.234490 0.202191
0.991390 0.234491 0.203192
0.991390 0.234491 0.204166
0.991390 0.234480 0.204962
0.991390 0.234469 0.205759
0.030669 0.025641 0.010462
0.030669 0.025641 0.010462
0.030669 0.025641 0.010462
0.030669 0.025641 0.010462
0.030669 0.025641 0.010462
0.030669 0.025641 0.010462
0.030669 0.025641 0.010462
0.053458 0.031275 0.010462
0.091441 0.040666 0.010462
0.136800 0.049605 0.010462
0.190590 0.058030 0.010462
0.247535 0.065348 0.012994
0.310792 0.070454 0.020592
0.375372 0.076399 0.029932
0.445248 0.085700 0.046244
0.514839 0.095295 0.062691
0.580458 0.109016 0.081040
0.646076 0.122736 0.099389
0.705328 0.135346 0.116882
0.764125 0.147876 0.134314
0.816277 0.162520 0.148427
0.866767 0.177692 0.161711
0.909668 0.191290 0.172476
0.948776 0.204101 0.181980
0.973117 0.215031 0.189757
0.984538 0.224316 0.196021
0.991390 0.230748 0.200218
0.991390 0.232901 0.201314
0.991390 0.234482 0.202361
0.991390 0.234487 0.203273
0.991390 0.234490 0.204171
0.991390 0.234479 0.204969
0.991390 0.234468 0.205768
0.030669 0.052923 0.010462
0.030669 0.052860 0.010462
0.030669 0.052798 0.010462
0.030669 0.052622 0.010462
0.030669 0.052429 0.010462
0.033824 0.052251 0.010462
0.038127 0.052079 0.010462
0.061718 0.057059 0.010462
0.098167 0.065473 0.010462
0.142041 0.075227 0.010976
0.194399 0.086512 0.012078
0.250156 0.096511 0.015581
0.312712 0.103940 0.023888
0.376492 0.111238 0.033594
0.445164 0.118009 0.048891
0.513606 0.124960 0.064338
0.578827 0.134435 0.081889
0.644048 0.143909 0.099440
0.703458 0.152065 0.116681
0.762452 0.160125 0.133899
0.815067 0.170746 0.148640
0.866086 0.182007 0.162761
0.909307 0.193640 0.174056
0.948630 0.205460 0.183937
0.973083 0.215704 0.191668
0.984525 0.224569 0.197518
0.991390 0.230746 0.201291
0.991390 0.232888 0.201950
0.991390 0.234463 0.202650
0.991390 0.234477 0.203462
0.991390 0.234487 0.204266
0.991390 0.234478 0.205021
0.991390 0.234469 0.205776
0.030669 0.098393 0.010462
0.030669 0.098226 0.010462
0.030669 0.098059 0.010462
0.030669 0.097590 0.010462
0.030669 0.097075 0.010462
0.039083 0.096601 0.010462
0.050557 0.096141 0.010462
0.074525 0.097864 0.010462
0.106823 0.101041 0.010462
0.148092 0.108714 0.011833
0.199613 0.121524 0.014771
0.254451 0.133177 0.019915
0.315920 0.142514 0.029471
0.378514 0.151388 0.039904
0.445610 0.158409 0.053841
0.512536 0.165272 0.067918
0.577079 0.169919 0.083968
0.641622 0.174566 0.100018
0.701079 0.177323 0.116273
0.760173 0.179944 0.132544
0.813450 0.184332 0.147995
0.865272 0.189162 0.163242
0.908947 0.197575 0.175494
0.948549 0.207779 0.186247
0.973120 0.216883 0.194127
0.984539 0.225023 0.199493
0.991390 0.230756 0.202735
0.991390 0.232876 0.202790
0.991390 0.234438 0.203018
0.991390 0.234462 0.203722
0.991390 0.234483 0.204423
0.991390 0.234477 0.205103
0.991390 0.234471 0.205783
0.033570 0.149028 0.016407
0.033775 0.148820 0.016377
0.033980 0.148613 0.016347
0.034661 0.148024 0.016257
0.035416 0.147377 0.016157
0.046936 0.146725 0.015989
0.062371 0.146071 0.015796
0.087087 0.145889 0.015919
0.117991 0.146022 0.016253
0.157326 0.151067 0.018184
0.206295 0.161725 0.021942
0.259165 0.172500 0.027768
0.319837 0.183510 0.037729
0.381476 0.193916 0.048271
0.446985 0.201908 0.061134
0.512352 0.209586 0.074113
0.575742 0.212867 0.088733
0.639132 0.216148 0.103352
0.698090 0.216174 0.118241
0.756731 0.215968 0.133148
0.810190 0.215074 0.148114
0.862352 0.214007 0.163095
0.906742 0.216224 0.175457
0.947246 0.220082 0.186509
0.972459 0.224447 0.194854
0.984294 0.229257 0.200830
0.991394 0.232595 0.204304
0.991392 0.233728 0.204024
0.991390 0.234550 0.203902
0.991390 0.234517 0.204212
0.991390 0.234488 0.204563
0.991390 0.234484 0.205182
0.991390 0.234479 0.205801
0.039786 0.205568 0.029145
0.040430 0.205391 0.029052
0.041074 0.205214 0.028959
0.043216 0.204703 0.028674
0.045588 0.204142 0.028360
0.057754 0.203448 0.027832
0.073482 0.202706 0.027227
0.099371 0.202167 0.027614
0.132033 0.201763 0.028662
0.170199 0.203554 0.030816
0.214653 0.207854 0.034233
0.264358 0.214859 0.039644
0.324565 0.227273 0.049045
0.385512 0.239162 0.058989
0.449421 0.248948 0.071105
0.513183 0.258473 0.083297
0.574875 0.264344 0.096568
0.636567 0.270214 0.109838
0.694402 0.270561 0.122922
0.751961 0.270513 0.135993
0.805052 0.265422 0.149106
0.857027 0.259071 0.162231
0.902429 0.251690 0.173735
0.944544 0.243795 0.184430
0.971000 0.239310 0.193601
0.983754 0.237809 0.201439
0.991403 0.236524 0.206019
0.991395 0.235566 0.205711
0.991390 0.234818 0.205375
0.991390 0.234651 0.204965
0.991390 0.234505 0.204686
0.991390 0.234500 0.205259
0.991390 0.234494 0.205832
0.054875 0.264856 0.044847
0.055675 0.264700 0.044737
0.056474 0.264544 0.044628
0.059136 0.264117 0.044300
0.062084 0.263649 0.043940
0.073318 0.262961 0.043265
0.087565 0.262193 0.042476
0.112566 0.261405 0.042883
0.144738 0.260605 0.044089
0.181619 0.260118 0.046122
0.223881 0.259989 0.049100
0.271569 0.263654 0.053815
0.330107 0.274907 0.062002
0.389441 0.286164 0.070841
0.451953 0.297439 0.082288
0.514299 0.308506 0.093770
0.574333 0.316659 0.105742
0.634367 0.324812 0.117714
0.690958 0.326275 0.129372
0.747304 0.327261 0.141007
0.799719 0.320527 0.152342
0.851151 0.311864 0.163602
0.897126 0.298579 0.174004
0.940373 0.282983 0.183978
0.968261 0.270208 0.193057
0.982709 0.259900 0.201353
0.991380 0.251211 0.206279
0.991386 0.244950 0.206151
0.991390 0.239728 0.205897
0.991390 0.237363 0.205302
0.991390 0.235262 0.204853
0.991390 0.234880 0.205359
0.991390 0.234499 0.205864
0.087711 0.329640 0.066477
0.088098 0.329485 0.066445
0.088485 0.329331 0.066413
0.089787 0.328998 0.066346
0.091229 0.328638 0.066274
0.098373 0.328051 0.065877
0.107590 0.327380 0.065362
0.127586 0.326565 0.065304
0.154768 0.325653 0.065551
0.190132 0.324838 0.066777
0.234848 0.324134 0.069121
0.282813 0.325319 0.072573
0.337277 0.330280 0.078240
0.393152 0.336680 0.084960
0.454672 0.348834 0.095896
0.515988 0.360831 0.106822
0.574442 0.370652 0.117596
0.632895 0.380473 0.128371
0.688004 0.384646 0.139359
0.742873 0.388416 0.150363
0.793992 0.385146 0.160066
0.844172 0.380117 0.169443
0.889844 0.368313 0.178254
0.933263 0.353122 0.186781
0.962962 0.333176 0.193932
0.980656 0.309072 0.199879
0.991295 0.287414 0.203634
0.991350 0.269426 0.204098
0.991390 0.253919 0.204517
0.991390 0.245231 0.204806
0.991390 0.237500 0.205110
0.991390 0.235991 0.205504
0.991390 0.234483 0.205899
0.119713 0.394140 0.088520
0.119765 0.393997 0.088550
0.119816 0.393853 0.088579
0.120003 0.393605 0.088722
0.120211 0.393340 0.088882
0.123860 0.392858 0.088734
0.128761 0.392296 0.088475
0.144098 0.391483 0.088024
0.166392 0.390502 0.087446
0.199810 0.389430 0.087923
0.245940 0.388254 0.089607
0.293883 0.387408 0.091928
0.345454 0.387220 0.095525
0.398638 0.389394 0.100408
0.458280 0.401014 0.110436
0.517747 0.412608 0.120447
0.574754 0.423830 0.130207
0.631761 0.435053 0.139967
0.685423 0.441609 0.150348
0.738845 0.447832 0.160774
0.788649 0.447850 0.168951
0.837548 0.446316 0.176565
0.882768 0.436603 0.183894
0.926150 0.422802 0.191080
0.957537 0.398749 0.196396
0.978429 0.365728 0.200077
0.991044 0.334414 0.202449
0.991244 0.305662 0.202856
0.991390 0.279792 0.203315
0.991390 0.261848 0.203915
0.991390 0.245622 0.204519
0.991390 0.240572 0.205151
0.991390 0.235523 0.205783
0.148384 0.457505 0.112214
0.148407 0.457411 0.112243
0.148431 0.457318 0.112272
0.148482 0.457113 0.112420
0.148537 0.456890 0.112587
0.151074 0.456532 0.112574
0.154513 0.456124 0.112496
0.166579 0.455436 0.111943
0.184396 0.454560 0.111074
0.214146 0.453515 0.111037
0.257532 0.452276 0.111949
0.304257 0.451194 0.113668
0.357661 0.450425 0.116998
0.411227 0.450898 0.121169
0.465441 0.456339 0.128701
0.519782 0.462189 0.136364
0.575880 0.473748 0.145845
0.631977 0.485306 0.155326
0.684336 0.492941 0.165347
0.736427 0.500295 0.175407
0.784844 0.502891 0.182482
0.832342 0.504297 0.188812
0.876516 0.499119 0.195099
0.919027 0.490648 0.201364
0.951609 0.474739 0.205218
0.975504 0.452324 0.206963
0.990131 0.424607 0.207108
0.990857 0.388938 0.204854
0.991390 0.352397 0.202830
0.991390 0.313460 0.201440
0.991390 0.277281 0.200538
0.991390 0.259033 0.202803
0.991390 0.240785 0.205067
0.176776 0.520478 0.136090
0.176773 0.520431 0.136118
0.176771 0.520384 0.136146
0.176701 0.520224 0.136299
0.176622 0.520046 0.136471
0.178085 0.519809 0.136587
0.180108 0.519550 0.136683
0.189003 0.518987 0.136055
0.202479 0.518221 0.134944
0.228579 0.517205 0.134428
0.269106 0.515905 0.134593
0.314518 0.514597 0.135724
0.369697 0.513276 0.138791
0.423684 0.512151 0.142277
0.472900 0.511814 0.147444
0.522499 0.512266 0.152871
0.577443 0.523757 0.161938
0.632387 0.535248 0.171005
0.683418 0.543880 0.180679
0.734170 0.552308 0.190396
0.781202 0.557358 0.196449
0.827304 0.561564 0.201586
0.870425 0.560749 0.206841
0.912056 0.557424 0.212153
0.945718 0.549341 0.214574
0.972406 0.537094 0.214463
0.988976 0.513239 0.212473
0.990368 0.471971 0.207666
0.991389 0.426265 0.203229
0.991389 0.368353 0.199813
0.991390 0.313956 0.197309
0.991390 0.282406 0.200735
0.991390 0.250856 0.204160
0.201276 0.577970 0.162519
0.201272 0.577917 0.162548
0.201269 0.577863 0.162578
0.201296 0.577776 0.162708
0.201328 0.577684 0.162854
0.202255 0.577532 0.163021
0.203508 0.577358 0.163197
0.210629 0.576921 0.162863
0.221661 0.576307 0.162190
0.244376 0.575358 0.161709
0.280442 0.574023 0.161447
0.323200 0.572645 0.162217
0.379341 0.571180 0.165052
0.434299 0.569903 0.168244
0.484526 0.569382 0.172869
0.534762 0.569281 0.177635
0.585131 0.575055 0.184395
0.635500 0.580830 0.191156
0.684875 0.589331 0.200664
0.734179 0.598027 0.210369
0.779852 0.603790 0.216506
0.824617 0.608821 0.221751
0.866608 0.609989 0.226104
0.907212 0.609227 0.230011
0.940329 0.604497 0.231394
0.966897 0.596295 0.230568
0.984437 0.580015 0.227734
0.988437 0.551620 0.221887
0.991372 0.517825 0.216011
0.991382 0.469184 0.210052
0.991390 0.420853 0.204619
0.991390 0.374544 0.202600
0.991390 0.328234 0.200580
0.225776 0.635463 0.188947
0.225772 0.635402 0.188978
0.225767 0.635341 0.189009
0.225890 0.635328 0.189117
0.226033 0.635322 0.189237
0.226425 0.635255 0.189455
0.226908 0.635166 0.189710
0.232255 0.634854 0.189672
0.240843 0.634394 0.189437
0.260173 0.633510 0.188991
0.291778 0.632142 0.188302
0.331883 0.630693 0.188710
0.388985 0.629084 0.191313
0.444914 0.627655 0.194212
0.496151 0.626950 0.198293
0.547025 0.626296 0.202400
0.592819 0.626354 0.206853
0.638613 0.626411 0.211307
0.686331 0.634781 0.220650
0.734188 0.643746 0.230342
0.778501 0.650223 0.236563
0.821930 0.656078 0.241915
0.862790 0.659229 0.245367
0.902367 0.661030 0.247869
0.934941 0.659653 0.248215
0.961387 0.655496 0.246674
0.979898 0.646792 0.242995
0.986506 0.631269 0.236109
0.991356 0.609386 0.228792
0.991374 0.570015 0.220291
0.991390 0.527751 0.211929
0.991390 0.466682 0.204464
0.991390 0.405612 0.197000
0.246897 0.686481 0.221522
0.246901 0.686460 0.221573
0.246905 0.686438 0.221624
0.247039 0.686446 0.221843
0.247192 0.686457 0.222087
0.247568 0.686421 0.222514
0.248025 0.686367 0.223009
0.252873 0.686091 0.223283
0.260648 0.685667 0.223410
0.278049 0.684840 0.223130
0.306452 0.683550 0.222383
0.343515 0.682162 0.222383
0.397901 0.680576 0.223875
0.451830 0.679149 0.225785
0.503933 0.678356 0.229365
0.555601 0.677581 0.232967
0.601182 0.677054 0.236876
0.646764 0.676527 0.240784
0.691398 0.681153 0.247923
0.735964 0.686147 0.255294
0.778821 0.691718 0.261527
0.821252 0.697433 0.267476
0.861115 0.701215 0.270518
0.899694 0.704030 0.272108
0.931446 0.704168 0.271625
0.957225 0.701961 0.269326
0.975831 0.696451 0.264552
0.983676 0.685983 0.256063
0.989622 0.670823 0.247350
0.990344 0.642758 0.238022
0.990997 0.611823 0.228729
0.991193 0.562230 0.219656
0.991390 0.512636 0.210583
0.267776 0.737036 0.254535
0.267790 0.737058 0.254608
0.267803 0.737080 0.254681
0.267941 0.737104 0.255019
0.268099 0.737129 0.255398
0.268495 0.737118 0.256046
0.268979 0.737096 0.256792
0.273420 0.736849 0.257381
0.280497 0.736453 0.257864
0.296073 0.735681 0.257759
0.321363 0.734480 0.256981
0.355358 0.733162 0.256568
0.406765 0.731611 0.256887
0.458482 0.730195 0.257759
0.511441 0.729322 0.260841
0.563914 0.728457 0.263950
0.609594 0.727712 0.267438
0.655274 0.726968 0.270927
0.696721 0.727591 0.275717
0.737866 0.728312 0.280600
0.779261 0.732861 0.286841
0.820717 0.738367 0.293421
0.859592 0.742682 0.296090
0.897176 0.746402 0.296804
0.928087 0.747922 0.295505
0.953160 0.747518 0.292446
0.971797 0.744886 0.286558
0.980782 0.738916 0.276426
0.987765 0.730108 0.266321
0.989241 0.713496 0.256289
0.990575 0.694266 0.246206
0.990983 0.658021 0.235800
0.991390 0.621777 0.225393
0.285342 0.780425 0.291940
0.285363 0.780408 0.292026
0.285383 0.780392 0.292111
0.285498 0.780436 0.292452
0.285628 0.780489 0.292832
0.286354 0.780473 0.293460
0.287297 0.780431 0.294177
0.291524 0.780204 0.294822
0.297942 0.779854 0.295419
0.312458 0.779137 0.295427
0.336229 0.778000 0.294762
0.368293 0.776707 0.294099
0.416944 0.775102 0.293441
0.466425 0.773619 0.293441
0.519220 0.772624 0.296078
0.571516 0.771648 0.298759
0.616831 0.770959 0.302069
0.662146 0.770269 0.305379
0.702943 0.770019 0.309242
0.743418 0.769801 0.313143
0.782914 0.772532 0.317983
0.822165 0.776000 0.323057
0.859493 0.779614 0.325573
0.895860 0.783301 0.326810
0.925826 0.785413 0.325377
0.950192 0.786147 0.321607
0.968635 0.785141 0.314853
0.978193 0.781525 0.303626
0.985748 0.775979 0.291968
0.987792 0.765124 0.279126
0.989617 0.752249 0.266509
0.990014 0.726242 0.255351
0.990412 0.700234 0.244194
0.302081 0.822021 0.330442
0.302106 0.821946 0.330538
0.302132 0.821871 0.330635
0.302218 0.821936 0.330949
0.302312 0.822022 0.331297
0.303445 0.821991 0.331843
0.304955 0.821917 0.332462
0.309019 0.821708 0.333099
0.314787 0.821409 0.333749
0.328433 0.820746 0.333855
0.351083 0.819668 0.333339
0.381501 0.818389 0.332467
0.427453 0.816708 0.330880
0.474690 0.815138 0.330051
0.527067 0.814009 0.332256
0.578941 0.812918 0.334526
0.623775 0.812352 0.337717
0.668608 0.811786 0.340908
0.709390 0.811446 0.344198
0.749882 0.811121 0.347495
0.787371 0.811835 0.350582
0.824108 0.812809 0.353615
0.859750 0.815413 0.356034
0.894844 0.818831 0.358144
0.923840 0.821337 0.356746
0.947499 0.823044 0.352277
0.965690 0.823349 0.344721
0.975680 0.821553 0.332535
0.983690 0.818496 0.319284
0.986257 0.811976 0.303106
0.988525 0.804118 0.287517
0.988857 0.787570 0.275755
0.989189 0.771021 0.263992
0.316890 0.859110 0.369476
0.316899 0.859051 0.369581
0.316909 0.858992 0.369686
0.316963 0.859040 0.369984
0.317025 0.859105 0.370313
0.318448 0.859081 0.370791
0.320366 0.859024 0.371325
0.324276 0.858851 0.371926
0.329514 0.858600 0.372572
0.342720 0.857954 0.372664
0.365032 0.856858 0.372125
0.394962 0.855565 0.371116
0.440128 0.853880 0.369169
0.486355 0.852289 0.367887
0.536826 0.851072 0.369271
0.586866 0.849898 0.370758
0.630858 0.849323 0.373684
0.674849 0.848749 0.376611
0.715131 0.848350 0.379525
0.755148 0.847964 0.382439
0.791879 0.847931 0.384841
0.827789 0.847987 0.387115
0.861980 0.849555 0.389133
0.895310 0.851879 0.391024
0.922794 0.853967 0.389726
0.945163 0.855849 0.385638
0.962810 0.856680 0.378435
0.973375 0.855933 0.366562
0.981916 0.854318 0.352845
0.984888 0.850315 0.334054
0.987522 0.845421 0.315775
0.987955 0.834730 0.300824
0.988388 0.824039 0.285874
0.330734 0.893943 0.408775
0.330716 0.893938 0.408888
0.330699 0.893933 0.409001
0.330722 0.893946 0.409289
0.330752 0.893963 0.409604
0.332408 0.893957 0.410022
0.334655 0.893942 0.410476
0.338415 0.893814 0.411027
0.343183 0.893610 0.411641
0.356163 0.892962 0.411665
0.378529 0.891809 0.411014
0.408551 0.890489 0.409906
0.453886 0.888835 0.407882
0.499718 0.887256 0.406338
0.547541 0.885973 0.406706
0.595041 0.884733 0.407222
0.638010 0.884084 0.409811
0.680980 0.883434 0.412400
0.720520 0.882994 0.415038
0.759815 0.882568 0.417680
0.796414 0.882424 0.419931
0.832339 0.882349 0.422085
0.865195 0.882869 0.423552
0.896516 0.883686 0.424675
0.922219 0.884951 0.423510
0.943006 0.886609 0.420342
0.959963 0.887571 0.414072
0.971176 0.887489 0.403149
0.980284 0.886792 0.389528
0.983604 0.884399 0.368485
0.986563 0.881441 0.347658
0.987180 0.874806 0.328227
0.987797 0.868171 0.308796
0.343225 0.922437 0.447389
0.343236 0.922452 0.447486
0.343246 0.922466 0.447584
0.343479 0.922427 0.447831
0.343746 0.922379 0.448100
0.346064 0.922328 0.448415
0.349128 0.922275 0.448746
0.353620 0.922102 0.449173
0.359064 0.921850 0.449664
0.373392 0.921167 0.449523
0.397874 0.919994 0.448658
0.428803 0.918663 0.447461
0.472624 0.917020 0.445598
0.516649 0.915442 0.444068
0.561485 0.914127 0.443873
0.606101 0.912850 0.443838
0.647625 0.912126 0.446053
0.689150 0.911401 0.448268
0.727639 0.910933 0.450723
0.765912 0.910484 0.453195
0.801840 0.910271 0.455353
0.837181 0.910118 0.457432
0.868671 0.910137 0.458640
0.898235 0.910242 0.459413
0.922463 0.910967 0.458465
0.942021 0.912235 0.456012
0.958238 0.913067 0.450639
0.969444 0.913246 0.440885
0.978663 0.913013 0.428289
0.982416 0.911645 0.407875
0.985769 0.909916 0.387050
0.986528 0.905845 0.363551
0.987287 0.901774 0.340052
0.354532 0.945383 0.485402
0.354619 0.945388 0.485464
0.354706 0.945394 0.485527
0.355359 0.945284 0.485704
0.356099 0.945157 0.485900
0.359454 0.945006 0.486076
0.363762 0.944846 0.486244
0.369758 0.944551 0.486483
0.376881 0.944167 0.486770
0.393935 0.943419 0.486379
0.422337 0.942257 0.485211
0.454885 0.940932 0.483935
0.495721 0.939281 0.482439
0.536701 0.937696 0.481170
0.578254 0.936376 0.480805
0.619684 0.935090 0.480586
0.659394 0.934289 0.482394
0.699103 0.933489 0.484203
0.736272 0.933007 0.486558
0.773259 0.932547 0.488952
0.808045 0.932305 0.491066
0.842281 0.932116 0.493110
0.872377 0.932114 0.494315
0.900404 0.932203 0.495100
0.923423 0.932636 0.494444
0.942061 0.933369 0.492526
0.957494 0.933843 0.488019
0.968121 0.933928 0.479627
0.977050 0.933762 0.468869
0.981312 0.932907 0.451603
0.985120 0.931792 0.433012
0.985983 0.928978 0.405806
0.986846 0.926165 0.378599
0.366051 0.960528 0.522097
0.366243 0.960528 0.522123
0.366434 0.960528 0.522150
0.368141 0.960404 0.522231
0.370080 0.960262 0.522321
0.375419 0.960091 0.522311
0.381993 0.959909 0.522264
0.390845 0.959610 0.522237
0.401215 0.959233 0.522224
0.420822 0.958594 0.521651
0.450984 0.957656 0.520438
0.483594 0.956581 0.519272
0.521098 0.955236 0.518199
0.558744 0.953943 0.517274
0.596958 0.952860 0.516937
0.635128 0.951794 0.516717
0.672661 0.950975 0.518137
0.710194 0.950157 0.519557
0.745928 0.949627 0.521792
0.781534 0.949118 0.524085
0.814845 0.948848 0.526138
0.847583 0.948638 0.528131
0.876137 0.948591 0.529360
0.902599 0.948624 0.530208
0.924382 0.948833 0.529810
0.942071 0.949196 0.528322
0.956790 0.949442 0.524693
0.967054 0.949513 0.517853
0.975803 0.949456 0.508929
0.980388 0.949046 0.494273
