luts/sad_warm.cube
LUT_3D_SIZE 5
0.030669 0.025641 0.010462
0.084650 0.025641 0.010462
0.585982 0.088686 0.082540
0.974056 0.215466 0.187012
0.991390 0.234471 0.205752
0.030669 0.098393 0.010462
0.106823 0.101041 0.010462
0.577079 0.169919 0.083968
0.973120 0.216883 0.194127
0.991390 0.234471 0.205783
0.201276 0.577970 0.162519
0.221661 0.576307 0.162190
0.585131 0.575055 0.184395
0.940329 0.604497 0.231394
0.991390 0.328234 0.200580
0.343225 0.922437 0.447389
0.359064 0.921850 0.449664
0.647625 0.912126 0.446053
0.922463 0.910967 0.458465
0.987287 0.901774 0.340052
0.572332 0.966497 0.704649
0.620027 0.966497 0.705391
0.772715 0.964847 0.710345
0.931276 0.964213 0.720356
0.983829 0.964989 0.694908
0.030669 0.025641 0.010462
0.088025 0.025641 0.031459
0.588346 0.090219 0.154416
0.973951 0.215501 0.239515
0.991390 0.234490 0.206147
0.030669 0.089093 0.052031
0.096465 0.086738 0.054218
0.583722 0.126304 0.138883
0.973877 0.215415 0.226130
0.991390 0.234472 0.205950
0.198767 0.572318 0.233020
0.208982 0.572748 0.215669
0.580937 0.569157 0.230620
0.942106 0.578250 0.265603
0.991390 0.301368 0.208659
0.341553 0.919037 0.498502
0.350808 0.919719 0.483570
0.631255 0.910012 0.477957
0.920798 0.907979 0.491749
0.986893 0.894251 0.371016
0.571586 0.966497 0.728856
0.605292 0.966497 0.722206
0.763697 0.964903 0.726203
0.928790 0.964076 0.737070
0.983512 0.964752 0.716595
0.030669 0.025641 0.387359
0.127291 0.025641 0.398057
0.593794 0.106890 0.457974
0.971172 0.219850 0.558674
0.991390 0.236574 0.481116
0.030669 0.037440 0.403083
0.083616 0.025641 0.401398
0.592994 0.107254 0.460591
0.971900 0.219978 0.551955
0.991390 0.236392 0.470512
0.193014 0.551216 0.493505
0.197621 0.548702 0.493314
0.566798 0.531813 0.499689
0.947245 0.482358 0.543591
0.991390 0.272371 0.526541
0.336229 0.903165 0.671006
0.343403 0.903730 0.663606
0.599714 0.895580 0.648274
0.913764 0.891319 0.663275
0.984687 0.867283 0.615050
0.567955 0.966490 0.822153
0.600755 0.966497 0.817276
0.756823 0.964463 0.818890
0.924542 0.963429 0.831376
0.981712 0.964040 0.830938
0.106560 0.088389 0.829441
0.114967 0.088814 0.830823
0.638639 0.149935 0.850416
0.968919 0.233931 0.874662
0.991390 0.251010 0.872151
0.106891 0.088724 0.830943
0.107175 0.088420 0.829649
0.620075 0.146067 0.848589
0.969088 0.234132 0.876306
0.991390 0.250943 0.870651
0.199421 0.534000 0.845955
0.193092 0.511347 0.845483
0.549529 0.441744 0.844941
0.948788 0.392273 0.871545
0.991390 0.252494 0.879080
0.330777 0.879004 0.878117
0.334547 0.878445 0.878298
0.582281 0.867287 0.878298
0.905197 0.860896 0.879934
0.983116 0.844405 0.879934
0.567630 0.965817 0.879934
0.600740 0.964844 0.879934
0.757057 0.961153 0.879934
0.928642 0.958211 0.879934
0.977945 0.957317 0.879934
0.146579 0.127452 0.879934
0.146731 0.127440 0.879934
0.600029 0.164652 0.879934
0.955794 0.239571 0.879934
0.991390 0.260781 0.879934
0.146261 0.127129 0.879934
0.146330 0.127187 0.879934
0.574728 0.160798 0.879934
0.950934 0.238121 0.879934
0.991390 0.260798 0.879934
0.205706 0.510258 0.879934
0.198618 0.482244 0.879934
0.529904 0.440903 0.879934
0.922167 0.416731 0.879934
0.991390 0.275355 0.879934
0.325433 0.855933 0.879934
0.328672 0.852452 0.879934
0.578523 0.840083 0.879934
0.901827 0.851513 0.879934
0.982383 0.838872 0.879934
0.587475 0.958788 0.879934
0.618504 0.957528 0.879934
0.766659 0.953589 0.879934
0.929528 0.950832 0.879934
0.976421 0.950675 0.879934
