luts/warm.cube
LUT_3D_SIZE 33
0.11805259 0.16352776 0.14598681
0.10908960 0.16386981 0.14614996
0.10127349 0.16476689 0.14627290
0.09460300 0.16486192 0.14642641
0.08760086 0.16519323 0.14664593
0.07764332 0.16611196 0.14693776
0.06467237 0.16723201 0.14750262
0.04505275 0.16817495 0.14795557
0.04024303 0.16881233 0.14820230
0.06355472 0.16928071 0.14857656
0.10298987 0.16889453 0.14837952
0.15111719 0.16677809 0.14752120
0.21403705 0.16155030 0.14550465
0.29226977 0.14977123 0.14224900
0.37692922 0.13207200 0.13680395
0.45978278 0.10611371 0.12956566
0.53497905 0.06377719 0.12128428
0.60178542 -0.00036793 0.11208808
0.66181213 -0.00036793 0.10199782
0.71651143 -0.00036793 0.09079344
0.76681131 -0.00036793 0.07799421
0.81290895 -0.00036793 0.06048401
0.85568988 -0.00036793 0.03225521
0.89563763 -0.00036793 0.00679367
0.93286437 -0.00036793 0.00194431
0.96256173 -0.00036793 0.00139820
0.98123991 -0.00036793 0.00049583
0.99476969 -0.00036793 -0.00019870
1.00092661 -0.00036793 -0.00036793
1.00243700 -0.00036793 -0.00036793
1.00394738 -0.00036793 -0.00036793
1.00545776 -0.00036793 -0.00036793
1.00696814 -0.00036793 -0.00036793
0.12025551 0.15644272 0.14429632
0.11157333 0.15704171 0.14409217
0.10383394 0.15793575 0.14414437
0.09768352 0.15856063 0.14409517
0.09108165 0.15928775 0.14418939
0.08167090 0.16074494 0.14442194
0.06952005 0.16252553 0.14496359
0.05529173 0.16445281 0.14566022
0.04899284 0.16607669 0.14612646
0.06873333 0.16746429 0.14661232
0.10428476 0.16806072 0.14673123
0.15137012 0.16705687 0.14620045
0.21384861 0.16282299 0.14472169
0.29178959 0.15153053 0.14188153
0.37650663 0.13405640 0.13650885
0.45939302 0.10875862 0.12931839
0.53470910 0.06695925 0.12093680
0.60154074 0.00114244 0.11165653
0.66157198 0.00114244 0.10160384
0.71636933 0.00114244 0.09037176
0.76670301 0.00114244 0.07739468
0.81281859 0.00114244 0.05917325
0.85563964 0.00114244 0.03045794
0.89560866 0.00114244 0.00686191
0.93283039 0.00114244 0.00190419
0.96252817 0.00114244 0.00131935
0.98121971 0.00114244 0.00040568
0.99476969 0.00114244 -0.00023056
1.00092661 0.00114244 -0.00036793
1.00243700 0.00114244 -0.00036793
1.00394738 0.00114244 -0.00036793
1.00545776 0.00114244 -0.00036793
1.00696814 0.00114244 -0.00036793
0.12271713 0.15060470 0.14260642
0.11376149 0.15130562 0.14239061
0.10622315 0.15185413 0.14238676
0.10073948 0.15190595 0.14208415
0.09494464 0.15226628 0.14181606
0.08600103 0.15417445 0.14180683
0.07626765 0.15670316 0.14216648
0.06445791 0.15963271 0.14293188
0.05763485 0.16255550 0.14363150
0.07231438 0.16502751 0.14419553
0.10559924 0.16665366 0.14463210
0.15174836 0.16674241 0.14436623
0.21336491 0.16355121 0.14306542
0.29117191 0.15416518 0.14076485
0.37570480 0.13684626 0.13599141
0.45860386 0.11153354 0.12890360
0.53418189 0.07118165 0.12054169
0.60109711 0.00592459 0.11117011
0.66123462 0.00265280 0.10107429
0.71611398 0.00265280 0.08979644
0.76649863 0.00265280 0.07652904
0.81263041 0.00265280 0.05811926
0.85550600 0.00265280 0.02886795
0.89551741 0.00265280 0.00455136
0.93276054 0.00265280 0.00183727
0.96251971 0.00265280 0.00118551
0.98118848 0.00265280 0.00024869
0.99475622 0.00265280 -0.00030494
1.00092661 0.00265280 -0.00036793
1.00243700 0.00265280 -0.00036793
1.00394738 0.00265280 -0.00036793
1.00545776 0.00265280 -0.00036793
1.00696814 0.00265280 -0.00036793
0.12390496 0.14576402 0.14150628
0.11523918 0.14669470 0.14091840
0.10712473 0.14716291 0.14105074
0.10151254 0.14727293 0.14087355
0.09724539 0.14663023 0.14012124
0.08942936 0.14794886 0.13977277
0.08044330 0.15057907 0.13977443
0.07177843 0.15431572 0.14006615
0.06641977 0.15818556 0.14086440
0.07840639 0.16170809 0.14146332
0.10669275 0.16451681 0.14197443
0.15145639 0.16584706 0.14170304
0.21187149 0.16466373 0.14064148
0.28939849 0.15766680 0.13813207
0.37379509 0.14086920 0.13488308
0.45682421 0.11530076 0.12849921
0.53274924 0.07845140 0.12014940
0.60009331 0.01000400 0.11067496
0.66041315 0.00416317 0.10033380
0.71543741 0.00416317 0.08897942
0.76596630 0.00416317 0.07571138
0.81224263 0.00416317 0.05658374
0.85517085 0.00416317 0.02591266
0.89523959 0.00416317 0.00418240
0.93259662 0.00416317 0.00162024
0.96251601 0.00416317 0.00083169
0.98117256 0.00416317 0.00001115
0.99475622 0.00416317 -0.00036793
1.00092661 0.00416317 -0.00036793
1.00243700 0.00416317 -0.00036793
1.00394738 0.00416317 -0.00036793
1.00545776 0.00416317 -0.00036793
1.00696814 0.00416317 -0.00036793
0.12535761 0.14098160 0.14037943
0.11771303 0.14202869 0.13933150
0.10871269 0.14279032 0.13934574
0.10283671 0.14287511 0.13941231
0.09758736 0.14334796 0.13921499
0.09234188 0.14329599 0.13842264
0.08434531 0.14498472 0.13792565
0.07678373 0.14820303 0.13767341
0.07371810 0.15271276 0.13763040
0.08246189 0.15749846 0.13821027
0.10766885 0.16192994 0.13863441
0.15022664 0.16506092 0.13852996
0.20958821 0.16579278 0.13728768
0.28647518 0.16187821 0.13458188
0.37108043 0.14965895 0.13066505
0.45417941 0.12346210 0.12635040
0.53069496 0.08875965 0.11896667
0.59842175 0.01785015 0.10971317
0.65911770 0.00567354 0.09926809
0.71436304 0.00567354 0.08769032
0.76514614 0.00567354 0.07409813
0.81161511 0.00567354 0.05341836
0.85461491 0.00567354 0.02483537
0.89478415 0.00567354 0.00291541
0.93225890 0.00567354 0.00117813
0.96251881 0.00567354 0.00035385
0.98115420 0.00567354 -0.00027907
0.99474943 0.00567354 -0.00036793
1.00092661 0.00567354 -0.00036793
1.00243700 0.00567354 -0.00036793
1.00394738 0.00567354 -0.00036793
1.00545776 0.00567354 -0.00036793
1.00696814 0.00567354 -0.00036793
0.12699132 0.13579230 0.13889939
0.12017586 0.13683110 0.13779609
0.11260848 0.13782147 0.13698618
0.10629516 0.13800634 0.13707273
0.10001294 0.13826869 0.13713995
0.09364954 0.13900015 0.13712737
0.08778881 0.14034858 0.13660865
0.07978288 0.14355199 0.13618320
0.07789479 0.14834289 0.13515097
0.08539957 0.15377562 0.13492279
0.10825300 0.15916854 0.13509661
0.14848834 0.16406381 0.13469157
0.20645243 0.16731475 0.13313912
0.28253886 0.16717173 0.13004607
0.36703569 0.16001457 0.12549382
0.45085740 0.14361605 0.11950757
0.52777106 0.11143397 0.11377430
0.59614587 0.04474355 0.10686645
0.65725392 0.00718390 0.09784457
0.71291590 0.00718390 0.08601249
0.76402062 0.00718390 0.07223063
0.81070971 0.00718390 0.05145943
0.85387599 0.00718390 0.01847284
0.89416105 0.00718390 0.00161645
0.93180025 0.00718390 0.00042715
0.96249712 0.00718390 -0.00018291
0.98111939 0.00718390 -0.00036793
0.99473959 0.00718390 -0.00036793
1.00092661 0.00718390 -0.00036793
1.00243700 0.00718390 -0.00036793
1.00394738 0.00718390 -0.00036793
1.00545776 0.00718390 -0.00036793
1.00696814 0.00718390 -0.00036793
0.12843029 0.13135785 0.13741122
0.12253004 0.13242270 0.13610420
0.11557626 0.13354741 0.13472658
0.11014017 0.13418721 0.13428615
0.10625945 0.13446814 0.13413499
0.09850899 0.13519675 0.13431005
0.09180712 0.13618913 0.13439567
0.08507037 0.13894585 0.13419500
0.08089451 0.14330968 0.13351288
0.08809973 0.14975479 0.13211536
0.10905254 0.15655959 0.13149594
0.14698839 0.16348737 0.13072038
0.20345846 0.16935068 0.12874143
0.27774882 0.17325652 0.12476218
0.36195746 0.17174143 0.11938152
0.44629902 0.16255504 0.11206914
0.52429658 0.14440736 0.10410957
0.59354711 0.11262582 0.09582250
0.65513211 0.01204051 0.08999646
0.71107775 0.00921205 0.08205627
0.76258367 0.00869427 0.06876670
0.80957651 0.00869427 0.04308435
0.85292149 0.00869427 0.01487836
0.89335418 0.00869427 0.00027079
0.93126380 0.00869427 -0.00022379
0.96257812 0.00869427 -0.00036793
0.98117322 0.00869427 -0.00036793
0.99473590 0.00869427 -0.00036793
1.00092661 0.00869427 -0.00036793
1.00243700 0.00869427 -0.00036793
1.00394738 0.00869427 -0.00036793
1.00545776 0.00869427 -0.00036793
1.00696814 0.00869427 -0.00036793
0.12879914 0.12883987 0.13614389
0.12426659 0.12987316 0.13472806
0.11814191 0.13109130 0.13290101
0.11258586 0.13214558 0.13114923
0.10926835 0.13272497 0.13064921
0.10520445 0.13338959 0.13052472
0.09854581 0.13416605 0.13073827
0.09183455 0.13519189 0.13097855
0.08578973 0.13952872 0.13104370
0.08991843 0.14600223 0.12962873
0.10943283 0.15412572 0.12774298
0.14505759 0.16309527 0.12627505
0.20022197 0.17211503 0.12392527
0.27317506 0.18023819 0.11947678
0.35726270 0.18402869 0.11290400
0.44172898 0.18207078 0.10385042
0.52014077 0.17179210 0.09389935
0.59023350 0.15412465 0.08289814
0.65255094 0.12399830 0.07036047
0.70905393 0.04857747 0.05694634
0.76087111 0.01286894 0.04717280
0.80811059 0.01024007 0.03853330
0.85170382 0.01020464 0.00624564
0.89242709 0.01020464 -0.00031212
0.93062836 0.01020464 -0.00036793
0.96265244 0.01020464 -0.00036793
0.98123997 0.01020464 -0.00036793
0.99476969 0.01020464 -0.00036793
1.00092661 0.01020464 -0.00036793
1.00243700 0.01020464 -0.00036793
1.00394738 0.01020464 -0.00036793
1.00545776 0.01020464 -0.00036793
1.00696814 0.01020464 -0.00036793
0.12807754 0.13090643 0.13518235
0.12460637 0.13186362 0.13392708
0.11965699 0.13304806 0.13201651
0.11450632 0.13428447 0.12986808
0.11093556 0.13544065 0.12829566
0.10783811 0.13644385 0.12687099
0.10428615 0.13714805 0.12608725
0.10031632 0.13781920 0.12632306
0.09509093 0.13849691 0.12666209
0.09295994 0.14336613 0.12678529
0.10915294 0.15341976 0.12488180
0.14228028 0.16385853 0.12157270
0.19567217 0.17600979 0.11837447
0.26731974 0.18879238 0.11319064
0.35154185 0.19806463 0.10533262
0.43676573 0.20160702 0.09469168
0.51592529 0.19804616 0.08201061
0.58693898 0.18813613 0.06510726
0.64965206 0.17127392 0.04257672
0.70645982 0.14584644 0.01599335
0.75880617 0.09174487 0.00391293
0.80667871 0.01682357 -0.00006425
0.85055566 0.01446648 -0.00025500
0.89138311 0.01171499 -0.00036793
0.92984396 0.01171499 -0.00036793
0.96263254 0.01171499 -0.00036793
0.98132724 0.01171499 -0.00036793
0.99477303 0.01171499 -0.00036793
1.00092661 0.01171499 -0.00036793
1.00243700 0.01171499 -0.00036793
1.00394738 0.01171499 -0.00036793
1.00545776 0.01171499 -0.00036793
1.00696814 0.01171499 -0.00036793
0.12539990 0.14059711 0.13555288
0.12284686 0.14149554 0.13429876
0.11914741 0.14259370 0.13239998
0.11483060 0.14380552 0.13026930
0.11123702 0.14541069 0.12809473
0.10797638 0.14711264 0.12614360
0.10355380 0.14870076 0.12196167
0.10267598 0.14910719 0.12058751
0.10371812 0.14920487 0.12086801
0.10383794 0.14921120 0.12129278
0.10913700 0.15360823 0.12139817
0.13984907 0.16793942 0.11852068
0.19017877 0.18243882 0.11278659
0.25954738 0.19968408 0.10640775
0.34402812 0.21452108 0.09638432
0.42997673 0.22342363 0.08356579
0.51075900 0.22534320 0.06419677
0.58313674 0.22110987 0.03697115
0.64658725 0.21098486 0.01134106
0.70391250 0.19472554 -0.00036793
0.75640565 0.17257492 -0.00036793
0.80486023 0.13264818 -0.00036793
0.84921974 0.03322531 -0.00036793
0.89045501 0.01840255 -0.00036793
0.92898941 0.01551516 -0.00036793
0.96205854 0.01322553 -0.00036793
0.98138660 0.01322536 -0.00036793
0.99480337 0.01322536 -0.00036793
1.00092661 0.01322536 -0.00036793
1.00243700 0.01322536 -0.00036793
1.00394738 0.01322536 -0.00036793
1.00545776 0.01322536 -0.00036793
1.00696814 0.01322536 -0.00036793
0.11953106 0.16158113 0.13821584
0.11781297 0.16243625 0.13693792
0.11505883 0.16348374 0.13532163
0.11145097 0.16470078 0.13330117
0.10818569 0.16644785 0.13102868
0.10579187 0.16860522 0.12901896
0.10275406 0.17065515 0.12598032
0.09643542 0.17268910 0.11927284
0.09869483 0.17292413 0.11322796
0.11064586 0.17194319 0.11354095
0.12149124 0.17091085 0.11389884
0.13633777 0.17348978 0.11372762
0.18456545 0.19316076 0.10920747
0.25165319 0.21388754 0.09924781
0.33442551 0.23391637 0.08622976
0.42138150 0.24826935 0.06927960
0.50393659 0.25528181 0.02988066
0.57815635 0.25431919 0.00644373
0.64314067 0.24738315 -0.00036793
0.70128947 0.23572522 -0.00036793
0.75435275 0.21975201 -0.00036793
0.80289990 0.20007934 -0.00036793
0.84749144 0.16841307 -0.00036793
0.88912314 0.11525711 -0.00036793
0.92808497 0.02157331 -0.00036793
0.96177047 0.01925994 -0.00036793
0.98148459 0.01548523 -0.00036793
0.99483025 0.01473573 -0.00036793
1.00092661 0.01473573 -0.00036793
1.00243700 0.01473573 -0.00036793
1.00394738 0.01473573 -0.00036793
1.00545776 0.01473573 -0.00036793
1.00696814 0.01473573 -0.00036793
0.10687535 0.19694509 0.14522091
0.10577659 0.19759284 0.14421265
0.10398772 0.19847852 0.14292398
0.10053514 0.19963920 0.14080554
0.09724842 0.20136096 0.13892186
0.09449170 0.20429815 0.13764533
0.09296782 0.20692942 0.13611200
0.08848052 0.20979491 0.13234043
0.07000157 0.21310265 0.11555208
0.09532000 0.21237911 0.10276765
0.12592444 0.20944159 0.10302058
0.15102743 0.20630804 0.10331701
0.17599212 0.20590536 0.10288077
0.24346785 0.23256272 0.09295972
0.32450280 0.25652450 0.07617752
0.41106486 0.27492848 0.04778681
0.49566007 0.28598326 0.01052267
0.57199395 0.28923592 -0.00036793
0.63868231 0.28538102 -0.00036793
0.69788039 0.27675056 -0.00036793
0.75180668 0.26392177 -0.00036793
0.80094904 0.24779886 -0.00036793
0.84578490 0.22916302 -0.00036793
0.88750786 0.20186216 -0.00036793
0.92678159 0.16074975 -0.00036793
0.96126920 0.07155788 -0.00036793
0.98188931 0.02282485 -0.00036793
0.99491090 0.01990668 -0.00036793
1.00092661 0.01798210 -0.00036793
1.00243700 0.01798210 -0.00036793
1.00394738 0.01798210 -0.00036793
1.00545776 0.01798210 -0.00036793
1.00696814 0.01798210 -0.00036793
0.07591476 0.24916598 0.15966135
0.07544828 0.24946237 0.15911345
0.07384434 0.24998014 0.15829173
0.06960157 0.25076506 0.15691757
0.06150560 0.25187668 0.15546334
0.05172109 0.25501263 0.15441218
0.05157467 0.25824675 0.15318003
0.04722957 0.26122707 0.15111475
0.02594432 0.26551211 0.14100543
0.02421691 0.26962039 0.10763870
0.08520994 0.26780662 0.08628634
0.15523335 0.26337296 0.08579326
0.19667572 0.25849235 0.08521593
0.23396699 0.25542501 0.08364743
0.31369808 0.28300464 0.06541071
0.40121806 0.30560791 0.01407313
0.48595822 0.31978822 -0.00036793
0.56412494 0.32614368 -0.00036793
0.63307518 0.32515436 -0.00036793
0.69358188 0.31842059 -0.00036793
0.74851680 0.30809110 -0.00036793
0.79844677 0.29437163 -0.00036793
0.84395689 0.27800658 -0.00036793
0.88590604 0.25957650 -0.00036793
0.92527014 0.23522861 -0.00036793
0.96032292 0.20097098 -0.00036793
0.98205745 0.15970150 -0.00036793
0.99497813 0.07870653 -0.00036793
1.00092661 0.04839236 -0.00036793
1.00243700 0.04839236 -0.00036793
1.00394738 0.04839236 -0.00036793
1.00545776 0.04839236 -0.00036793
1.00696814 0.04839236 -0.00036793
0.00006891 0.31584156 0.18264377
0.00158336 0.31605011 0.18217860
0.00310203 0.31637031 0.18169099
0.00463260 0.31666052 0.18104738
0.00617554 0.31744862 0.17975718
0.00718390 0.32013148 0.17893943
0.00869427 0.32455972 0.17701234
0.01020464 0.32884306 0.17399244
0.01171499 0.33294779 0.16837592
0.01515485 0.33681554 0.15196113
0.02167097 0.34063104 0.09326349
0.09929226 0.33659205 0.05221107
0.19999243 0.32994640 0.05199975
0.25646698 0.32267487 0.05249245
0.30497363 0.31744492 0.04402737
0.38947269 0.34017777 0.00092874
0.47648457 0.35851288 -0.00036793
0.55526614 0.36651340 -0.00036793
0.62592787 0.36720738 -0.00036793
0.68820477 0.36197770 -0.00036793
0.74433500 0.35283956 -0.00036793
0.79522812 0.34067285 -0.00036793
0.84155530 0.32597551 -0.00036793
0.88411075 0.30910760 -0.00036793
0.92372417 0.29108453 -0.00036793
0.95919365 0.26903713 -0.00036793
0.98206484 0.24190696 -0.00036793
0.99500501 0.20932220 -0.00036793
1.00092661 0.19366221 -0.00036793
1.00243700 0.19366221 -0.00036793
1.00394738 0.19366221 -0.00036793
1.00545776 0.19366221 -0.00036793
1.00696814 0.19366221 -0.00036793
-0.00036793 0.39148664 0.21191271
0.00114244 0.39167681 0.21164094
0.00265280 0.39192957 0.21114391
0.00416317 0.39215007 0.21044967
0.00567354 0.39252740 0.20939894
0.00718390 0.39441779 0.20797589
0.00869427 0.39858148 0.20557541
0.01020464 0.40281799 0.20236504
0.01171499 0.40700087 0.19706745
0.01322536 0.41043007 0.18813813
0.01737264 0.41298574 0.16718410
0.02467236 0.41711783 0.06057686
0.14260539 0.41125882 0.00195598
0.25285798 0.40275910 -0.00036793
0.32173479 0.39386371 -0.00036793
0.38067406 0.38575065 -0.00036793
0.46424532 0.40114614 -0.00036793
0.54651988 0.41158351 -0.00036793
0.61790001 0.41277856 -0.00036793
0.68146509 0.40812084 -0.00036793
0.73908514 0.39952102 -0.00036793
0.79123604 0.38792729 -0.00036793
0.83849490 0.37415433 -0.00036793
0.88175011 0.35832080 -0.00036793
0.92192721 0.34108099 -0.00036793
0.95795298 0.32373011 -0.00036793
0.98195642 0.30548906 -0.00036793
0.99499524 0.28195232 -0.00036793
1.00092661 0.27082941 -0.00036793
1.00243700 0.27082941 -0.00036793
1.00394738 0.27082941 -0.00036793
1.00545776 0.27082941 -0.00036793
1.00696814 0.27082941 -0.00036793
-0.00036793 0.46670210 0.24375774
0.00114244 0.46684623 0.24340752
0.00265280 0.46713454 0.24296862
0.00416317 0.46739095 0.24235487
0.00567354 0.46778113 0.24128096
0.00718390 0.46888363 0.23978212
0.00869427 0.47209221 0.23729949
0.01020464 0.47593230 0.23393074
0.01171499 0.47988698 0.22898975
0.01322536 0.48354888 0.22108901
0.01509470 0.48611349 0.20924698
0.02109179 0.48955068 0.16949564
0.02771440 0.49216309 -0.00036793
0.19061483 0.48443702 -0.00036793
0.30822128 0.47514081 -0.00036793
0.38861245 0.46508715 -0.00036793
0.45542085 0.45554349 -0.00036793
0.53452754 0.46091968 -0.00036793
0.60960090 0.46274120 -0.00036793
0.67444897 0.45771813 -0.00036793
0.73270714 0.44879407 -0.00036793
0.78611422 0.43716520 -0.00036793
0.83458930 0.42335391 -0.00036793
0.87883437 0.40779111 -0.00036793
0.91962522 0.39103174 -0.00036793
0.95644504 0.37394023 -0.00036793
0.98161650 0.35915893 -0.00036793
0.99491090 0.34243125 -0.00036793
1.00092661 0.33436674 -0.00036793
1.00243700 0.33436674 -0.00036793
1.00394738 0.33436674 -0.00036793
1.00545776 0.33436674 -0.00036793
1.00696814 0.33436674 -0.00036793
-0.00036793 0.53739691 0.27594161
0.00114244 0.53752112 0.27563584
0.00265280 0.53772098 0.27512684
0.00416317 0.53795248 0.27445650
0.00567354 0.53832889 0.27337661
0.00718390 0.53906399 0.27186254
0.00869427 0.54130137 0.26919681
0.01020464 0.54468596 0.26580060
0.01171499 0.54812795 0.26057360
0.01322536 0.55147076 0.25363612
0.01473573 0.55445027 0.24349570
0.01771680 0.55693519 0.22661409
0.02487299 0.56076002 0.15898219
0.03073877 0.56118768 -0.00036793
0.23961008 0.55239916 -0.00036793
0.36236036 0.54267353 -0.00036793
0.45067900 0.53219008 -0.00036793
0.52410793 0.52155757 -0.00036793
0.59775507 0.51734257 -0.00036793
0.66669643 0.51170570 -0.00036793
0.72616613 0.50148618 -0.00036793
0.78016210 0.48890859 -0.00036793
0.82966918 0.47459146 -0.00036793
0.87506777 0.45871466 -0.00036793
0.91668135 0.44181395 -0.00036793
0.95446706 0.42451727 -0.00036793
0.98108685 0.40923464 -0.00036793
0.99481684 0.39633572 -0.00036793
1.00092661 0.39133725 -0.00036793
1.00243700 0.39133725 -0.00036793
1.00394738 0.39133725 -0.00036793
1.00545776 0.39133725 -0.00036793
1.00696814 0.39133725 -0.00036793
-0.00036793 0.60120934 0.30607480
0.00114244 0.60134214 0.30578575
0.00265280 0.60150218 0.30534548
0.00416317 0.60174447 0.30471629
0.00567354 0.60212368 0.30361411
0.00718390 0.60260743 0.30215749
0.00869427 0.60396451 0.29964441
0.01020464 0.60670501 0.29591334
0.01171499 0.60975415 0.29107761
0.01322536 0.61271137 0.28417522
0.01473573 0.61544222 0.27498576
0.01624610 0.61773366 0.26247969
0.01978350 0.61896932 0.24358092
0.02826348 0.62400013 0.13442396
0.03373703 0.62194544 -0.00036793
0.28872284 0.61274683 -0.00036793
0.41339868 0.60271698 -0.00036793
0.50590688 0.59206218 -0.00036793
0.58370531 0.58093590 -0.00036793
0.65476328 0.57092321 -0.00036793
0.71883583 0.55891114 -0.00036793
0.77390224 0.54418516 -0.00036793
0.82406753 0.52842742 -0.00036793
0.87030196 0.51178128 -0.00036793
0.91297513 0.49410120 -0.00036793
0.95213473 0.47617489 -0.00036793
0.98028934 0.46027568 -0.00036793
0.99466997 0.44669139 -0.00036793
1.00092661 0.44137371 -0.00036793
1.00243700 0.44137371 -0.00036793
1.00394738 0.44137371 -0.00036793
1.00545776 0.44137371 -0.00036793
1.00696814 0.44137371 -0.00036793
-0.00036793 0.65827650 0.33388421
0.00114244 0.65839523 0.33355761
0.00265280 0.65857887 0.33306974
0.00416317 0.65876317 0.33240229
0.00567354 0.65908581 0.33143622
0.00718390 0.65956408 0.33014673
0.00869427 0.66037774 0.32790852
0.01020464 0.66232729 0.32442093
0.01171499 0.66487664 0.31937465
0.01322536 0.66752654 0.31304812
0.01473573 0.67009878 0.30478454
0.01624610 0.67249084 0.29233560
0.01775646 0.67407697 0.28269941
0.02294251 0.67573929 0.24907967
0.03148586 0.68046004 0.09320744
0.04800200 0.67649001 -0.00036793
0.33783585 0.66712272 -0.00036793
0.46126890 0.65713114 -0.00036793
0.55609566 0.64636415 -0.00036793
0.63684976 0.63501674 -0.00036793
0.70713353 0.62178302 -0.00036793
0.76661205 0.60409725 -0.00036793
0.81795019 0.58579743 -0.00036793
0.86491573 0.56733084 -0.00036793
0.90835011 0.54876494 -0.00036793
0.94893694 0.52989769 -0.00036793
0.97918534 0.51294243 -0.00036793
0.99424523 0.49853283 -0.00036793
1.00092661 0.49309447 -0.00036793
1.00243700 0.49309447 -0.00036793
1.00394738 0.49309447 -0.00036793
1.00545776 0.49309447 -0.00036793
1.00696814 0.49309447 -0.00036793
-0.00036793 0.71047014 0.35990101
0.00114244 0.71057093 0.35961917
0.00265280 0.71075362 0.35913730
0.00416317 0.71095395 0.35852787
0.00567354 0.71125787 0.35752839
0.00718390 0.71169353 0.35623622
0.00869427 0.71234536 0.35409051
0.01020464 0.71352297 0.35121942
0.01171499 0.71576256 0.34656119
0.01322536 0.71816981 0.34041154
0.01473573 0.72053611 0.33275989
0.01624610 0.72278279 0.32249841
0.01775646 0.72491527 0.30815062
0.01988335 0.72585219 0.29763803
0.02782241 0.72957647 0.23038717
0.03460941 0.73188871 0.03226781
0.17835408 0.72573620 -0.00036793
0.38769227 0.71652895 -0.00036793
0.50721604 0.70673847 -0.00036793
0.60291344 0.69625771 -0.00036793
0.68513989 0.68497390 -0.00036793
0.75505990 0.66974360 -0.00036793
0.81045192 0.64762491 -0.00036793
0.85886902 0.62629867 -0.00036793
0.90310973 0.60581708 -0.00036793
0.94425476 0.58612883 -0.00036793
0.97715425 0.56805676 -0.00036793
0.99390215 0.55291092 -0.00036793
1.00092661 0.54712421 -0.00036793
1.00243700 0.54712421 -0.00036793
1.00394738 0.54712421 -0.00036793
1.00545776 0.54712421 -0.00036793
1.00696814 0.54712421 -0.00036793
-0.00036793 0.75862479 0.38441199
0.00114244 0.75871432 0.38411030
0.00265280 0.75884515 0.38368732
0.00416317 0.75904757 0.38310179
0.00567354 0.75936151 0.38214415
0.00718390 0.75977910 0.38080481
0.00869427 0.76035863 0.37883076
0.01020464 0.76113445 0.37639692
0.01171499 0.76280767 0.37211123
0.01322536 0.76497060 0.36636192
0.01473573 0.76711488 0.35901985
0.01624610 0.76920527 0.34974360
0.01775646 0.77119738 0.33752471
0.01926683 0.77296335 0.32573479
0.02178532 0.77288562 0.31159469
0.03165373 0.77794725 0.21065930
0.03765053 0.77824789 0.02082696
0.26300633 0.77060640 -0.00036793
0.43663776 0.76152933 -0.00036793
0.55153084 0.75188988 -0.00036793
0.64613885 0.74169821 -0.00036793
0.72885102 0.73086601 -0.00036793
0.79909676 0.71510094 -0.00036793
0.85110545 0.68959135 -0.00036793
0.89695561 0.66601396 -0.00036793
0.93888080 0.64448494 -0.00036793
0.97359359 0.62544715 -0.00036793
0.99346519 0.60983396 -0.00036793
1.00092661 0.60376740 -0.00036793
1.00243700 0.60376740 -0.00036793
1.00394738 0.60376740 -0.00036793
1.00545776 0.60376740 -0.00036793
1.00696814 0.60376740 -0.00036793
-0.00036793 0.80305290 0.40730345
0.00114244 0.80314600 0.40696666
0.00265280 0.80326146 0.40654463
0.00416317 0.80346400 0.40600085
0.00567354 0.80374819 0.40505320
0.00718390 0.80414128 0.40375042
0.00869427 0.80472434 0.40185291
0.01020464 0.80539113 0.39958262
0.01171499 0.80629772 0.39653623
0.01322536 0.80826008 0.39071500
0.01473573 0.81022829 0.38399291
0.01624610 0.81215036 0.37529051
0.01775646 0.81404585 0.36473924
0.01926683 0.81575978 0.35035357
0.02077720 0.81688488 0.34122497
0.02626994 0.81827164 0.30519885
0.03510708 0.82182503 0.19145992
0.04062000 0.81952429 0.02133584
0.33724609 0.81148165 -0.00036793
0.48577794 0.80269527 -0.00036793
0.59509468 0.79337949 -0.00036793
0.68706268 0.78357226 -0.00036793
0.76915079 0.77315986 -0.00036793
0.83951360 0.75802487 -0.00036793
