luts/warm.cube
LUT_3D_SIZE 9
0.11805259 0.16352776 0.14598681
0.08760086 0.16519323 0.14664593
0.04024303 0.16881233 0.14820230
0.21403705 0.16155030 0.14550465
0.53497905 0.06377719 0.12128428
0.76681131 -0.00036793 0.07799421
0.93286437 -0.00036793 0.00194431
1.00092661 -0.00036793 -0.00036793
1.00696814 -0.00036793 -0.00036793
0.12535761 0.14098160 0.14037943
0.09758736 0.14334796 0.13921499
0.07371810 0.15271276 0.13763040
0.20958821 0.16579278 0.13728768
0.53069496 0.08875965 0.11896667
0.76514614 0.00567354 0.07409813
0.93225890 0.00567354 0.00117813
1.00092661 0.00567354 -0.00036793
1.00696814 0.00567354 -0.00036793
0.12807754 0.13090643 0.13518235
0.11093556 0.13544065 0.12829566
0.09509093 0.13849691 0.12666209
0.19567217 0.17600979 0.11837447
0.51592529 0.19804616 0.08201061
0.75880617 0.09174487 0.00391293
0.92984396 0.01171499 -0.00036793
1.00092661 0.01171499 -0.00036793
1.00696814 0.01171499 -0.00036793
0.07591476 0.24916598 0.15966135
0.06150560 0.25187668 0.15546334
0.02594432 0.26551211 0.14100543
0.19667572 0.25849235 0.08521593
0.48595822 0.31978822 -0.00036793
0.74851680 0.30809110 -0.00036793
0.92527014 0.23522861 -0.00036793
1.00092661 0.04839236 -0.00036793
1.00696814 0.04839236 -0.00036793
-0.00036793 0.53739691 0.27594161
0.00567354 0.53832889 0.27337661
0.01171499 0.54812795 0.26057360
0.02487299 0.56076002 0.15898219
0.45067900 0.53219008 -0.00036793
0.72616613 0.50148618 -0.00036793
0.91668135 0.44181395 -0.00036793
1.00092661 0.39133725 -0.00036793
1.00696814 0.39133725 -0.00036793
-0.00036793 0.75862479 0.38441199
0.00567354 0.75936151 0.38214415
0.01171499 0.76280767 0.37211123
0.01775646 0.77119738 0.33752471
0.03765053 0.77824789 0.02082696
0.64613885 0.74169821 -0.00036793
0.89695561 0.66601396 -0.00036793
1.00092661 0.60376740 -0.00036793
1.00696814 0.60376740 -0.00036793
-0.00036793 0.91958141 0.46822906
0.00567354 0.92012268 0.46619976
0.01171499 0.92221320 0.45841920
0.01775646 0.92715681 0.43586493
0.02379793 0.93105561 0.38959381
0.43237847 0.92125791 0.28861707
0.80418164 0.89308518 0.25949353
0.98841512 0.84469712 0.24374309
0.99445659 0.84469712 0.24374309
-0.00036793 1.00092661 0.50341266
0.00567354 1.00092661 0.50323331
0.01171499 1.00092661 0.50225753
0.01775646 1.00092661 0.49226332
0.02379793 1.00092661 0.45343950
0.40760624 1.00092661 0.47304755
0.75472862 1.00073457 0.53034604
0.95494509 0.99834764 0.55283797
0.97049308 0.99833179 0.55511129
-0.00036793 1.00696814 0.50341266
0.00567354 1.00696814 0.50323331
0.01171499 1.00696814 0.50225753
0.01775646 1.00696814 0.49226332
0.02379793 1.00696814 0.45343950
0.40760624 1.00696814 0.47304755
0.75472862 1.00677598 0.53034604
0.95494509 1.00438905 0.55283797
0.97049308 1.00437319 0.55511129
0.11729631 0.16420025 0.13162133
0.08987422 0.16272667 0.13336247
0.07263313 0.15669961 0.13849054
0.22659418 0.13230106 0.13482071
0.54030657 -0.00036793 0.11401643
0.76900643 -0.00036793 0.06759642
0.93428129 -0.00036793 0.00779685
1.00092661 -0.00036793 0.00567354
1.00696814 -0.00036793 0.00567354
0.11985028 0.14241560 0.12787504
0.09781613 0.14357997 0.12831573
0.08431676 0.14582847 0.12937143
0.22228873 0.14318843 0.13106270
0.53724372 0.00869953 0.11263414
0.76741451 0.00567354 0.06338918
0.93342650 0.00567354 0.00687200
1.00092661 0.00567354 0.00567354
1.00696814 0.00567354 0.00567354
0.11984853 0.13270693 0.13024451
0.10517465 0.13654056 0.12616809
0.09443671 0.13904399 0.12227150
0.20536588 0.16767299 0.11677898
0.52356488 0.17506927 0.08518590
0.76165801 0.01907432 0.00837792
0.93086886 0.01171499 0.00567354
1.00092661 0.01171499 0.00567354
1.00696814 0.01171499 0.00567354
0.05008602 0.24972260 0.16956608
0.03232311 0.25435275 0.16672042
0.02190512 0.26499104 0.15471113
0.19743694 0.25994012 0.08967243
0.49176776 0.31508303 0.00567354
0.75176233 0.29572612 0.00567354
0.92710435 0.21606414 0.00567354
1.00092661 0.03687277 0.00567354
1.00696814 0.03687277 0.00567354
-0.00036793 0.53818905 0.29852173
0.00567354 0.53947031 0.29624236
0.01171499 0.54971421 0.28133747
0.02353862 0.56047118 0.18922988
0.45138052 0.53312236 0.00567354
0.72892457 0.49754527 0.00567354
0.91849864 0.43431872 0.00567354
1.00092661 0.38125759 0.00567354
1.00696814 0.38125759 0.00567354
-0.00036793 0.75948822 0.41006190
0.00567354 0.76018274 0.40789938
0.01171499 0.76397169 0.39732862
0.01775646 0.77164561 0.35641623
0.03734139 0.77879679 0.04518906
0.64670271 0.74199682 0.00567354
0.89838427 0.66359180 0.00567354
1.00092661 0.59994733 0.00567354
1.00696814 0.59994733 0.00567354
-0.00036793 0.92025566 0.49319306
0.00567354 0.92079550 0.49122119
0.01171499 0.92282397 0.48407710
0.01775646 0.92767191 0.45903379
0.02379793 0.93122679 0.39954004
0.43262058 0.92132533 0.30064246
0.80494899 0.89306879 0.27189150
0.98861247 0.84374607 0.25520477
0.99465394 0.84374607 0.25520477
-0.00036793 1.00092661 0.52702510
0.00567354 1.00092661 0.52619725
0.01171499 1.00092661 0.52325106
0.01775646 1.00092661 0.51734501
0.02379793 1.00092661 0.47338268
0.40467346 1.00092661 0.49374452
0.75863159 1.00065982 0.55374372
0.95615059 0.99836040 0.57115591
0.97127420 0.99836040 0.57323015
-0.00036793 1.00696814 0.52702510
0.00567354 1.00696814 0.52619725
0.01171499 1.00696814 0.52325106
0.01775646 1.00696814 0.51734501
0.02379793 1.00696814 0.47338268
0.40467346 1.00696814 0.49374452
0.75863159 1.00670123 0.55374372
0.95615059 1.00440180 0.57115591
0.97127420 1.00440180 0.57323015
0.11565661 0.16453397 0.11992141
0.09515122 0.16215408 0.12063407
0.08356485 0.15574835 0.13519570
0.25251263 0.10292489 0.15379259
0.56417614 -0.00036793 0.10666943
0.78066546 -0.00036793 0.03457543
0.93893522 -0.00036793 0.01179872
1.00092661 -0.00036793 0.01171499
1.00696814 -0.00036793 0.01171499
0.11107665 0.14918096 0.12018254
0.09792691 0.14536558 0.12100749
0.09149186 0.14349999 0.12894639
0.24972849 0.10439165 0.14681378
0.56106442 0.00567354 0.10132410
0.77851087 0.00567354 0.03805400
0.93856788 0.00567354 0.01171499
1.00092661 0.00567354 0.01171499
1.00696814 0.00567354 0.01171499
0.11157173 0.13832241 0.12504104
0.10044198 0.13937968 0.12509975
0.09362261 0.13836789 0.12233458
0.23026836 0.12595953 0.11907550
0.54644030 0.01171499 0.09674477
0.77308929 0.01171499 0.01812930
0.93709868 0.01171499 0.01171499
1.00092661 0.01171499 0.01171499
1.00696814 0.01171499 0.01171499
0.02104278 0.25458592 0.18891802
0.01975930 0.25899580 0.18869756
0.01655379 0.26679504 0.18045676
0.19749331 0.26048502 0.10328200
0.51024133 0.28862089 0.01286751
0.76266295 0.23838791 0.01171499
0.93408316 0.05740270 0.01171499
1.00092661 0.02102950 0.01171499
1.00696814 0.02102950 0.01171499
-0.00036793 0.54055744 0.33886820
0.00567354 0.54358888 0.33663404
0.01171499 0.55272293 0.32342976
0.02014205 0.56005925 0.24879962
0.45370042 0.53478879 0.01171499
0.73787946 0.48135448 0.01171499
0.92482555 0.40503448 0.01171499
1.00092661 0.34064212 0.01171499
1.00696814 0.34064212 0.01171499
-0.00036793 0.76110929 0.45315802
0.00567354 0.76174474 0.45165431
0.01171499 0.76626843 0.43962061
0.01775646 0.77302247 0.40122348
0.03633028 0.77991587 0.14737694
0.64937502 0.74261874 0.01171499
0.90338457 0.65398532 0.01171499
1.00092661 0.58488929 0.01171499
1.00696814 0.58488929 0.01171499
-0.00036793 0.92160249 0.53234112
0.00567354 0.92217034 0.53053129
0.01171499 0.92414403 0.52400810
0.01775646 0.92888045 0.49872184
0.02379793 0.93199378 0.44467962
0.44375294 0.92088288 0.35773271
0.80817270 0.89284509 0.29930851
0.98929065 0.83998442 0.27829617
0.99533212 0.83998442 0.27829617
-0.00036793 1.00092661 0.56677926
0.00567354 1.00092661 0.56539780
0.01171499 1.00092661 0.56200898
0.01775646 1.00092661 0.55405074
0.02379793 1.00092661 0.50918037
0.40368772 1.00092661 0.53057319
0.76796472 1.00053775 0.59783804
0.95995450 0.99844861 0.61039740
0.97358704 0.99845511 0.61190540
-0.00036793 1.00696814 0.56677926
0.00567354 1.00696814 0.56539780
0.01171499 1.00696814 0.56200898
0.01775646 1.00696814 0.55405074
0.02379793 1.00696814 0.50918037
0.40368772 1.00696814 0.53057319
0.76796472 1.00657916 0.59783804
0.95995450 1.00449002 0.61039740
0.97358704 1.00449657 0.61190540
0.11538738 0.16240498 0.14362518
0.11392394 0.15845762 0.14440803
0.11067036 0.15056504 0.14611620
0.29116791 0.07680110 0.21687627
0.58659369 -0.00036793 0.25594068
0.79908580 -0.00036793 0.20015749
0.95591861 -0.00036793 0.02614856
1.00092661 -0.00036793 0.02328128
1.00696814 -0.00036793 0.02328128
0.09672835 0.14947465 0.15637630
0.10505663 0.14777733 0.15554906
0.11737187 0.14413092 0.15245521
0.28953129 0.07618919 0.21451625
0.58560407 0.00567354 0.24891810
0.79922181 0.00567354 0.18525587
0.95524752 0.00567354 0.02536705
1.00092661 0.00567354 0.02154770
1.00696814 0.00567354 0.02154770
0.06272612 0.17224261 0.18222319
0.06579913 0.16635731 0.18103431
0.10629827 0.13413525 0.17468867
0.27531636 0.06481645 0.20508419
0.57864875 0.01171499 0.22073801
0.79843211 0.01171499 0.08996513
0.95050269 0.01171499 0.02039577
1.00092661 0.01171499 0.01775646
1.00696814 0.01171499 0.01775646
-0.00036793 0.27933130 0.24097130
0.00567354 0.27990323 0.24124321
0.01171499 0.27727151 0.23829524
0.19655327 0.23730440 0.19841821
0.54921407 0.09608418 0.14834285
0.78793979 0.01980753 0.02454007
0.94552571 0.01775646 0.01872738
1.00092661 0.01775646 0.01775646
1.00696814 0.01775646 0.01775646
-0.00036793 0.54805541 0.40221205
0.00567354 0.55080640 0.40157917
0.01171499 0.55775452 0.39506900
0.01920858 0.56088275 0.36268046
0.45806232 0.53171986 0.16556557
0.75638586 0.43292540 0.13280754
0.93643528 0.33289546 0.01988752
1.00092661 0.22708869 0.01775646
1.00696814 0.22708869 0.01775646
-0.00036793 0.76396364 0.51762646
0.00567354 0.76482451 0.51607811
0.01171499 0.76984721 0.50549334
0.01775646 0.77572495 0.47671655
0.03558367 0.78083903 0.35012522
0.65961874 0.74198759 0.22455296
0.91147482 0.63636833 0.17446522
1.00092661 0.55684131 0.02158085
1.00696814 0.55684131 0.02158085
-0.00036793 0.92375302 0.59069055
0.00567354 0.92427325 0.58913392
0.01171499 0.92632622 0.58305168
0.01775646 0.93110883 0.55993605
0.02379793 0.93413574 0.51340687
0.46924078 0.91958869 0.47397220
0.81973678 0.89137805 0.43002748
0.99106592 0.83317274 0.35739797
0.99710739 0.83317274 0.35739797
-0.00036793 1.00092661 0.62566864
0.00567354 1.00092661 0.62430155
0.01171499 1.00092661 0.61826366
0.01775646 1.00092661 0.60390109
0.02379793 1.00092661 0.56539142
0.32215476 1.00092661 0.56622058
0.77821362 1.00076818 0.65638369
0.96600717 0.99888480 0.66397101
0.97738802 0.99889374 0.66479117
-0.00036793 1.00696814 0.62566864
0.00567354 1.00696814 0.62430155
0.01171499 1.00696814 0.61826366
0.01775646 1.00696814 0.60390109
0.02379793 1.00696814 0.56539142
0.32215476 1.00696814 0.56622058
0.77821362 1.00680959 0.65638369
0.96600717 1.00492620 0.66397101
0.97738802 1.00493526 0.66479117
0.13749407 0.14543855 0.28720617
0.16491693 0.13710538 0.28798246
0.22005814 0.11443976 0.28678423
0.33223891 0.01348179 0.30646420
0.61398625 -0.00036793 0.39211458
0.81150490 -0.00036793 0.37616467
0.96408892 -0.00036793 0.31540209
1.00092661 -0.00036793 0.25892973
1.00696814 -0.00036793 0.25892973
0.11687455 0.14008901 0.30430233
0.15322271 0.13434368 0.30221739
0.22013518 0.11432379 0.29648602
0.33494461 0.00808378 0.31112176
0.61345208 0.00567354 0.39087239
0.81168985 0.00567354 0.37202013
0.96455353 0.00567354 0.30769366
1.00092661 0.00567354 0.24652430
1.00696814 0.00567354 0.24652430
-0.00036793 0.14719959 0.35564825
0.00567354 0.13374105 0.35037124
0.18307838 0.10826181 0.33447176
0.33000484 0.01177277 0.32354403
0.60922509 0.01171499 0.38697174
0.81159621 0.01171499 0.35664320
0.96611625 0.01171499 0.27661484
1.00092661 0.01171499 0.18597019
1.00696814 0.01171499 0.18597019
-0.00036793 0.37067664 0.42796370
0.00567354 0.36448199 0.42718524
0.01171499 0.33144215 0.41983843
0.23747377 0.15081702 0.39927673
0.59200567 0.02397397 0.38262415
0.80756831 0.01775646 0.33741966
0.96748406 0.01775646 0.21337518
1.00092661 0.01775646 0.03081307
1.00696814 0.01775646 0.03081307
-0.00036793 0.56945592 0.51083773
0.00567354 0.56986827 0.51117933
0.01171499 0.56986219 0.51084006
0.01816940 0.56306946 0.50436038
0.47491416 0.49492317 0.44934693
0.77488792 0.38121590 0.38056880
0.95984590 0.03628325 0.21151346
1.00092661 0.02379793 0.03046456
1.00696814 0.02379793 0.03046456
-0.00036793 0.76912105 0.60542732
0.00567354 0.77047795 0.60447019
0.01171499 0.77470630 0.59978402
0.01775646 0.77952445 0.58545369
0.03475407 0.78251135 0.52784264
0.68253320 0.73462445 0.47212541
0.91535062 0.63483179 0.45202866
1.00092661 0.50340360 0.29212809
1.00696814 0.50340360 0.29212809
-0.00036793 0.92670733 0.66941106
0.00567354 0.92724323 0.66839188
0.01171499 0.92933571 0.66376138
0.01775646 0.93428701 0.64529836
0.02379793 0.93835181 0.60773945
0.43566793 0.92292082 0.57273835
0.83484858 0.88878179 0.57025349
0.99556512 0.82708347 0.53127223
1.00160658 0.82708347 0.53127223
-0.00036793 1.00092661 0.70091796
0.00567354 1.00092661 0.69925439
0.01171499 1.00092661 0.69262218
0.01775646 1.00092661 0.67769647
0.02379793 1.00092661 0.64673334
0.04385281 1.00092661 0.57461804
0.78887808 1.00092661 0.72822100
0.97424078 0.99962246 0.73001176
0.98266655 0.99961853 0.73027074
-0.00036793 1.00696814 0.70091796
0.00567354 1.00696814 0.69925439
0.01171499 1.00696814 0.69262218
0.01775646 1.00696814 0.67769647
0.02379793 1.00696814 0.64673334
0.04385281 1.00696814 0.57461804
0.78887808 1.00696814 0.72822100
0.97424078 1.00566387 0.73001176
0.98266655 1.00565994 0.73027074
0.21672818 0.06939220 0.54259157
0.26696873 0.02370194 0.54303360
0.36137831 -0.00036793 0.54261887
0.48947814 -0.00036793 0.53977299
0.66302669 -0.00036793 0.55168808
0.82657611 -0.00036793 0.53080654
0.97118229 -0.00036793 0.48585045
1.00092661 -0.00036793 0.44650877
1.00696814 -0.00036793 0.44650877
0.20003280 0.07226653 0.54964054
0.25048965 0.02885284 0.54979241
0.35188881 0.00567354 0.54888666
0.48680505 0.00567354 0.54567474
0.66345495 0.00567354 0.55498904
0.82672429 0.00567354 0.53026259
0.97163129 0.00567354 0.48302838
1.00092661 0.00567354 0.44293672
1.00696814 0.00567354 0.44293672
0.05028036 0.07624730 0.57978761
0.11015758 0.05854096 0.57688582
0.29528463 0.01171499 0.56832528
0.46772116 0.01171499 0.56442255
0.66100836 0.01171499 0.56616890
0.82654762 0.01171499 0.52920234
0.97308701 0.01171499 0.47316626
1.00092661 0.01171499 0.42496982
1.00696814 0.01171499 0.42496982
-0.00036793 0.35750803 0.63125658
0.00567354 0.34161705 0.63033247
0.01171499 0.25260553 0.62538379
0.32630599 0.02528134 0.61178017
0.63807791 0.01844092 0.58566284
0.82326710 0.01775646 0.53198808
0.97463310 0.01775646 0.45780426
1.00092661 0.01775646 0.38935876
1.00696814 0.01775646 0.38935876
-0.00036793 0.59483188 0.67813408
0.00567354 0.59110940 0.67797369
0.01171499 0.57507324 0.67656606
0.01775646 0.53762281 0.67183042
0.45191672 0.37352490 0.65886480
0.79987466 0.25268835 0.57677805
0.97257262 0.03502220 0.45564598
1.00092661 0.02379793 0.35894507
1.00696814 0.02379793 0.35894507
-0.00036793 0.77777857 0.72474617
0.00567354 0.77799267 0.72496891
0.01171499 0.77864188 0.72554809
0.01775646 0.77804357 0.72530836
0.03556424 0.77018803 0.72136110
0.70049310 0.71020430 0.68680674
0.92121542 0.63647169 0.63405049
1.00092661 0.47495791 0.50672174
1.00696814 0.47495791 0.50672174
-0.00036793 0.93045276 0.76866472
0.00567354 0.93099833 0.76819235
0.01171499 0.93372786 0.76536429
0.01775646 0.93825835 0.75707626
0.02379793 0.94132441 0.73987311
0.28339458 0.93108022 0.70229173
0.85233241 0.88377243 0.71792108
0.99882305 0.83323872 0.70819622
1.00486445 0.83323872 0.70819622
-0.00036793 1.00092661 0.79126614
0.00567354 1.00092661 0.79025799
0.01171499 1.00092661 0.78602350
0.01775646 1.00092661 0.77667701
0.02379793 1.00092661 0.75448501
0.02983940 1.00092661 0.71138793
0.78535891 1.00092661 0.80071539
0.98361975 1.00056827 0.80908990
0.98966122 1.00056827 0.80908990
-0.00036793 1.00696814 0.79126614
0.00567354 1.00696814 0.79025799
0.01171499 1.00696814 0.78602350
0.01775646 1.00696814 0.77667701
0.02379793 1.00696814 0.75448501
0.02983940 1.00696814 0.71138793
0.78535891 1.00696814 0.80071539
0.98361975 1.00660968 0.80908990
0.98966122 1.00660968 0.80908990
0.28361183 -0.00036793 0.76668930
0.34026510 -0.00036793 0.76664084
0.44293806 -0.00036793 0.76581615
0.58205545 -0.00036793 0.76371837
0.74556804 -0.00036793 0.75958806
0.88214016 -0.00036793 0.71266413
0.97934133 -0.00036793 0.64136839
1.00092661 -0.00036793 0.60261500
1.00696814 -0.00036793 0.60261500
0.26685438 0.00567354 0.76947612
0.32269105 0.00567354 0.76932764
0.42992929 0.00567354 0.76843977
0.57433724 0.00567354 0.76624256
0.74214292 0.00567354 0.76200664
0.88260013 0.00567354 0.71483767
0.97957093 0.00567354 0.64104068
1.00092661 0.00567354 0.60257018
1.00696814 0.00567354 0.60257018
0.20119946 0.01171499 0.77863264
0.22064100 0.01171499 0.77833396
0.36718309 0.01171499 0.77723724
0.53914380 0.01171499 0.77479047
0.72588080 0.01171499 0.77027833
0.88394308 0.01171499 0.72414839
0.98035425 0.01171499 0.64028054
1.00092661 0.01171499 0.59704888
1.00696814 0.01171499 0.59704888
-0.00036793 0.17441624 0.80870461
0.00567354 0.15155058 0.80736828
0.01171499 0.05842000 0.80246699
0.41189697 0.02176821 0.79349953
0.68088186 0.01775646 0.78325438
0.88031280 0.01775646 0.74284095
0.98182738 0.01775646 0.64110029
1.00092661 0.01775646 0.58553368
1.00696814 0.01775646 0.58553368
-0.00036793 0.55674177 0.83271116
0.00567354 0.54899663 0.83249611
0.01171499 0.51703668 0.83134317
0.01775646 0.45457995 0.82868463
0.45591244 0.22457349 0.82206345
0.85016423 0.03518578 0.79654276
0.98049057 0.02987337 0.65474457
1.00092661 0.02379793 0.57760775
1.00696814 0.02379793 0.57760775
-0.00036793 0.76772946 0.85853153
0.00567354 0.76549238 0.85851145
0.01171499 0.75620580 0.85833687
0.01775646 0.73664260 0.85731268
0.03481391 0.69044966 0.85517758
0.67983061 0.63439578 0.83995736
0.93927532 0.57172388 0.76737338
1.00092661 0.37094939 0.66243201
1.00696814 0.37094939 0.66243201
-0.00036793 0.93220615 0.88507259
0.00567354 0.93247581 0.88518244
0.01171499 0.93316597 0.88564086
0.01775646 0.93392015 0.88626313
0.02379793 0.93237406 0.88596648
0.38167644 0.91443509 0.88213474
0.86681563 0.87032324 0.86173165
1.00092661 0.82476848 0.82872909
1.00696814 0.82476848 0.82872909
-0.00036793 1.00092661 0.89981329
0.00567354 1.00092661 0.89951891
0.01171499 1.00092661 0.89824194
0.01775646 1.00092661 0.89509875
0.02379793 1.00092661 0.88597780
0.02983940 1.00092661 0.86982131
0.66801661 1.00092661 0.86748970
0.99228024 1.00092661 0.90301383
0.99832171 1.00092661 0.90301383
-0.00036793 1.00696814 0.89981329
0.00567354 1.00696814 0.89951891
0.01171499 1.00696814 0.89824194
0.01775646 1.00696814 0.89509875
0.02379793 1.00696814 0.88597780
0.02983940 1.00696814 0.86982131
0.66801661 1.00696814 0.86748970
0.99228024 1.00696814 0.90301383
0.99832171 1.00696814 0.90301383
0.33043599 -0.00036793 0.92427373
0.38904324 -0.00036793 0.92427373
0.49115875 -0.00036793 0.92421973
0.62977707 -0.00036793 0.92392296
0.79383355 -0.00036793 0.92326832
0.96225816 -0.00036793 0.90613818
0.99488515 -0.00036793 0.82185060
1.00092661 -0.00036793 0.73960787
1.00696814 -0.00036793 0.73960787
0.31439143 0.00567354 0.92486715
0.37205827 0.00567354 0.92486238
0.47722602 0.00567354 0.92479825
0.62020040 0.00567354 0.92449409
0.78770304 0.00567354 0.92377961
0.96097875 0.00567354 0.90785301
0.99488515 0.00567354 0.82370776
1.00092661 0.00567354 0.74016851
1.00696814 0.00567354 0.74016851
0.24362491 0.01171499 0.92694819
0.28615683 0.01171499 0.92693341
0.41618961 0.01171499 0.92682421
0.57968313 0.01171499 0.92645937
0.76261926 0.01171499 0.92567170
0.95450789 0.01171499 0.91581446
0.99488515 0.01171499 0.83006436
1.00092661 0.01171499 0.74232602
1.00696814 0.01171499 0.74232602
-0.00036793 0.02577522 0.93744206
0.00567354 0.02516505 0.93681592
0.05050454 0.02305543 0.93482709
0.47803494 0.01775646 0.93010050
0.70468706 0.01775646 0.92914367
0.93121827 0.01775646 0.92638671
0.99488515 0.01775646 0.84283698
1.00092661 0.01775646 0.74228728
1.00696814 0.01775646 0.74228728
-0.00036793 0.48361450 0.95392984
0.00567354 0.47152394 0.95360345
0.01171499 0.42208070 0.95231408
0.01881473 0.34015977 0.95127833
0.48491785 0.03615922 0.94681865
0.86635625 0.02621424 0.93420327
0.99488515 0.02379793 0.85440892
1.00092661 0.02379793 0.74542212
1.00696814 0.02379793 0.74542212
-0.00036793 0.74030995 0.97045457
0.00567354 0.73578411 0.97023052
0.01171499 0.71747845 0.96933764
0.01775646 0.68096399 0.96763921
0.03424197 0.61714679 0.96760720
0.65322131 0.53474838 0.96089566
0.99364161 0.21136749 0.91894704
1.00092661 0.04487067 0.79844522
1.00696814 0.04487067 0.79844522
-0.00036793 0.92253298 0.98815584
0.00567354 0.92185473 0.98816049
0.01171499 0.91918027 0.98818278
0.01775646 0.90894979 0.98771155
0.02379793 0.88857019 0.98657781
0.17944610 0.85558152 0.98579508
0.85863036 0.82820868 0.97619587
1.00092661 0.77484554 0.93591481
1.00696814 0.77484554 0.93591481
-0.00036793 1.00092661 1.00092661
0.00567354 1.00092661 1.00092661
0.01171499 1.00092661 1.00092661
0.01775646 1.00092661 1.00092661
0.02379793 1.00092661 1.00092661
0.02983940 1.00092661 1.00092661
0.65869838 1.00092661 1.00092661
1.00092661 1.00092661 1.00092661
1.00696814 1.00092661 1.00092661
-0.00036793 1.00696814 1.00092661
0.00567354 1.00696814 1.00092661
0.01171499 1.00696814 1.00092661
0.01775646 1.00696814 1.00092661
0.02379793 1.00696814 1.00092661
0.02983940 1.00696814 1.00092661
0.65869838 1.00696814 1.00092661
1.00092661 1.00696814 1.00092661
1.00696814 1.00696814 1.00092661
0.33043599 -0.00036793 0.93031526
0.38904324 -0.00036793 0.93031526
0.49115875 -0.00036793 0.93026119
0.62977707 -0.00036793 0.92996442
0.79383355 -0.00036793 0.92930979
0.96225816 -0.00036793 0.91217959
0.99488515 -0.00036793 0.85136443
1.00092661 -0.00036793 0.81164432
1.00696814 -0.00036793 0.81164432
0.31439143 0.00567354 0.93090862
0.37205827 0.00567354 0.93090385
0.47722602 0.00567354 0.93083972
0.62020040 0.00567354 0.93053555
0.78770304 0.00567354 0.92982107
0.96097875 0.00567354 0.91389447
0.99488515 0.00567354 0.85172719
1.00092661 0.00567354 0.81178540
1.00696814 0.00567354 0.81178540
0.24362491 0.01171499 0.93298972
0.28615683 0.01171499 0.93297487
0.41618961 0.01171499 0.93286562
0.57968313 0.01171499 0.93250084
0.76261926 0.01171499 0.93171316
0.95450789 0.01171499 0.92185593
0.99488515 0.01171499 0.85308397
1.00092661 0.01171499 0.81225300
1.00696814 0.01171499 0.81225300
-0.00036793 0.02577522 0.94348347
0.00567354 0.02516505 0.94285738
0.05050454 0.02305543 0.94086850
0.47803494 0.01775646 0.93614197
0.70468706 0.01775646 0.93518507
0.93121827 0.01775646 0.93242818
0.99488515 0.01775646 0.85583293
1.00092661 0.01775646 0.81294966
1.00696814 0.01775646 0.81294966
-0.00036793 0.48361450 0.95997131
0.00567354 0.47152394 0.95964491
0.01171499 0.42208070 0.95835555
0.01881473 0.34015977 0.95731974
0.48491785 0.03615922 0.95286012
0.86635625 0.02621424 0.94024473
0.99488515 0.02379793 0.86045039
1.00092661 0.02379793 0.81445259
1.00696814 0.02379793 0.81445259
-0.00036793 0.74030995 0.97649604
0.00567354 0.73578411 0.97627199
0.01171499 0.71747845 0.97537911
0.01775646 0.68096399 0.97368068
0.03424197 0.61714679 0.97364867
0.65322131 0.53474838 0.96693707
0.99364161 0.21136749 0.92498851
1.00092661 0.04487067 0.84126264
1.00696814 0.04487067 0.84126264
-0.00036793 0.92253298 0.99419731
0.00567354 0.92185473 0.99420196
0.01171499 0.91918027 0.99422425
0.01775646 0.90894979 0.99375302
0.02379793 0.88857019 0.99261928
0.17944610 0.85558152 0.99183655
0.85863036 0.82820868 0.98223734
1.00092661 0.77406913 0.94364035
1.00696814 0.77406913 0.94364035
-0.00036793 1.00092661 1.00696814
0.00567354 1.00092661 1.00696814
0.01171499 1.00092661 1.00696814
0.01775646 1.00092661 1.00696814
0.02379793 1.00092661 1.00696814
0.02983940 1.00092661 1.00696814
0.65869838 1.00092661 1.00696814
1.00092661 1.00092661 1.00696814
1.00696814 1.00092661 1.00696814
-0.00036793 1.00696814 1.00696814
0.00567354 1.00696814 1.00696814
0.01171499 1.00696814 1.00696814
0.01775646 1.00696814 1.00696814
0.02379793 1.00696814 1.00696814
0.02983940 1.00696814 1.00696814
0.65869838 1.00696814 1.00696814
1.00092661 1.00696814 1.00696814
1.00696814 1.00696814 1.00696814
