luts/warm2.cube
LUT_3D_SIZE 9
0.00392157 0.00401312 0.00408942
0.0628824 0.0273289 0.0277256
0.236927 0.0482795 0.0528573
0.474067 0.0272374 0.0265202
0.715114 6.10361e-05 1.5259e-05
0.912215 0 0
1 0.000396735 0.000411994
1 0.000396735 0.000411994
1 0.000396735 0.000411994
0 0.110307 0.0519265
0.0250553 0.106844 0.0486763
0.254627 0.107164 0.0415808
0.483528 0.0590372 0.0179294
0.701457 0.000518807 0.000518807
0.903395 1.5259e-05 0
1 0.000396735 0.000411994
1 0.000396735 0.000411994
1 0.000396735 0.000411994
0 0.286351 0.0137942
0 0.281773 0.0149233
0.246403 0.265675 0.00199893
0.473182 0.248554 0
0.685679 0.222324 0
0.886976 0.181933 0
1 0.129488 0
1 0.0710613 0.000183108
1 0.0276493 0.000579843
0.000823987 0.459464 0
0.000656138 0.456535 0
0.111513 0.445838 0
0.412802 0.435996 0
0.646006 0.421637 0
0.85658 0.401022 0
1 0.377813 0
1 0.357259 0
1 0.342794 0
0 0.648753 0
0 0.646525 0
0 0.642847 0
0.291783 0.629923 0
0.577844 0.620996 0
0.807691 0.607843 0
0.986923 0.593378 0
1 0.580591 0
1 0.572 0
0 0.83331 0
0 0.831632 0
0 0.829145 0
0 0.824094 0
0.473259 0.810788 0
0.738766 0.80148 0
0.932189 0.791211 0
1 0.782269 0
1 0.776272 0
0 0.987366 0
0 0.986145 0
0 0.98378 0
0 0.979614 0
0.328099 0.967163 0
0.659037 0.960143 0
0.872312 0.95227 0
1 0.945418 0
1 0.940078 0
0 1 0
0 1 0
0 1 0
0 1 0
0.114565 0.995651 0
0.585885 0.996277 0
0.820584 0.998001 0
0.965942 0.998978 0
1 0.99913 0
0 1 0
0 1 0
0 1 0
0 1 0
0 1 0
0.532204 0.996201 0
0.784604 0.997742 0
0.936355 0.998871 0
1 0.99913 0
0.00828565 0.00936904 0.0200656
0.065156 0.028397 0.0794537
0.240818 0.0453498 0.137606
0.478157 0.0250095 0.0899672
0.7149 0 0.0270237
0.91162 0 0
1 0.000396735 0.000411994
1 0.000396735 0.000411994
1 0.000396735 0.000411994
0 0.0749218 0.0993668
0.0327001 0.0701457 0.0964981
0.236118 0.0764935 0.1093
0.458167 0.0323949 0.056611
0.700389 0.00062562 0.000595102
0.902617 0 0
1 0.000396735 0.000411994
1 0.000396735 0.000411994
1 0.000396735 0.000411994
0 0.272099 0.0289921
0 0.267552 0.0224918
0.239384 0.25095 0.0052491
0.470771 0.231907 0
0.68455 0.20351 0
0.886503 0.159548 0
1 0.0994583 0.000106813
1 0.0342107 0.000610361
1 0.000396735 0.000411994
0.000640879 0.449912 0
0.000671397 0.446845 0
0.104143 0.436561 0
0.410819 0.426154 0
0.644953 0.41149 0
0.855787 0.390311 0
1 0.366415 0
1 0.345052 0
1 0.330159 0
0 0.642039 0
0 0.639948 0
0 0.636378 0
0.289036 0.623117 0
0.576516 0.614115 0
0.806775 0.600839 0
0.986282 0.586252 0
1 0.573449 0
1 0.564706 0
0 0.828641 0
0 0.826902 0
0 0.824018 0
0 0.81915 0
0.471244 0.805493 0
0.737728 0.796307 0
0.931807 0.786175 0
1 0.777279 0
1 0.77052 0
0 0.98323 0
0 0.981872 0
0 0.979553 0
0 0.975601 0
0.325719 0.962676 0
0.657923 0.955764 0
0.871672 0.947753 0
1 0.940841 0
1 0.93611 0
0 1 0
0 1 0
0 1 0
0 1 0
0.107652 0.995789 0
0.584558 0.996262 0
0.819638 0.998001 0
0.965377 0.998917 0
1 0.99913 0
0 1 0
0 1 0
0 1 0
0 1 0
0 1 0
0.530663 0.996201 0
0.783642 0.997726 0
0.9355 0.998871 0
1 0.99913 0
0.0069276 0.0122072 0.0511177
0.0507668 0.0269627 0.158694
0.242374 0.0376898 0.291112
0.489128 0.0173953 0.269062
0.716152 0 0.240345
0.91014 0 0.218555
1 0.000396735 0.193072
1 0.000335698 0.169482
1 0.000335698 0.152346
0.00781262 0.0212558 0.0856184
0.019913 0.0198978 0.0922255
0.205432 0.0384833 0.26949
0.466041 0.0207523 0.256031
0.704448 0 0.223194
0.901122 0 0.199802
1 0.000274662 0.172213
1 0.000198367 0.146014
1 0.000411994 0.126757
0 0.245716 0.258961
0 0.24033 0.257877
0.228489 0.223484 0.234714
0.467216 0.202335 0.211139
0.683009 0.169436 0.191546
0.88539 0.116442 0.16527
1 0.0401312 0.133181
1 0.000289921 0.100664
1 0.000640879 0.0751965
0.000579843 0.434134 0.177081
0.000701915 0.430762 0.172503
0.09131 0.420783 0.160616
0.407935 0.409659 0.145068
0.642817 0.39411 0.12105
0.854551 0.372229 0.0822309
1 0.347097 0.0338293
1 0.324651 0
1 0.308721 0
0 0.631388 0.0379797
0 0.628962 0.030518
0 0.625437 0.0181125
0.284596 0.612238 0
0.574762 0.602853 0
0.805402 0.589517 0
0.985077 0.57438 0
1 0.561227 0
1 0.552285 0
0 0.82034 0
0 0.818723 0
0 0.81593 0
0 0.810773 0
0.468772 0.797208 0
0.736034 0.787976 0
0.930404 0.777752 0
1 0.768338 0
1 0.761929 0
0 0.976471 0
0 0.97525 0
0 0.973007 0
0 0.968627 0
0.321843 0.955993 0
0.656245 0.949035 0
0.870619 0.940902 0
1 0.934005 0
1 0.928679 0
0 1 0
0 1 0
0 1 0
0 1 0
0.0946212 0.996201 0
0.582269 0.996262 0
0.818097 0.998001 0
0.964309 0.998856 0
1 0.99913 0
0 1 0
0 1 0
0 1 0
0 1 0
0 1 0
0.528267 0.99617 0
0.782177 0.997696 0
0.934401 0.99881 0
1 0.99913 0
0.000671397 0.00857557 0.0502174
0.0212406 0.022385 0.196887
0.242191 0.0278477 0.442405
0.495201 0.00906386 0.445686
0.713039 0 0.429358
0.90753 0 0.417426
1 0.000274662 0.403952
1 0.00015259 0.392477
1 4.57771e-05 0.38436
0.000915541 0.00883497 0.0512398
0.00323491 0.0135805 0.0904707
0.200244 0.0297093 0.42089
0.472724 0.0116121 0.437415
0.700877 0 0.419394
0.898497 0 0.407538
1 0.000122072 0.393561
1 0 0.381537
1 1.5259e-05 0.373373
0 0.189197 0.467002
0 0.181765 0.466514
0.204517 0.164828 0.443885
0.45948 0.137423 0.41651
0.680751 0.0882124 0.402609
0.883635 0.0115663 0.390585
1 1.5259e-05 0.375998
1 7.62951e-05 0.363256
1 0.000244144 0.354849
0.00112917 0.403845 0.395865
0.000701915 0.400183 0.393545
0.0680247 0.390738 0.386542
0.40238 0.377615 0.37763
0.63975 0.360891 0.368185
0.852323 0.336583 0.354772
1 0.308782 0.339635
1 0.283589 0.325933
1 0.26566 0.316609
0 0.610941 0.340963
0 0.608576 0.338155
0 0.604761 0.334264
0.276417 0.59144 0.320394
0.570871 0.581765 0.30956
0.80296 0.567544 0.293477
0.983505 0.552163 0.275456
1 0.538399 0.258976
1 0.528832 0.247227
0 0.80502 0.253544
0 0.803571 0.250233
0 0.80058 0.244785
0 0.795529 0.234531
0.463828 0.781796 0.21268
0.733028 0.772259 0.1906
0.928359 0.761685 0.163439
1 0.752392 0.13727
1 0.745617 0.117281
0 0.964157 0.120211
0 0.96289 0.114656
0 0.960403 0.104555
0 0.956374 0.0846113
0.314595 0.943511 0.0440681
0.652583 0.9364 0
0.867735 0.9281 0
1 0.921035 0
1 0.915541 0
0 1 0
0 1 0
0 1 0
0 1 0
0.0716106 0.997467 0
0.578653 0.996124 0
0.815808 0.997864 0
0.961975 0.998856 0
1 0.99913 0
0 1 0
0 1 0
0 1 0
0 1 0
0 1 0
0.524147 0.996048 0
0.779156 0.997696 0
0.932113 0.998764 0
1 0.99913 0
0 0.00883497 0.0686961
0.00224308 0.0197604 0.224048
0.248692 0.0175937 0.601373
0.498085 0.00155642 0.632792
0.707698 0 0.624002
0.903716 0 0.616297
1 0 0.60737
1 0 0.599695
1 0 0.594736
0 0.00851453 0.0651408
0 0.00859083 0.0656748
0.204486 0.0202945 0.57525
0.476738 0.00309758 0.626413
0.695827 0 0.617395
0.894545 0 0.60943
1 0 0.600565
1 0 0.592798
1 0 0.587762
0 0.043595 0.337881
0 0.0323186 0.261433
0.127642 0.0296025 0.530129
0.439033 0.00614939 0.614939
0.675502 0 0.606088
0.879683 0 0.598276
1 0 0.589258
1 3.0518e-05 0.581201
1 3.0518e-05 0.576104
0.00114443 0.350027 0.602548
0.00131228 0.345663 0.601022
0.0299229 0.337514 0.597116
0.393317 0.32047 0.588418
0.634379 0.300557 0.583139
0.848661 0.271168 0.575189
1 0.236378 0.566308
1 0.203525 0.558389
1 0.179339 0.553399
0 0.576989 0.566567
0 0.574365 0.564965
0 0.570367 0.562646
0.262852 0.556588 0.551827
0.564569 0.546029 0.546029
0.798444 0.530816 0.537438
0.980026 0.514168 0.528374
1 0.499428 0.519799
1 0.489235 0.513924
0 0.77995 0.516732
0 0.778302 0.515145
0 0.775464 0.512581
0 0.76997 0.507408
0.456031 0.755993 0.494362
0.728374 0.745815 0.485283
0.924407 0.734905 0.475013
1 0.7252 0.46595
1 0.718563 0.459617
0 0.943435 0.460624
0 0.941909 0.458625
0 0.940047 0.455589
0 0.935485 0.45008
0.302602 0.92224 0.434974
0.647395 0.915084 0.425544
0.86392 0.906661 0.413672
1 0.899428 0.404028
1 0.894347 0.396521
0 1 0.409995
0 1 0.407813
0 1 0.404425
0 1 0.398169
0.0334478 0.999023 0.386114
0.572702 0.995972 0.369955
0.811444 0.997787 0.357
0.95761 0.996246 0.372457
0.994354 0.993286 0.412238
0 1 0.372854
0 1 0.370687
0 1 0.366644
0 1 0.359747
0 1 0.348333
0.517067 0.995727 0.328771
0.774868 0.99733 0.313832
0.928176 0.998413 0.30135
0.995697 0.99443 0.348898
0 0.0224765 0.302556
0 0.0242161 0.37821
0.257618 0.00965896 0.769696
0.494835 0 0.815991
0.700908 0 0.81149
0.898329 0 0.806058
1 0 0.799756
1 0 0.793698
1 0 0.790173
0 0.0221561 0.293492
0 0.0220798 0.291798
0.214862 0.012665 0.740948
0.475288 0 0.810864
0.688884 0 0.806607
0.88896 0 0.80061
1 0 0.794339
1 0 0.788693
1 0 0.784924
0 0.0215915 0.279118
0 0.0215152 0.277211
0.128939 0.018555 0.657481
0.440177 0 0.800885
0.668254 0 0.798337
0.873823 0 0.792355
1 0 0.785885
1 0 0.780194
1 0 0.776287
0.00102235 0.262669 0.796796
0.000381476 0.257115 0.795926
0 0.248402 0.794873
0.381369 0.225284 0.784741
0.627771 0.196826 0.78114
0.84448 0.151812 0.775677
1 0.0892653 0.770169
1 0.0229191 0.764843
1 0 0.760754
0 0.528191 0.768963
0 0.525551 0.768048
0 0.521019 0.766003
0.243732 0.506279 0.756466
0.556512 0.49456 0.75288
0.793133 0.477546 0.746899
0.975921 0.458732 0.740536
1 0.442161 0.734966
1 0.43061 0.731121
0 0.74548 0.732662
0 0.74374 0.731777
0 0.740475 0.73019
0 0.734783 0.726314
0.445487 0.720302 0.715633
0.72221 0.709987 0.709987
0.920195 0.698253 0.703807
1 0.687709 0.697093
1 0.680629 0.693065
0 0.915999 0.694148
0 0.914397 0.692866
0 0.911803 0.690761
0 0.907393 0.68719
0.285863 0.893919 0.67541
0.640192 0.886595 0.66981
0.858854 0.877913 0.663447
0.998199 0.870497 0.657588
1 0.864713 0.652857
0 1 0.661463
0 1 0.660105
0 1 0.657893
0 1 0.654429
0 1 0.648341
0.564569 0.995819 0.635904
0.805966 0.997757 0.629511
0.954192 0.985153 0.685252
0.990036 0.980652 0.713512
0 1 0.639735
0 1 0.638498
0 1 0.636225
0 1 0.632227
0 1 0.625666
0.508095 0.995636 0.612726
0.769223 0.99736 0.605783
0.928161 0.991958 0.652018
0.988846 0.988037 0.73962
0 0.0270848 0.573129
0 0.0270848 0.571466
0.25919 0.00482185 0.921294
0.485451 0 0.969696
0.693858 0 0.966995
0.892912 0 0.9626
1 0 0.957183
1 0 0.952697
1 0 0.949401
0 0.0270848 0.565942
0 0.0270848 0.564508
0.217899 0.0078584 0.892012
0.466911 0 0.965698
0.681758 0 0.962661
0.88365 0 0.958236
1 0 0.953201
1 0 0.948302
1 0 0.945373
0 0.0271305 0.555428
0 0.0271153 0.553887
0.133867 0.0146944 0.809186
0.434318 0 0.957946
0.660777 0 0.955795
0.868452 0 0.951522
1 0 0.94641
1 0 0.94139
1 0 0.938506
0 0.127611 0.961089
0 0.118227 0.955596
0 0.102007 0.935821
0.368475 0.0595407 0.946319
0.621561 0.00236515 0.943725
0.840116 0 0.938704
1 0 0.933577
1 0 0.928939
1 0 0.925597
3.0518e-05 0.471702 0.932403
0 0.468482 0.931517
0 0.463859 0.930129
0.221836 0.447715 0.920882
0.547555 0.434363 0.917952
0.787671 0.414572 0.913893
0.971496 0.392752 0.909285
1 0.372976 0.904204
1 0.359503 0.90164
0 0.707149 0.902251
0 0.705379 0.901625
0 0.70222 0.900374
0 0.696086 0.897169
0.433814 0.680919 0.887404
0.715648 0.669841 0.882826
0.915068 0.657313 0.878325
1 0.646097 0.873549
1 0.638453 0.870069
0 0.88574 0.871351
0 0.88426 0.869978
0 0.88159 0.86836
0 0.877089 0.866163
0.267796 0.863325 0.855116
0.632349 0.855436 0.850965
0.853254 0.846281 0.846296
0.993439 0.838529 0.842191
1 0.83267 0.838331
0 1 0.845533
0 1 0.844465
0 1 0.843198
0 0.997909 0.840177
0 0.991699 0.835325
0.555535 0.978088 0.824521
0.800107 0.970565 0.819776
0.949142 0.962722 0.830411
0.991836 0.959319 0.840696
0 1 0.82858
0 1 0.827512
0 1 0.82623
0 1 0.823087
0 1 0.818418
0.497749 0.995239 0.806683
0.762692 0.99704 0.802197
0.934432 0.987915 0.853483
0.990097 0.989624 0.917708
0 0.0270848 0.627558
0 0.0270848 0.627558
0.245411 0.00479133 0.94696
0.476936 0 1
0.687968 0 1
0.888579 0 1
1 0 1
1 0 1
1 0 1
0 0.0270848 0.627558
0 0.0270848 0.627558
0.203052 0.00796521 0.918486
0.457923 0 1
0.675471 0 1
0.87924 0 1
1 0 1
1 0 1
1 0 1
0 0.0270848 0.627558
0 0.0270848 0.627558
0.114 0.0156252 0.831113
0.42475 0 1
0.654582 0 1
0.863935 0 1
1 0 1
1 0 1
1 0 1
0 0.0270848 0.627558
0 0.0270848 0.627558
0 0.0270848 0.627558
0.353033 0 0.99173
0.614694 0 1
0.834989 0 1
1 0 1
1 0 1
1 0 1
0.000259403 0.420279 1
0.000320439 0.416709 1
0.000640879 0.411246 1
0.202823 0.394202 1
0.54049 0.378485 1
0.783047 0.355779 1
0.968185 0.32958 1
1 0.306401 1
1 0.28986 1
0 0.674571 1
0 0.672694 1
0 0.669322 1
0 0.662852 1
0.424659 0.647303 0.997909
0.710124 0.635248 0.999298
0.911025 0.621881 0.996368
1 0.610391 0.992706
1 0.601877 0.989609
0 0.86041 0.990341
0 0.858793 0.989532
0 0.856016 0.98819
0 0.851652 0.985718
0.251575 0.837278 0.975265
0.626062 0.828992 0.971817
0.848814 0.819486 0.967987
0.989868 0.811414 0.964202
1 0.805829 0.961837
0 0.983536 0.967651
0 0.98204 0.966781
0 0.97998 0.965103
0 0.975952 0.963302
0 0.969345 0.958938
0.548394 0.95555 0.948898
0.795056 0.94815 0.945434
0.944732 0.941466 0.941512
0.994781 0.938247 0.940185
0 1 0.953368
0 1 0.952407
0 1 0.950912
0 1 0.948501
0 1 0.944289
0.489738 0.995224 0.933898
0.763577 0.995148 0.929946
0.942992 0.987381 0.94931
0.994888 0.994705 0.982788
0 0.0270848 0.627558
0 0.0270848 0.627558
0.233082 0.00578317 0.939834
0.470863 0 1
0.684077 0 1
0.885817 0 1
1 0 1
1 0 1
1 0 1
0 0.0270848 0.627558
0 0.0270848 0.627558
0.188632 0.00910964 0.907134
0.451896 0 1
0.671702 0 1
0.876234 0 1
1 0 1
1 0 1
1 0 1
0 0.0270848 0.627558
0 0.0270848 0.627558
0.0905928 0.0177768 0.7991
0.418158 0 1
0.650614 0 1
0.860868 0 1
1 0 1
1 0 1
1 0 1
0 0.0270848 0.627558
0 0.0270848 0.627558
0 0.0270848 0.627558
0.344625 0 0.989731
0.610681 0 1
0.832181 0 1
1 0 1
1 0 1
1 0 1
0.000350958 0.382574 1
0.000839246 0.378836 1
0.000488289 0.372702 1
0.189151 0.354726 1
0.535882 0.33695 1
0.780438 0.311162 1
0.966247 0.281453 1
1 0.25388 1
1 0.23418 1
0 0.652155 1
0 0.650248 1
0 0.646738 1
0 0.640131 1
0.418418 0.624125 0.998108
0.706691 0.611292 0.999344
0.908248 0.597421 1
1 0.585412 1
1 0.576669 1
0 0.843244 1
0 0.841627 1
0 0.83917 1
0 0.834165 1
0.240635 0.819852 0.995117
0.622019 0.811582 0.997421
0.846296 0.80177 0.999023
0.987579 0.793591 0.999725
1 0.787366 1
0 0.968856 1
0 0.967407 1
0 0.965133 1
0 0.961181 1
0 0.954391 1
0.543343 0.940475 0.995697
0.79205 0.932876 0.99762
0.942351 0.92607 0.998383
0.997467 0.92253 0.996185
0 1 1
0 1 1
0 1 1
0 1 1
0 1 1
0.484306 0.995163 0.995148
0.766888 0.993805 0.993835
0.949584 0.987991 0.988022
0.999161 0.9991 0.9991
