luts/warm.cube
LUT_3D_SIZE 5
0.11805259 0.16352776 0.14598681
0.04024303 0.16881233 0.14820230
0.53497905 0.06377719 0.12128428
0.93286437 -0.00036793 0.00194431
1.00696814 -0.00036793 -0.00036793
0.12807754 0.13090643 0.13518235
0.09509093 0.13849691 0.12666209
0.51592529 0.19804616 0.08201061
0.92984396 0.01171499 -0.00036793
1.00696814 0.01171499 -0.00036793
-0.00036793 0.53739691 0.27594161
0.01171499 0.54812795 0.26057360
0.45067900 0.53219008 -0.00036793
0.91668135 0.44181395 -0.00036793
1.00696814 0.39133725 -0.00036793
-0.00036793 0.91958141 0.46822906
0.01171499 0.92221320 0.45841920
0.02379793 0.93105561 0.38959381
0.80418164 0.89308518 0.25949353
0.99445659 0.84469712 0.24374309
-0.00036793 1.00696814 0.50341266
0.01171499 1.00696814 0.50225753
0.02379793 1.00696814 0.45343950
0.75472862 1.00677598 0.53034604
0.97049308 1.00437319 0.55511129
0.11565661 0.16453397 0.11992141
0.08356485 0.15574835 0.13519570
0.56417614 -0.00036793 0.10666943
0.93893522 -0.00036793 0.01179872
1.00696814 -0.00036793 0.01171499
0.11157173 0.13832241 0.12504104
0.09362261 0.13836789 0.12233458
0.54644030 0.01171499 0.09674477
0.93709868 0.01171499 0.01171499
1.00696814 0.01171499 0.01171499
-0.00036793 0.54055744 0.33886820
0.01171499 0.55272293 0.32342976
0.45370042 0.53478879 0.01171499
0.92482555 0.40503448 0.01171499
1.00696814 0.34064212 0.01171499
-0.00036793 0.92160249 0.53234112
0.01171499 0.92414403 0.52400810
0.02379793 0.93199378 0.44467962
0.80817270 0.89284509 0.29930851
0.99533212 0.83998442 0.27829617
-0.00036793 1.00696814 0.56677926
0.01171499 1.00696814 0.56200898
0.02379793 1.00696814 0.50918037
0.76796472 1.00657916 0.59783804
0.97358704 1.00449657 0.61190540
0.13749407 0.14543855 0.28720617
0.22005814 0.11443976 0.28678423
0.61398625 -0.00036793 0.39211458
0.96408892 -0.00036793 0.31540209
1.00696814 -0.00036793 0.25892973
-0.00036793 0.14719959 0.35564825
0.18307838 0.10826181 0.33447176
0.60922509 0.01171499 0.38697174
0.96611625 0.01171499 0.27661484
1.00696814 0.01171499 0.18597019
-0.00036793 0.56945592 0.51083773
0.01171499 0.56986219 0.51084006
0.47491416 0.49492317 0.44934693
0.95984590 0.03628325 0.21151346
1.00696814 0.02379793 0.03046456
-0.00036793 0.92670733 0.66941106
0.01171499 0.92933571 0.66376138
0.02379793 0.93835181 0.60773945
0.83484858 0.88878179 0.57025349
1.00160658 0.82708347 0.53127223
-0.00036793 1.00696814 0.70091796
0.01171499 1.00696814 0.69262218
0.02379793 1.00696814 0.64673334
0.78887808 1.00696814 0.72822100
0.98266655 1.00565994 0.73027074
0.28361183 -0.00036793 0.76668930
0.44293806 -0.00036793 0.76581615
0.74556804 -0.00036793 0.75958806
0.97934133 -0.00036793 0.64136839
1.00696814 -0.00036793 0.60261500
0.20119946 0.01171499 0.77863264
0.36718309 0.01171499 0.77723724
0.72588080 0.01171499 0.77027833
0.98035425 0.01171499 0.64028054
1.00696814 0.01171499 0.59704888
-0.00036793 0.55674177 0.83271116
0.01171499 0.51703668 0.83134317
0.45591244 0.22457349 0.82206345
0.98049057 0.02987337 0.65474457
1.00696814 0.02379793 0.57760775
-0.00036793 0.93220615 0.88507259
0.01171499 0.93316597 0.88564086
0.02379793 0.93237406 0.88596648
0.86681563 0.87032324 0.86173165
1.00696814 0.82476848 0.82872909
-0.00036793 1.00696814 0.89981329
0.01171499 1.00696814 0.89824194
0.02379793 1.00696814 0.88597780
0.66801661 1.00696814 0.86748970
0.99832171 1.00696814 0.90301383
0.33043599 -0.00036793 0.93031526
0.49115875 -0.00036793 0.93026119
0.79383355 -0.00036793 0.92930979
0.99488515 -0.00036793 0.85136443
1.00696814 -0.00036793 0.81164432
0.24362491 0.01171499 0.93298972
0.41618961 0.01171499 0.93286562
0.76261926 0.01171499 0.93171316
0.99488515 0.01171499 0.85308397
1.00696814 0.01171499 0.81225300
-0.00036793 0.48361450 0.95997131
0.01171499 0.42208070 0.95835555
0.48491785 0.03615922 0.95286012
0.99488515 0.02379793 0.86045039
1.00696814 0.02379793 0.81445259
-0.00036793 0.92253298 0.99419731
0.01171499 0.91918027 0.99422425
0.02379793 0.88857019 0.99261928
0.85863036 0.82820868 0.98223734
1.00696814 0.77406913 0.94364035
-0.00036793 1.00696814 1.00696814
0.01171499 1.00696814 1.00696814
0.02379793 1.00696814 1.00696814
0.65869838 1.00696814 1.00696814
1.00696814 1.00696814 1.00696814
