luts/warm2.cube
LUT_3D_SIZE 33
0.00392157 0.00401312 0.00408942
0.00392157 0.00401312 0.00408942
0.0102235 0.00886549 0.00900282
0.0310521 0.018555 0.0186923
0.0628824 0.0273289 0.0277256
0.0987716 0.0344701 0.0357671
0.139422 0.0409247 0.0437934
0.185534 0.0457618 0.0499886
0.236927 0.0482795 0.0528573
0.293538 0.0476539 0.0513008
0.352529 0.0430915 0.0448005
0.413367 0.0357519 0.0358434
0.474067 0.0272374 0.0265202
0.535271 0.018616 0.0177462
0.596155 0.0104524 0.00987259
0.656565 0.0039826 0.00378424
0.715114 6.10361e-05 1.5259e-05
0.768826 0 0
0.817884 0 0
0.865904 0 0
0.912215 0 0
0.956786 0.000167849 0.000137331
0.99881 0.000350958 0.000427253
1 0.000396735 0.000411994
1 0.000396735 0.000411994
1 0.000396735 0.000411994
1 0.000396735 0.000411994
1 0.000396735 0.000411994
1 0.000396735 0.000411994
1 0.000396735 0.000411994
1 0.000396735 0.000411994
1 0.000396735 0.000411994
1 0.000396735 0.000411994
0.00392157 0.00401312 0.00408942
0.00392157 0.00401312 0.00408942
0.00549325 0.0053254 0.00541695
0.022797 0.0153964 0.0155489
0.0532998 0.0250248 0.0252995
0.0899672 0.032929 0.0339971
0.130465 0.0395819 0.0420539
0.177172 0.0450904 0.049134
0.229374 0.0481727 0.0528725
0.285756 0.0479438 0.0517891
0.346166 0.0438087 0.0457771
0.40734 0.0364996 0.0367285
0.469215 0.0280156 0.0273442
0.530373 0.0192111 0.0184482
0.59176 0.0109865 0.0103914
0.653178 0.00430304 0.00407416
0.711742 0.000183108 0.000167849
0.765972 0 0
0.815747 0 0
0.863859 0 0
0.910185 0 0
0.954604 0.00015259 0.000122072
0.99675 0.000503548 0.000396735
1 0.000396735 0.000411994
1 0.000396735 0.000411994
1 0.000396735 0.000411994
1 0.000396735 0.000411994
1 0.000396735 0.000411994
1 0.000396735 0.000411994
1 0.000396735 0.000411994
1 0.000396735 0.000411994
1 0.000396735 0.000411994
1 0.000396735 0.000411994
0.0102998 0.0125277 0.0119173
0.00875868 0.0101167 0.00982681
0.00721752 0.00793469 0.00787366
0.0186007 0.0145724 0.0145724
0.0437018 0.0224918 0.0226902
0.0806439 0.0311284 0.0319219
0.121996 0.0383459 0.0405127
0.168246 0.0442054 0.0479896
0.221042 0.047837 0.0524758
0.278447 0.0482032 0.0522316
0.339193 0.0444953 0.0466621
0.401083 0.0373083 0.0376593
0.463722 0.028748 0.0281376
0.525704 0.0198367 0.0189822
0.587488 0.0114443 0.0108492
0.649165 0.00462348 0.00444038
0.708598 0.000259403 0.000198367
0.763027 0 0
0.813077 0 0
0.861295 0 0
0.907835 0 0
0.952483 6.10361e-05 0.000137331
0.994644 0.000503548 0.000350958
1 0.000396735 0.000411994
1 0.000396735 0.000411994
1 0.000396735 0.000411994
1 0.000396735 0.000411994
1 0.000396735 0.000411994
1 0.000396735 0.000411994
1 0.000396735 0.000411994
1 0.000396735 0.000411994
1 0.000396735 0.000411994
1 0.000396735 0.000411994
0.01149 0.0566262 0.0371557
0.0125277 0.0536355 0.0360571
0.01355 0.0502785 0.0346685
0.0242161 0.0522469 0.035874
0.0536965 0.0586252 0.0390173
0.0963607 0.0648661 0.0433661
0.140414 0.0686198 0.0478828
0.186892 0.069398 0.0506142
0.237049 0.067155 0.0513924
0.289418 0.0614176 0.0493782
0.343664 0.0518044 0.0447242
0.397223 0.0388037 0.0385138
0.45832 0.0294499 0.0288701
0.520638 0.0205386 0.0197299
0.583261 0.0120394 0.0113985
0.645243 0.00502022 0.00474556
0.705058 0.000381476 0.000366217
0.760372 0 0
0.810407 0 0
0.858839 0 0
0.905577 0 0
0.950484 7.62951e-05 3.0518e-05
0.992508 0.000457771 0.000381476
1 0.000396735 0.000411994
1 0.000396735 0.000411994
1 0.000396735 0.000411994
1 0.000396735 0.000411994
1 0.000396735 0.000411994
1 0.000396735 0.000411994
1 0.000396735 0.000411994
1 0.000396735 0.000411994
1 0.000396735 0.000411994
1 0.000396735 0.000411994
0 0.110307 0.0519265
0 0.107607 0.0514992
0 0.104601 0.0509499
0 0.102907 0.0504463
0.0250553 0.106844 0.0486763
0.0806439 0.110933 0.0473793
0.140703 0.112688 0.0466011
0.197345 0.11136 0.0447242
0.254627 0.107164 0.0415808
0.312642 0.0996872 0.0363317
0.370336 0.0888075 0.0299535
0.427771 0.0748913 0.0237888
0.483528 0.0590372 0.0179294
0.538033 0.0417029 0.0126192
0.59086 0.0238041 0.00833143
0.641413 0.00552377 0.0052491
0.701457 0.000518807 0.000518807
0.757168 0 0
0.807858 0 0
0.856443 0 0
0.903395 1.5259e-05 0
0.948043 9.15541e-05 0
0.990585 0.000274662 0.000244144
1 0.000396735 0.000411994
1 0.000396735 0.000411994
1 0.000396735 0.000411994
1 0.000396735 0.000411994
1 0.000396735 0.000411994
1 0.000396735 0.000411994
1 0.000396735 0.000411994
1 0.000396735 0.000411994
1 0.000396735 0.000411994
1 0.000396735 0.000411994
0 0.16112 0.0543374
0 0.158968 0.0547341
0 0.156573 0.0547494
0 0.154421 0.0551614
0 0.154559 0.0506294
0.051133 0.15465 0.0435798
0.130541 0.154055 0.0382849
0.19736 0.151125 0.0339361
0.259052 0.146258 0.0291905
0.318196 0.139498 0.0242618
0.375692 0.131273 0.0193637
0.432105 0.121233 0.0144198
0.487877 0.109117 0.00939956
0.543252 0.094728 0.00518807
0.597757 0.0779431 0.00169375
0.651377 0.06009 0
0.703502 0.0425116 0
0.754498 0.0245975 0
0.804807 0.00590524 0
0.853422 0 0
0.900496 0 0
0.945312 0.000106813 7.62951e-05
0.987854 0.000259403 0.000244144
1 0.000396735 0.000411994
1 0.000396735 0.000411994
1 0.000396735 0.000411994
1 0.000396735 0.000411994
1 0.000396735 0.000411994
1 0.000396735 0.000411994
1 0.000396735 0.000411994
1 0.000396735 0.000411994
1 0.000396735 0.000411994
1 0.000396735 0.000411994
0 0.207309 0.0423896
0 0.205585 0.0428626
0 0.204028 0.0437781
0 0.202152 0.0444953
0 0.200198 0.0425879
0.0263981 0.196658 0.0331273
0.12256 0.19324 0.0268711
0.195529 0.189548 0.0230106
0.258457 0.185122 0.0191196
0.317494 0.17966 0.0151369
0.374701 0.173266 0.0113069
0.430228 0.165591 0.00721752
0.48574 0.156725 0.00375372
0.539818 0.146563 0.000564584
0.593652 0.1355 0
0.646372 0.123445 0
0.69839 0.110521 0
0.74966 0.0952468 0
0.80032 0.0767376 0
0.849485 0.0571908 0
0.896849 0.0367895 0
0.94258 0.0163729 0.000350958
0.984604 0.00030518 0.000228885
1 0.000396735 0.000411994
1 0.000396735 0.000411994
1 0.000396735 0.000411994
1 0.000396735 0.000411994
1 0.000396735 0.000411994
1 0.000396735 0.000411994
1 0.000396735 0.000411994
1 0.000396735 0.000411994
1 0.000396735 0.000411994
1 0.000396735 0.000411994
0 0.247837 0.0256809
0 0.246494 0.0261234
0 0.245212 0.0263828
0 0.243824 0.0268711
0 0.242435 0.0275273
0.00891127 0.237324 0.0222629
0.11342 0.231861 0.0162966
0.190906 0.228626 0.0131228
0.254978 0.224735 0.010132
0.314199 0.220401 0.00700389
0.371099 0.215198 0.00407416
0.426139 0.209354 0.00120546
0.480858 0.202564 0
0.534661 0.195407 0
0.58764 0.187381 0
0.640208 0.178912 0
0.692317 0.169253 0
0.744289 0.158099 0
0.794919 0.145693 0
0.844419 0.131685 0
0.892241 0.11635 0
0.937865 0.09897 0
0.980896 0.0792248 0
1 0.0589456 0.000198367
1 0.0396429 0.000488289
1 0.0211643 0.000869764
1 0.00383001 0.000686656
1 0.000396735 0.000411994
1 0.000396735 0.000411994
1 0.000396735 0.000411994
1 0.000396735 0.000411994
1 0.000396735 0.000411994
1 0.000396735 0.000411994
0 0.286351 0.0137942
0 0.285176 0.0140993
0 0.284092 0.0142824
0 0.28304 0.0147707
0 0.281773 0.0149233
0 0.279164 0.0139315
0.0939345 0.272389 0.00761425
0.180316 0.268757 0.00424201
0.246403 0.265675 0.00199893
0.306737 0.262196 0.000198367
0.363638 0.258259 0
0.419104 0.253605 0
0.473182 0.248554 0
0.526482 0.243214 0
0.579782 0.237018 0
0.632837 0.230015 0
0.685679 0.222324 0
0.737865 0.213703 0
0.788891 0.203845 0
0.838941 0.19353 0
0.886976 0.181933 0
0.93257 0.16994 0
0.975631 0.157 0
1 0.143603 0
1 0.129488 0
1 0.115175 0
1 0.100496 0
1 0.0857099 0.000213626
1 0.0710613 0.000183108
1 0.0580148 0.000381476
1 0.0467384 0.000518807
1 0.0364843 0.000457771
1 0.0276493 0.000579843
0 0.326757 0.00468452
0 0.325856 0.00503548
0 0.324773 0.00521859
0 0.323659 0.00541695
0 0.322591 0.00560006
0 0.32137 0.00590524
0.0578622 0.31606 0.00172427
0.160296 0.310704 0
0.231891 0.308202 0
0.29369 0.305364 0
0.351263 0.302205 0
0.406989 0.298848 0
0.461692 0.295003 0
0.516167 0.290501 0
0.570474 0.285298 0
0.624323 0.279469 0
0.677607 0.272938 0
0.73022 0.265751 0
0.782177 0.257923 0
0.832151 0.249424 0
0.88072 0.240497 0
0.926482 0.230793 0
0.970016 0.221057 0
1 0.211048 0
1 0.200763 0
1 0.190524 0
1 0.180606 0
1 0.171221 0
1 0.162036 0
1 0.153841 0
1 0.145922 0
1 0.13872 0
1 0.132464 0
0.00117494 0.369451 0.00030518
0.00109865 0.36846 0.000335698
0.000762951 0.367544 0.000198367
0.000885023 0.366629 0.000366217
0.000869764 0.365682 0.000534066
0.000793469 0.36437 0.000610361
0.00613413 0.362737 0.000534066
0.123308 0.355322 0
0.206668 0.352361 0
0.272725 0.350256 0
0.333516 0.347646 0
0.391241 0.344869 0
0.448127 0.341344 0
0.503883 0.337621 0
0.559457 0.333181 0
0.614313 0.328237 0
0.668437 0.322744 0
0.72192 0.316518 0
0.77435 0.309697 0
0.824979 0.3028 0
0.873793 0.295247 0
0.920058 0.28748 0
0.963851 0.279362 0
1 0.27129 0
1 0.26305 0
1 0.255131 0
1 0.247593 0
1 0.240085 0
1 0.233555 0
1 0.227298 0
1 0.221637 0
1 0.216587 0
1 0.212039 0
0.00105287 0.413947 0
0.00109865 0.413062 0
0.00112917 0.412177 0
0.00115969 0.411444 0
0.00132753 0.410529 0
0.00111391 0.40943 0
0.000976577 0.408103 0
0.055024 0.403754 0
0.169024 0.398138 0
0.245335 0.396048 0
0.310964 0.393896 0
0.372854 0.391516 0
0.431815 0.388403 0
0.489632 0.384924 0
0.54667 0.38114 0
0.602655 0.376928 0
0.657984 0.372152 0
0.712306 0.366842 0
0.765377 0.361013 0
0.816266 0.35491 0
0.865782 0.348547 0
0.912505 0.342 0
0.956191 0.335073 0
0.997284 0.328527 0
1 0.321584 0
1 0.315022 0
1 0.308507 0
1 0.302846 0
1 0.297108 0
1 0.292439 0
1 0.287678 0
1 0.283665 0
1 0.280232 0
0.000823987 0.459464 0
0.000686656 0.458732 0
0.000656138 0.457923 0
0.000732433 0.457221 0
0.000656138 0.456535 0
0.00077821 0.455482 0
0.000762951 0.454246 0
0.000747692 0.452781 0
0.111513 0.445838 0
0.210071 0.442649 0
0.283864 0.440726 0
0.350179 0.438437 0
0.412802 0.435996 0
0.472831 0.432746 0
0.531624 0.429511 0
0.58938 0.425803 0
0.646006 0.421637 0
0.701259 0.416968 0
0.755016 0.412039 0
0.80679 0.406729 0
0.85658 0.401022 0
0.903609 0.395148 0
0.947936 0.389456 0
0.989349 0.383612 0
1 0.377813 0
1 0.372198 0
1 0.366812 0
1 0.36173 0
1 0.357259 0
1 0.352819 0
1 0.349294 0
1 0.345861 0
1 0.342794 0
0.00015259 0.505837 0
0.000213626 0.505272 0
0.000366217 0.504601 0
0.000350958 0.503868 0
0.000350958 0.503059 0
0.000442512 0.502251 0
0.000579843 0.501244 0
0.000518807 0.499931 0
0.0192111 0.49752 0
0.161257 0.490227 0
0.249714 0.488121 0
0.323156 0.486198 0
0.389944 0.483986 0
0.4533 0.481315 0
0.514519 0.478172 0
0.573968 0.475013 0
0.632181 0.471336 0
0.68809 0.467185 0
0.742977 0.46276 0
0.795941 0.458 0
0.846113 0.4533 0
0.894163 0.448173 0
0.938704 0.443 0
0.980377 0.437995 0
1 0.432792 0
1 0.428168 0
1 0.423224 0
1 0.418875 0
1 0.41503 0
1 0.411261 0
1 0.407996 0
1 0.405386 0
1 0.402686 0
0 0.553094 0
0 0.552438 0
0 0.551766 0
0 0.55111 0
0 0.5505 0
0.000137331 0.549722 0
7.62951e-05 0.548714 0
0.00015259 0.547616 0
0.00030518 0.546441 0
0.0785534 0.540627 0
0.205478 0.536156 0
0.290089 0.534371 0
0.363088 0.532525 0
0.430655 0.530236 0
0.494621 0.52723 0
0.556222 0.524514 0
0.616205 0.521279 0
0.673808 0.51751 0
0.729854 0.513497 0
0.78323 0.50927 0
0.834745 0.504799 0
0.883131 0.50045 0
0.928756 0.496178 0
0.970474 0.4916 0
1 0.487221 0
1 0.482902 0
1 0.478584 0
1 0.47483 0
1 0.471366 0
1 0.468071 0
1 0.465034 0
1 0.462699 0
1 0.460609 0
0 0.60087 0
0 0.600275 0
0 0.599664 0
0 0.599039 0
0 0.598367 0
0 0.597574 0
0 0.596643 0
0 0.595682 0
0 0.594614 0
0 0.593194 0
0.14136 0.585245 0
0.248493 0.583093 0
0.330846 0.581308 0
0.403601 0.579141 0
0.471824 0.576699 0
0.536248 0.573999 0
0.598306 0.571221 0
0.657649 0.567681 0
0.714778 0.564187 0
0.769726 0.560464 0
0.821622 0.556664 0
0.87097 0.55256 0
0.916671 0.548516 0
0.959686 0.544564 0
0.998703 0.54081 0
1 0.536782 0
1 0.532967 0
1 0.529809 0
1 0.526574 0
1 0.523613 0
1 0.521172 0
1 0.519142 0
1 0.517021 0
0 0.648753 0
0 0.648295 0
0 0.64773 0
0 0.647135 0
0 0.646525 0
0 0.645808 0
0 0.644923 0
0 0.643946 0
0 0.642847 0
0 0.64152 0
0.0267796 0.638865 0
0.193957 0.631601 0
0.291783 0.629923 0
0.372534 0.628351 0
0.445426 0.626047 0
0.513359 0.623407 0
0.577844 0.620996 0
0.639307 0.617884 0
0.698192 0.614649 0
0.754498 0.611322 0
0.807691 0.607843 0
0.857816 0.604212 0
0.904463 0.600534 0
0.947265 0.596933 0
0.986923 0.593378 0
1 0.589883 0
1 0.586694 0
1 0.583627 0
1 0.580591 0
1 0.57792 0
1 0.575891 0
1 0.573907 0
1 0.572 0
0 0.696254 0
0 0.695811 0
0 0.695262 0
0 0.694743 0
0 0.694255 0
0 0.693706 0
0 0.692943 0
0 0.692088 0
0 0.691096 0
0 0.689799 0
0 0.688319 0
0.10724 0.681453 0
0.242924 0.67837 0
0.335363 0.676585 0
0.415091 0.674571 0
0.487953 0.672709 0
0.555352 0.670069 0
0.619394 0.667445 0
0.680095 0.664347 0
0.737652 0.661479 0
0.792294 0.658289 0
0.842924 0.655177 0
0.890562 0.651789 0
0.934371 0.648478 0
0.974548 0.64509 0
1 0.642267 0
1 0.639124 0
1 0.636088 0
1 0.633509 0
1 0.631495 0
1 0.629282 0
1 0.627314 0
1 0.62565 0
0 0.743114 0
0 0.742641 0
0 0.742153 0
0 0.741711 0
0 0.741283 0
0 0.740734 0
0 0.740032 0
0 0.739361 0
0 0.738506 0
0 0.737331 0
0 0.735927 0
0 0.734356 0
0.177218 0.725948 0
0.29102 0.724346 0
0.380484 0.722667 0
0.458717 0.720577 0
0.530236 0.718456 0
0.597406 0.716045 0
0.660487 0.713314 0
0.71931 0.710536 0
0.775311 0.707668 0
0.82742 0.704753 0
0.875853 0.701747 0
0.920745 0.698604 0
0.960937 0.695735 0
0.99794 0.692714 0
1 0.689937 0
1 0.687709 0
1 0.685206 0
1 0.682887 0
1 0.68098 0
1 0.67921 0
1 0.677882 0
0 0.788983 0
0 0.788602 0
0 0.788205 0
0 0.787747 0
0 0.787243 0
0 0.786725 0
0 0.78616 0
0 0.785412 0
0 0.784527 0
0 0.783566 0
0 0.782284 0
0 0.780911 0
0.0625162 0.77615 0
0.236454 0.770916 0
0.340551 0.769299 0
0.42649 0.767544 0
0.502831 0.765499 0
0.573144 0.763027 0
0.63888 0.760861 0
0.699931 0.758114 0
0.757321 0.755444 0
0.810605 0.752834 0
0.860151 0.750057 0
0.905577 0.747265 0
0.946777 0.744579 0
0.984192 0.741833 0
1 0.739391 0
1 0.73695 0
1 0.734661 0
1 0.732967 0
1 0.731106 0
1 0.729519 0
1 0.728099 0
0 0.83331 0
0 0.832883 0
0 0.832456 0
0 0.832029 0
0 0.831632 0
0 0.831159 0
0 0.830579 0
0 0.829862 0
0 0.829145 0
0 0.82829 0
0 0.82707 0
0 0.825681 0
0 0.824094 0
0.162982 0.815885 0
0.293263 0.814176 0
0.390372 0.81268 0
0.473259 0.810788 0
0.547478 0.808621 0
0.615732 0.806241 0
0.6795 0.804089 0
0.738766 0.80148 0
0.793103 0.79884 0
0.843763 0.796292 0
0.890059 0.793744 0
0.932189 0.791211 0
0.970321 0.78883 0
1 0.78677 0
1 0.784466 0
1 0.782269 0
1 0.780301 0
1 0.778897 0
1 0.77763 0
1 0.776272 0
0 0.875776 0
0 0.87538 0
0 0.875044 0
0 0.874708 0
0 0.874327 0
0 0.873854 0
0 0.873228 0
0 0.872511 0
0 0.871656 0
0 0.870665 0
0 0.86952 0
0 0.868376 0
0 0.866865 0
0.0310521 0.86389 0
0.237263 0.857038 0
0.349828 0.855421 0
0.440681 0.85391 0
0.519905 0.852003 0
0.591913 0.849714 0
0.658137 0.847852 0
0.718853 0.845228 0
0.775402 0.842939 0
0.826978 0.840726 0
0.874418 0.838331 0
0.917525 0.835904 0
0.955901 0.833692 0
0.990295 0.831464 0
1 0.829389 0
1 0.827314 0
1 0.825589 0
1 0.824231 0
1 0.822965 0
1 0.821729 0
0 0.91577 0
0 0.915389 0
0 0.914992 0
0 0.914595 0
0 0.914168 0
0 0.91368 0
0 0.913069 0
0 0.912367 0
0 0.911604 0
0 0.910704 0
0 0.90985 0
0 0.908843 0
0 0.907546 0
0 0.905913 0
0.163195 0.897414 0
0.304356 0.896056 0
0.405524 0.894362 0
0.491112 0.892622 0
0.566903 0.890593 0
0.63592 0.888472 0
0.699031 0.886442 0
0.756954 0.884413 0
0.809628 0.881865 0
0.858076 0.879683 0
0.902083 0.877409 0
0.941833 0.875578 0
0.976394 0.873732 0
1 0.871519 0
1 0.869642 0
1 0.86833 0
1 0.866804 0
1 0.865492 0
1 0.864317 0
0 0.953155 0
0 0.952789 0
0 0.952407 0
0 0.95201 0
0 0.951629 0
0 0.951156 0
0 0.950561 0
0 0.949981 0
0 0.949294 0
0 0.948409 0
0 0.947372 0
0 0.946166 0
0 0.944808 0
0 0.943313 0
0.0367285 0.940093 0
0.251972 0.933806 0
0.368261 0.932311 0
0.461082 0.930266 0
0.541573 0.928664 0
0.613504 0.926986 0
0.678782 0.924681 0
0.738735 0.922759 0
0.793027 0.920516 0
0.842115 0.918273 0
0.887098 0.916152 0
0.926986 0.914549 0
0.96289 0.912749 0
0.994354 0.910857 0
1 0.909148 0
1 0.90753 0
1 0.906126 0
1 0.904768 0
1 0.903731 0
0 0.987366 0
0 0.987076 0
0 0.98677 0
0 0.986496 0
0 0.986145 0
0 0.985687 0
0 0.985153 0
0 0.984512 0
0 0.98378 0
0 0.98291 0
0 0.981964 0
0 0.980926 0
0 0.979614 0
0 0.978134 0
0 0.976684 0
0.188785 0.968154 0
0.328099 0.967163 0
0.429801 0.965393 0
0.515694 0.963714 0
0.590982 0.961822 0
0.659037 0.960143 0
0.720348 0.957992 0
0.776455 0.956085 0
0.826856 0.954253 0
0.872312 0.95227 0
0.913161 0.950408 0
0.949538 0.948486 0
0.981323 0.946761 0
1 0.945418 0
1 0.943862 0
1 0.942397 0
1 0.941146 0
1 0.940078 0
0 1 0
0 1 0
0 1 0
0 1 0
0 1 0
0 1 0
0 1 0
0 1 0
0 1 0
0 1 0
0 1 0
0 1 0
0 1 0
0 1 0
0 1 0
0.0957046 0.996155 0
0.284428 0.994614 0
0.39823 0.995132 0
0.48986 0.995727 0
0.568963 0.993957 0
0.639124 0.992065 0
0.702831 0.990402 0
0.760021 0.988083 0
0.811536 0.986358 0
0.857771 0.984619 0
0.899535 0.982712 0
0.936278 0.980941 0
0.969116 0.979782 0
0.997208 0.978256 0
1 0.97673 0
1 0.975357 0
1 0.974151 0
1 0.973068 0
0 1 0
0 1 0
0 1 0
0 1 0
0 1 0
0 1 0
0 1 0
0 1 0
0 1 0
0 1 0
0 1 0
0 1 0
0 1 0
0 1 0
0 1 0
0 1 0
0.237446 0.994781 0
0.366033 0.995041 0
0.464652 0.995895 0
0.547448 0.996002 0
0.620493 0.99646 0
0.685939 0.997162 0
0.744625 0.997452 0
0.797436 0.99794 0
0.844495 0.997986 0
0.886961 0.998291 0
0.924269 0.998596 0
0.957259 0.998734 0
0.986023 0.998825 0
1 0.99913 0
1 0.99913 0
1 0.99913 0
1 0.99913 0
0 1 0
0 1 0
0 1 0
0 1 0
0 1 0
0 1 0
0 1 0
0 1 0
0 1 0
