luts/warm_cool.cube
LUT_3D_SIZE 33
0.000000 0.000000 0.018062
0.000000 0.000000 0.018062
0.000000 0.000000 0.018062
0.053473 0.000298 0.018575
0.115173 0.000642 0.019166
0.154685 0.001021 0.019777
0.186129 0.001413 0.020394
0.215272 0.001710 0.020848
0.242881 0.001943 0.021192
0.269688 0.002162 0.021523
0.295577 0.002362 0.021839
0.321071 0.002562 0.022150
0.345777 0.002762 0.022452
0.370334 0.002960 0.022752
0.394301 0.003152 0.023041
0.418220 0.003345 0.023330
0.441468 0.003534 0.023610
0.464717 0.003722 0.023890
0.487964 0.003911 0.024169
0.511212 0.004099 0.024447
0.534964 0.004295 0.024731
0.558842 0.004491 0.025017
0.583115 0.004690 0.025306
0.607585 0.004891 0.025597
0.632669 0.005097 0.025895
0.658289 0.005308 0.026199
0.684411 0.005525 0.026509
0.711286 0.005749 0.026828
0.738633 0.005976 0.027151
0.767280 0.006207 0.027485
0.796328 0.006444 0.027824
0.827984 0.006715 0.028198
0.859641 0.006985 0.028573
0.000000 0.000000 0.018062
0.000000 0.000000 0.018062
0.000000 0.000000 0.018062
0.053473 0.000299 0.018575
0.115172 0.000643 0.019166
0.154685 0.001022 0.019777
0.186129 0.001413 0.020394
0.215272 0.001710 0.020848
0.242881 0.001944 0.021192
0.269688 0.002162 0.021523
0.295577 0.002362 0.021839
0.321071 0.002562 0.022150
0.345777 0.002761 0.022452
0.370334 0.002959 0.022752
0.394301 0.003152 0.023041
0.418220 0.003345 0.023330
0.441469 0.003533 0.023610
0.464717 0.003722 0.023890
0.487964 0.003911 0.024169
0.511212 0.004099 0.024447
0.534964 0.004294 0.024731
0.558842 0.004491 0.025017
0.583115 0.004690 0.025306
0.607585 0.004891 0.025597
0.632669 0.005097 0.025895
0.658289 0.005308 0.026199
0.684411 0.005525 0.026509
0.711286 0.005749 0.026828
0.738633 0.005976 0.027151
0.767280 0.006207 0.027485
0.796328 0.006444 0.027824
0.827984 0.006715 0.028198
0.859641 0.006985 0.028573
0.000000 0.000000 0.018062
0.000000 0.000000 0.018062
0.000000 0.000000 0.018062
0.053473 0.000299 0.018575
0.115172 0.000644 0.019166
0.154684 0.001023 0.019777
0.186129 0.001414 0.020394
0.215272 0.001710 0.020848
0.242881 0.001944 0.021192
0.269688 0.002162 0.021523
0.295577 0.002362 0.021839
0.321071 0.002562 0.022150
0.345777 0.002761 0.022452
0.370334 0.002959 0.022752
0.394301 0.003152 0.023041
0.418220 0.003345 0.023330
0.441468 0.003534 0.023610
0.464717 0.003722 0.023890
0.487964 0.003911 0.024169
0.511212 0.004099 0.024447
0.534963 0.004294 0.024731
0.558842 0.004491 0.025017
0.583115 0.004690 0.025306
0.607585 0.004891 0.025597
0.632669 0.005097 0.025895
0.658289 0.005308 0.026199
0.684411 0.005525 0.026509
0.711286 0.005749 0.026828
0.738633 0.005976 0.027151
0.767280 0.006207 0.027485
0.796328 0.006444 0.027824
0.827984 0.006715 0.028198
0.859641 0.006985 0.028573
0.000000 0.058135 0.018062
0.000000 0.058135 0.018062
0.000000 0.058135 0.018062
0.053314 0.058314 0.018366
0.114830 0.058520 0.018718
0.155343 0.056503 0.020602
0.188219 0.053676 0.023045
0.218254 0.051196 0.024612
0.246394 0.048946 0.025596
0.273216 0.046514 0.025932
0.298529 0.043876 0.025526
0.323533 0.041460 0.025220
0.347915 0.039491 0.025112
0.372175 0.037599 0.025034
0.395945 0.036014 0.025081
0.419673 0.034444 0.025133
0.442793 0.033068 0.025255
0.465914 0.031692 0.025377
0.489070 0.030536 0.025544
0.512230 0.029395 0.025713
0.535916 0.028523 0.025916
0.559733 0.027718 0.026128
0.583972 0.027087 0.026360
0.608422 0.026542 0.026602
0.633489 0.026184 0.026863
0.659096 0.025990 0.027140
0.685195 0.025924 0.027429
0.712031 0.026052 0.027736
0.739361 0.026280 0.028052
0.768053 0.026784 0.028394
0.797143 0.027353 0.028745
0.828825 0.028346 0.029147
0.860508 0.029338 0.029549
0.000000 0.125214 0.018062
0.000000 0.125214 0.018062
0.000000 0.125214 0.018062
0.053130 0.125254 0.018126
0.114435 0.125301 0.018200
0.156102 0.120518 0.021555
0.190630 0.113980 0.026103
0.221693 0.108295 0.028955
0.250447 0.103179 0.030677
0.277286 0.097690 0.031018
0.301936 0.091776 0.029781
0.326373 0.086343 0.028763
0.350382 0.081872 0.028180
0.374298 0.077568 0.027667
0.397843 0.073932 0.027435
0.421349 0.070327 0.027214
0.444321 0.067146 0.027153
0.467294 0.063965 0.027093
0.490346 0.061257 0.027130
0.513405 0.058583 0.027173
0.537014 0.056479 0.027283
0.560762 0.054518 0.027410
0.584962 0.052928 0.027576
0.609387 0.051524 0.027762
0.634435 0.050516 0.027979
0.660028 0.049853 0.028225
0.686100 0.049462 0.028489
0.712890 0.049478 0.028782
0.740201 0.049708 0.029091
0.768944 0.050527 0.029444
0.798084 0.051479 0.029807
0.829795 0.053305 0.030241
0.861507 0.055130 0.030675
0.000000 0.167524 0.018062
0.000000 0.167524 0.018062
0.000000 0.167524 0.018062
0.049880 0.167525 0.018062
0.107433 0.167526 0.018062
0.150125 0.163905 0.020521
0.187412 0.158968 0.023874
0.219383 0.152960 0.026013
0.247809 0.146239 0.027344
0.275761 0.140837 0.029080
0.303171 0.136942 0.031277
0.329721 0.132947 0.032869
0.354550 0.128751 0.033246
0.379081 0.124553 0.033454
0.402417 0.120349 0.032984
0.425708 0.116175 0.032516
0.448383 0.112425 0.032085
0.471058 0.108675 0.031654
0.493854 0.105575 0.031392
0.516659 0.102522 0.031141
0.540085 0.100157 0.031023
0.563667 0.097966 0.030938
0.587732 0.096208 0.030930
0.612038 0.094668 0.030961
0.636979 0.093556 0.031047
0.662476 0.092818 0.031179
0.688460 0.092357 0.031342
0.715177 0.092312 0.031551
0.742417 0.092484 0.031781
0.771095 0.093252 0.032070
0.800174 0.094157 0.032371
0.831855 0.095949 0.032755
0.863536 0.097740 0.033139
0.000000 0.200827 0.018062
0.000000 0.200827 0.018062
0.000000 0.200827 0.018062
0.045514 0.200825 0.018062
0.098030 0.200822 0.018062
0.141697 0.199791 0.018765
0.182148 0.198387 0.019723
0.214981 0.193105 0.020423
0.242737 0.185236 0.020952
0.272201 0.181063 0.024586
0.303615 0.181114 0.031770
0.333253 0.180177 0.037179
0.359337 0.177266 0.039039
0.384831 0.174090 0.040388
0.407965 0.169856 0.039695
0.431044 0.165646 0.038990
0.453367 0.161777 0.038120
0.475690 0.157908 0.037251
0.498173 0.154837 0.036626
0.520669 0.151824 0.036019
0.543873 0.149553 0.035624
0.567255 0.147467 0.035282
0.591150 0.145830 0.035062
0.615303 0.144416 0.034903
0.640104 0.143399 0.034823
0.665474 0.142729 0.034814
0.691349 0.142291 0.034848
0.717983 0.142204 0.034947
0.745133 0.142296 0.035072
0.773705 0.142880 0.035269
0.802683 0.143580 0.035480
0.834311 0.145023 0.035785
0.865938 0.146467 0.036090
0.000000 0.231600 0.018062
0.000000 0.231600 0.018062
0.000000 0.231600 0.018062
0.042099 0.231599 0.018062
0.090674 0.231598 0.018062
0.133990 0.231603 0.018062
0.175394 0.231612 0.018062
0.209765 0.228024 0.018152
0.239445 0.222040 0.018301
0.269711 0.218440 0.021460
0.300644 0.217565 0.028056
0.330314 0.216279 0.033519
0.357457 0.214170 0.036714
0.384172 0.211985 0.039583
0.409173 0.209494 0.041151
0.434044 0.206956 0.042612
0.457085 0.203741 0.042578
0.480125 0.200527 0.042545
0.502704 0.197551 0.042032
0.525250 0.194592 0.041485
0.548336 0.192233 0.040947
0.571557 0.190025 0.040411
0.595279 0.188259 0.039976
0.619250 0.186714 0.039591
0.643876 0.185570 0.039301
0.669075 0.184778 0.039095
0.694797 0.184217 0.038944
0.721303 0.184001 0.038878
0.748325 0.183963 0.038847
0.776762 0.184411 0.038911
0.805614 0.184973 0.038994
0.837160 0.186272 0.039191
0.868705 0.187570 0.039388
0.000000 0.260688 0.018062
0.000000 0.260688 0.018062
0.000000 0.260688 0.018062
0.039317 0.260690 0.018062
0.084684 0.260694 0.018062
0.126764 0.260699 0.018062
0.167649 0.260705 0.018062
0.204004 0.259461 0.018093
0.237340 0.257382 0.018145
0.267934 0.253917 0.019244
0.295397 0.248869 0.021538
0.323062 0.244961 0.024545
0.351132 0.243333 0.028977
0.379239 0.242118 0.033619
0.407490 0.242554 0.039104
0.435489 0.242825 0.044334
0.459959 0.240781 0.045985
0.484429 0.238737 0.047636
0.507376 0.235899 0.047552
0.530213 0.233004 0.047343
0.553250 0.230438 0.046750
0.576337 0.227953 0.046062
0.599880 0.225893 0.045411
0.623652 0.224045 0.044778
0.648079 0.222628 0.044248
0.673078 0.221588 0.043806
0.698617 0.220803 0.043434
0.724967 0.220402 0.043167
0.751833 0.220200 0.042946
0.780119 0.220544 0.042849
0.808826 0.221014 0.042776
0.840271 0.222303 0.042847
0.871716 0.223591 0.042918
0.000000 0.288826 0.018062
0.000000 0.288826 0.018062
0.000000 0.288826 0.018062
0.036871 0.288830 0.018062
0.079414 0.288835 0.018062
0.120474 0.288840 0.018062
0.160995 0.288845 0.018062
0.198194 0.288849 0.018062
0.233180 0.288853 0.018062
0.264489 0.286203 0.018062
0.291598 0.280522 0.018062
0.318898 0.275896 0.019388
0.346580 0.273380 0.023366
0.374481 0.271486 0.027775
0.403259 0.272074 0.033910
0.431873 0.272591 0.039896
0.458182 0.272103 0.043803
0.484492 0.271614 0.047711
0.508756 0.269849 0.049182
0.532874 0.267992 0.050478
0.556616 0.265955 0.050706
0.580263 0.263872 0.050665
0.604080 0.261965 0.050335
0.627981 0.260145 0.049859
0.652440 0.258675 0.049359
0.677387 0.257512 0.048838
0.702847 0.256597 0.048358
0.729076 0.256054 0.047940
0.755817 0.255721 0.047567
0.783966 0.255967 0.047318
0.812540 0.256349 0.047092
0.843872 0.257619 0.047029
0.875203 0.258888 0.046966
0.000000 0.315879 0.018062
0.000000 0.315879 0.018062
0.000000 0.315879 0.018062
0.034806 0.315883 0.018062
0.074967 0.315886 0.018062
0.115255 0.315890 0.018062
0.155588 0.315893 0.018062
0.192328 0.315897 0.018062
0.226672 0.315899 0.018062
0.259138 0.314842 0.018062
0.289457 0.312572 0.018062
0.318266 0.309403 0.018592
0.344055 0.304437 0.020183
0.369925 0.299978 0.022067
0.396118 0.297549 0.025117
0.422474 0.295383 0.028419
0.451090 0.296890 0.035235
0.479707 0.298397 0.042051
0.506375 0.298771 0.046366
0.532904 0.299065 0.050503
0.558212 0.298400 0.052549
0.583216 0.297495 0.054073
0.607821 0.296251 0.054676
0.632226 0.294838 0.054819
0.656983 0.293569 0.054659
0.682047 0.292425 0.054235
0.707545 0.291484 0.053777
0.733694 0.290849 0.053267
0.760344 0.290425 0.052787
0.788375 0.290579 0.052392
0.816828 0.290877 0.052021
0.848031 0.292116 0.051812
0.879234 0.293356 0.051604
0.000000 0.342502 0.018062
0.000000 0.342502 0.018062
0.000000 0.342502 0.018062
0.032870 0.342505 0.018062
0.070797 0.342509 0.018062
0.110392 0.342509 0.018062
0.150594 0.342507 0.018062
0.186932 0.342509 0.018062
0.220694 0.342512 0.018062
0.253768 0.342516 0.018062
0.286058 0.342520 0.018062
0.316086 0.340668 0.018062
0.341589 0.335100 0.018062
0.366861 0.329703 0.018230
0.391207 0.324991 0.019069
0.415867 0.320699 0.020345
0.444913 0.322302 0.027732
0.473959 0.323906 0.035119
0.502061 0.325442 0.041179
0.530095 0.326975 0.047144
0.557002 0.327715 0.051087
0.583627 0.328257 0.054525
0.609413 0.328061 0.056524
0.634779 0.327496 0.057802
0.660240 0.326832 0.058456
0.685784 0.326080 0.058563
0.711635 0.325434 0.058498
0.737947 0.324949 0.058174
0.764720 0.324644 0.057830
0.792760 0.324831 0.057430
0.821215 0.325164 0.057044
0.852359 0.326438 0.056757
0.883503 0.327712 0.056469
0.000000 0.368263 0.018062
0.000000 0.368263 0.018062
0.000000 0.368263 0.018062
0.031191 0.368269 0.018062
0.067180 0.368275 0.018062
0.106244 0.368266 0.018062
0.146426 0.368252 0.018062
0.182476 0.368249 0.018062
0.215773 0.368255 0.018062
0.248363 0.368261 0.018062
0.280145 0.368267 0.018062
0.310811 0.367448 0.018062
0.339242 0.364977 0.018062
0.366781 0.361895 0.018137
0.390755 0.356366 0.018510
0.414844 0.351066 0.019077
0.440565 0.348966 0.022360
0.466285 0.346867 0.025643
0.493881 0.347610 0.031246
0.521611 0.348557 0.037015
0.550178 0.350769 0.043014
0.578955 0.353296 0.049070
0.606708 0.354917 0.053388
0.633949 0.356085 0.056836
0.660928 0.356835 0.059247
0.687677 0.357220 0.060753
0.714511 0.357510 0.061824
0.741471 0.357658 0.062242
0.768791 0.357892 0.062517
0.797100 0.358367 0.062396
0.825798 0.358969 0.062259
0.857021 0.360408 0.062024
0.888244 0.361847 0.061789
0.000000 0.393824 0.018062
0.000000 0.393824 0.018062
0.000000 0.393824 0.018062
0.029558 0.393831 0.018062
0.063663 0.393839 0.018062
0.102229 0.393825 0.018062
0.142416 0.393803 0.018062
0.178204 0.393798 0.018062
0.211060 0.393805 0.018062
0.243186 0.393813 0.018062
0.274478 0.393820 0.018062
0.305570 0.393828 0.018062
0.336260 0.393834 0.018062
0.365658 0.392719 0.018062
0.389885 0.387117 0.018062
0.414034 0.381546 0.018062
0.437090 0.376404 0.018062
0.460146 0.371263 0.018062
0.486942 0.370927 0.022809
0.514004 0.370934 0.027895
0.543422 0.373801 0.034973
0.573428 0.377383 0.042549
0.602742 0.380409 0.048727
0.631710 0.383158 0.054205
0.660198 0.385319 0.058391
0.688268 0.386964 0.061445
0.716226 0.388332 0.063823
0.744016 0.389285 0.065186
0.772062 0.390232 0.066279
0.800809 0.391161 0.066630
0.829912 0.392198 0.066930
0.861327 0.393937 0.066896
0.892742 0.395676 0.066863
0.000000 0.418583 0.018062
0.000000 0.418583 0.018062
0.000000 0.418583 0.018062
0.028112 0.418589 0.018062
0.060549 0.418595 0.018062
0.098749 0.418590 0.018062
0.139045 0.418582 0.018062
0.174668 0.418582 0.018062
0.207176 0.418588 0.018062
0.238921 0.418593 0.018062
0.269794 0.418599 0.018062
0.300467 0.418604 0.018062
0.330740 0.418609 0.018062
0.360357 0.418073 0.018062
0.387346 0.415370 0.018062
0.414072 0.412478 0.018062
0.437109 0.406938 0.018062
0.460145 0.401399 0.018062
0.484963 0.398837 0.020354
0.509908 0.396488 0.022809
0.536934 0.396747 0.027062
0.564480 0.397658 0.031764
0.593729 0.400444 0.037968
0.623830 0.404168 0.044923
0.653799 0.407720 0.050943
0.683653 0.411121 0.056147
0.713304 0.414141 0.060515
0.742650 0.416590 0.063630
0.772134 0.418936 0.066341
0.801994 0.420995 0.067941
0.832147 0.423123 0.069429
0.864204 0.425704 0.070192
0.896260 0.428284 0.070955
0.000000 0.443293 0.018062
0.000000 0.443293 0.018062
0.000000 0.443293 0.018062
0.026675 0.443296 0.018062
0.057453 0.443299 0.018062
0.095295 0.443304 0.018062
0.135706 0.443310 0.018062
0.171170 0.443314 0.018062
0.203336 0.443318 0.018062
0.234705 0.443321 0.018062
0.265163 0.443325 0.018062
0.295422 0.443328 0.018062
0.325281 0.443332 0.018062
0.355077 0.443336 0.018062
0.384621 0.443339 0.018062
0.413742 0.442960 0.018062
0.436937 0.437234 0.018062
0.460132 0.431508 0.018062
0.483117 0.426863 0.018062
0.506087 0.422295 0.018062
0.530841 0.420064 0.019628
0.556039 0.418418 0.021585
0.585070 0.420812 0.027621
0.616016 0.425227 0.035698
0.647251 0.429955 0.043298
0.678740 0.434958 0.050482
0.709988 0.439534 0.056738
0.740876 0.443469 0.061599
0.771794 0.447212 0.065934
0.802795 0.450431 0.068818
0.834028 0.453682 0.071532
0.866773 0.457142 0.073137
0.899518 0.460602 0.074742
0.000000 0.467305 0.018062
0.000000 0.467304 0.018062
0.000000 0.467305 0.018062
0.025355 0.467299 0.018062
0.054611 0.467294 0.018062
0.092200 0.467297 0.018062
0.132819 0.467304 0.018062
0.168202 0.467309 0.018062
0.200094 0.467314 0.018062
0.231158 0.467319 0.018062
0.261276 0.467324 0.018062
0.291181 0.467328 0.018062
0.320662 0.467332 0.018062
0.350086 0.467336 0.018062
0.379285 0.467334 0.018062
0.408260 0.467136 0.018062
0.434106 0.464184 0.018062
0.459953 0.461231 0.018062
0.483125 0.456497 0.018062
0.506105 0.451637 0.018062
0.530258 0.448583 0.018870
0.554703 0.445981 0.019880
0.581355 0.445856 0.023042
0.609111 0.446969 0.027280
0.638620 0.449866 0.032885
0.669664 0.454324 0.039688
0.701175 0.459106 0.046383
0.733387 0.464375 0.052915
0.765683 0.469516 0.058952
0.798209 0.474306 0.063628
0.830944 0.479108 0.068091
0.865033 0.483982 0.071170
0.899123 0.488855 0.074249
0.000000 0.491316 0.018062
0.000000 0.491316 0.018062
0.000000 0.491316 0.018062
0.024036 0.491303 0.018062
0.051770 0.491288 0.018062
0.089105 0.491290 0.018062
0.129931 0.491298 0.018062
0.165233 0.491305 0.018062
0.196852 0.491311 0.018062
0.227612 0.491317 0.018062
0.257389 0.491322 0.018062
0.286941 0.491328 0.018062
0.316043 0.491333 0.018062
0.345096 0.491336 0.018062
0.373948 0.491330 0.018062
0.402777 0.491313 0.018062
0.431275 0.491133 0.018062
0.459773 0.490954 0.018062
0.483132 0.486132 0.018062
0.506123 0.480979 0.018062
0.529675 0.477102 0.018113
0.553367 0.473544 0.018176
0.577641 0.470899 0.018463
0.602206 0.468712 0.018861
0.629989 0.469777 0.022472
0.660588 0.473689 0.028894
0.692362 0.478677 0.036028
0.725898 0.485281 0.044230
0.759572 0.491820 0.051970
0.793623 0.498182 0.058437
0.827859 0.504534 0.064650
0.863293 0.510822 0.069203
0.898727 0.517109 0.073756
0.000000 0.515160 0.018062
0.000000 0.515160 0.018062
0.000000 0.515160 0.018062
0.022887 0.515154 0.018062
0.049295 0.515147 0.018062
0.086476 0.515151 0.018062
0.127576 0.515158 0.018062
0.162856 0.515164 0.018062
0.194257 0.515170 0.018062
0.224781 0.515175 0.018062
0.254305 0.515180 0.018062
0.283597 0.515185 0.018062
0.312422 0.515189 0.018062
0.341194 0.515193 0.018062
0.369751 0.515191 0.018062
0.398298 0.515190 0.018062
0.426720 0.515195 0.018062
0.455142 0.515200 0.018062
0.480524 0.512486 0.018062
0.505688 0.509577 0.018062
0.529634 0.505966 0.018062
0.553276 0.502178 0.018062
0.577371 0.499201 0.018116
0.601694 0.496630 0.018196
0.628136 0.496261 0.020152
0.656432 0.497820 0.023750
0.686062 0.500633 0.028333
0.717694 0.505327 0.034394
0.750134 0.510634 0.040788
0.784799 0.517626 0.048098
0.819736 0.524712 0.055248
0.856451 0.532410 0.061357
0.893166 0.540107 0.067467
0.000000 0.538993 0.018062
0.000000 0.538993 0.018062
0.000000 0.538993 0.018062
0.021750 0.538995 0.018062
0.046846 0.538998 0.018062
0.083881 0.539003 0.018062
0.125259 0.539009 0.018062
0.160522 0.539014 0.018062
0.191707 0.539019 0.018062
0.222002 0.539023 0.018062
0.251279 0.539028 0.018062
0.280316 0.539032 0.018062
0.308873 0.539036 0.018062
0.337371 0.539039 0.018062
0.365634 0.539043 0.018062
0.393891 0.539046 0.018062
0.422042 0.539050 0.018062
0.450194 0.539054 0.018062
0.477729 0.538605 0.018062
0.505219 0.538123 0.018062
0.529631 0.534855 0.018062
0.553274 0.530889 0.018062
0.577348 0.527736 0.018071
0.601639 0.524989 0.018084
0.626767 0.523214 0.018410
0.652627 0.522291 0.019010
0.679941 0.522759 0.020829
0.709438 0.525312 0.024475
0.740459 0.529200 0.029306
0.775671 0.536754 0.037391
0.811254 0.544516 0.045421
0.849245 0.553623 0.053092
0.887236 0.562730 0.060764
0.000000 0.563342 0.018062
0.000000 0.563342 0.018062
0.000000 0.563342 0.018062
0.020828 0.563343 0.018062
0.044861 0.563344 0.018062
0.081816 0.563348 0.018062
0.123470 0.563352 0.018062
0.158750 0.563356 0.018062
0.189780 0.563360 0.018062
0.219903 0.563364 0.018062
0.248988 0.563367 0.018062
0.277831 0.563370 0.018062
0.306190 0.563374 0.018062
0.334487 0.563377 0.018062
0.362538 0.563380 0.018062
0.390580 0.563384 0.018062
0.418513 0.563388 0.018062
0.446445 0.563393 0.018062
0.474254 0.563396 0.018062
0.502053 0.563399 0.018062
0.527690 0.561400 0.018062
0.552787 0.558900 0.018062
0.577342 0.556140 0.018062
0.601627 0.553250 0.018062
0.626492 0.551111 0.018062
0.651864 0.549630 0.018062
0.678340 0.549212 0.018853
0.706471 0.550389 0.020831
0.735887 0.552693 0.023736
0.768840 0.558096 0.029194
0.802440 0.563985 0.034939
0.840251 0.573033 0.042556
0.878062 0.582082 0.050172
0.000000 0.587820 0.018062
0.000000 0.587820 0.018062
0.000000 0.587820 0.018062
0.019961 0.587817 0.018062
0.042993 0.587814 0.018062
0.079883 0.587816 0.018062
0.121813 0.587819 0.018062
0.157119 0.587822 0.018062
0.188009 0.587825 0.018062
0.217973 0.587827 0.018062
0.246880 0.587830 0.018062
0.275544 0.587832 0.018062
0.303724 0.587835 0.018062
0.331838 0.587837 0.018062
0.359696 0.587839 0.018062
0.387544 0.587842 0.018062
0.415271 0.587847 0.018062
0.442997 0.587852 0.018062
0.470609 0.587855 0.018062
0.498212 0.587857 0.018062
0.525264 0.587359 0.018062
0.552179 0.586735 0.018062
0.577341 0.584511 0.018062
0.601626 0.581487 0.018062
0.626490 0.579245 0.018062
0.651862 0.577686 0.018062
0.677868 0.576748 0.018260
0.704825 0.576738 0.018754
0.732591 0.577418 0.019644
0.762583 0.579991 0.021624
0.793544 0.583371 0.024293
0.830810 0.591993 0.031451
0.868076 0.600616 0.038609
0.000000 0.612664 0.018062
0.000000 0.612664 0.018062
0.000000 0.612664 0.018062
0.019235 0.612662 0.018062
0.041430 0.612660 0.018062
0.078288 0.612662 0.018062
0.120479 0.612665 0.018062
0.155824 0.612666 0.018062
0.186606 0.612665 0.018062
0.216447 0.612665 0.018062
0.245213 0.612667 0.018062
0.273734 0.612670 0.018062
0.301764 0.612672 0.018062
0.329728 0.612675 0.018062
0.357432 0.612677 0.018062
0.385127 0.612679 0.018062
0.412697 0.612684 0.018062
0.440266 0.612689 0.018062
0.467721 0.612691 0.018062
0.495167 0.612694 0.018062
0.522599 0.612696 0.018062
0.550027 0.612698 0.018062
0.575978 0.611293 0.018062
0.601191 0.609184 0.018062
0.626489 0.607333 0.018062
0.651860 0.605708 0.018062
0.677709 0.604566 0.018062
0.704274 0.604145 0.018062
0.731436 0.604229 0.018212
0.760243 0.605700 0.018776
0.789916 0.607881 0.019907
0.825217 0.614681 0.024722
0.860519 0.621481 0.029538
0.000000 0.637691 0.018062
0.000000 0.637691 0.018062
0.000000 0.637691 0.018062
0.018580 0.637692 0.018062
0.040019 0.637692 0.018062
0.076862 0.637696 0.018062
0.119306 0.637701 0.018062
0.154698 0.637698 0.018062
0.185387 0.637692 0.018062
0.215122 0.637689 0.018062
0.243767 0.637692 0.018062
0.272161 0.637695 0.018062
0.300057 0.637698 0.018062
0.327888 0.637701 0.018062
0.355458 0.637704 0.018062
0.383020 0.637707 0.018062
0.410456 0.637710 0.018062
0.437893 0.637714 0.018062
0.465211 0.637717 0.018062
0.492521 0.637720 0.018062
0.519814 0.637722 0.018062
0.547102 0.637725 0.018062
0.573935 0.637280 0.018062
0.600540 0.636611 0.018062
0.626487 0.635400 0.018062
0.651858 0.633714 0.018062
0.677706 0.632525 0.018062
0.704270 0.632081 0.018062
0.731352 0.632084 0.018110
0.759862 0.633316 0.018289
0.788921 0.634955 0.018649
0.821549 0.639233 0.020181
0.854176 0.643512 0.021713
0.000000 0.663278 0.018062
0.000000 0.663278 0.018062
0.000000 0.663278 0.018062
0.018083 0.663280 0.018062
0.038948 0.663283 0.018062
0.075786 0.663287 0.018062
0.118431 0.663292 0.018062
0.153860 0.663291 0.018062
0.184478 0.663285 0.018062
0.214133 0.663281 0.018062
0.242690 0.663280 0.018062
0.270993 0.663279 0.018062
0.298791 0.663276 0.018062
0.326526 0.663275 0.018062
0.354008 0.663278 0.018062
0.381478 0.663281 0.018062
0.408797 0.663284 0.018062
0.436116 0.663287 0.018062
0.463342 0.663290 0.018062
0.490561 0.663294 0.018062
0.517753 0.663297 0.018062
0.544938 0.663300 0.018062
0.572144 0.663303 0.018062
0.599361 0.663306 0.018062
0.625816 0.662622 0.018062
0.651605 0.661337 0.018062
0.677704 0.660387 0.018062
0.704266 0.659939 0.018062
0.731310 0.659909 0.018062
0.759683 0.661030 0.018062
0.788456 0.662427 0.018062
0.819835 0.665618 0.018062
0.851214 0.668808 0.018062
0.000000 0.689356 0.018062
0.000000 0.689356 0.018062
0.000000 0.689356 0.018062
0.017724 0.689358 0.018062
0.038175 0.689361 0.018062
0.075016 0.689365 0.018062
0.117816 0.689371 0.018062
0.153275 0.689373 0.018062
0.183839 0.689373 0.018062
0.213439 0.689369 0.018062
0.241936 0.689360 0.018062
0.270178 0.689350 0.018062
0.297911 0.689337 0.018062
0.325584 0.689328 0.018062
0.353015 0.689331 0.018062
0.380431 0.689334 0.018062
0.407646 0.689337 0.018062
0.434860 0.689341 0.018062
0.462032 0.689344 0.018062
0.489201 0.689347 0.018062
0.516326 0.689350 0.018062
0.543440 0.689354 0.018062
0.570575 0.689357 0.018062
0.597720 0.689360 0.018062
0.624560 0.689106 0.018062
0.651133 0.688626 0.018062
0.677701 0.688164 0.018062
0.704262 0.687728 0.018062
0.731306 0.687708 0.018062
0.759680 0.688830 0.018062
0.788454 0.690250 0.018062
0.819833 0.693606 0.018062
0.851212 0.696962 0.018062
0.000000 0.715914 0.018062
0.000000 0.715914 0.018062
0.000000 0.715914 0.018062
0.017471 0.715916 0.018062
0.037629 0.715919 0.018062
0.074473 0.715924 0.018062
0.117384 0.715929 0.018062
0.152864 0.715934 0.018062
0.183391 0.715937 0.018062
0.212952 0.715935 0.018062
0.241409 0.715924 0.018062
0.269611 0.715912 0.018062
0.297300 0.715898 0.018062
0.324929 0.715887 0.018062
0.352313 0.715890 0.018062
0.379682 0.715893 0.018062
0.406838 0.715897 0.018062
0.433994 0.715900 0.018062
0.461122 0.715904 0.018062
0.488248 0.715907 0.018062
0.515326 0.715910 0.018062
0.542394 0.715913 0.018062
0.569477 0.715917 0.018062
0.596570 0.715920 0.018062
0.623629 0.715923 0.018062
0.650660 0.715926 0.018062
0.677539 0.715789 0.018062
0.704190 0.715442 0.018062
0.731302 0.715496 0.018062
0.759676 0.716650 0.018062
