luts/warm2.cube
LUT_3D_SIZE 5
0.00392157 0.00401312 0.00408942
0.236927 0.0482795 0.0528573
0.715114 6.10361e-05 1.5259e-05
1 0.000396735 0.000411994
1 0.000396735 0.000411994
0 0.286351 0.0137942
0.246403 0.265675 0.00199893
0.685679 0.222324 0
1 0.129488 0
1 0.0276493 0.000579843
0 0.648753 0
0 0.642847 0
0.577844 0.620996 0
0.986923 0.593378 0
1 0.572 0
0 0.987366 0
0 0.98378 0
0.328099 0.967163 0
0.872312 0.95227 0
1 0.940078 0
0 1 0
0 1 0
0 1 0
0.784604 0.997742 0
1 0.99913 0
0.0069276 0.0122072 0.0511177
0.242374 0.0376898 0.291112
0.716152 0 0.240345
1 0.000396735 0.193072
1 0.000335698 0.152346
0 0.245716 0.258961
0.228489 0.223484 0.234714
0.683009 0.169436 0.191546
1 0.0401312 0.133181
1 0.000640879 0.0751965
0 0.631388 0.0379797
0 0.625437 0.0181125
0.574762 0.602853 0
0.985077 0.57438 0
1 0.552285 0
0 0.976471 0
0 0.973007 0
0.321843 0.955993 0
0.870619 0.940902 0
1 0.928679 0
0 1 0
0 1 0
0 1 0
0.782177 0.997696 0
1 0.99913 0
0 0.00883497 0.0686961
0.248692 0.0175937 0.601373
0.707698 0 0.624002
1 0 0.60737
1 0 0.594736
0 0.043595 0.337881
0.127642 0.0296025 0.530129
0.675502 0 0.606088
1 0 0.589258
1 3.0518e-05 0.576104
0 0.576989 0.566567
0 0.570367 0.562646
0.564569 0.546029 0.546029
0.980026 0.514168 0.528374
1 0.489235 0.513924
0 0.943435 0.460624
0 0.940047 0.455589
0.302602 0.92224 0.434974
0.86392 0.906661 0.413672
1 0.894347 0.396521
0 1 0.372854
0 1 0.366644
0 1 0.348333
0.774868 0.99733 0.313832
0.995697 0.99443 0.348898
0 0.0270848 0.573129
0.25919 0.00482185 0.921294
0.693858 0 0.966995
1 0 0.957183
1 0 0.949401
0 0.0271305 0.555428
0.133867 0.0146944 0.809186
0.660777 0 0.955795
1 0 0.94641
1 0 0.938506
3.0518e-05 0.471702 0.932403
0 0.463859 0.930129
0.547555 0.434363 0.917952
0.971496 0.392752 0.909285
1 0.359503 0.90164
0 0.88574 0.871351
0 0.88159 0.86836
0.267796 0.863325 0.855116
0.853254 0.846281 0.846296
1 0.83267 0.838331
0 1 0.82858
0 1 0.82623
0 1 0.818418
0.762692 0.99704 0.802197
0.990097 0.989624 0.917708
0 0.0270848 0.627558
0.233082 0.00578317 0.939834
0.684077 0 1
1 0 1
1 0 1
0 0.0270848 0.627558
0.0905928 0.0177768 0.7991
0.650614 0 1
1 0 1
1 0 1
0.000350958 0.382574 1
0.000488289 0.372702 1
0.535882 0.33695 1
0.966247 0.281453 1
1 0.23418 1
0 0.843244 1
0 0.83917 1
0.240635 0.819852 0.995117
0.846296 0.80177 0.999023
1 0.787366 1
0 1 1
0 1 1
0 1 1
0.766888 0.993805 0.993835
0.999161 0.9991 0.9991
