luts/warm_cool.cube
LUT_3D_SIZE 9
0.000000 0.000000 0.018062
0.115173 0.000642 0.019166
0.242881 0.001943 0.021192
0.345777 0.002762 0.022452
0.441468 0.003534 0.023610
0.534964 0.004295 0.024731
0.632669 0.005097 0.025895
0.738633 0.005976 0.027151
0.859641 0.006985 0.028573
0.000000 0.125214 0.018062
0.114435 0.125301 0.018200
0.250447 0.103179 0.030677
0.350382 0.081872 0.028180
0.444321 0.067146 0.027153
0.537014 0.056479 0.027283
0.634435 0.050516 0.027979
0.740201 0.049708 0.029091
0.861507 0.055130 0.030675
0.000000 0.260688 0.018062
0.084684 0.260694 0.018062
0.237340 0.257382 0.018145
0.351132 0.243333 0.028977
0.459959 0.240781 0.045985
0.553250 0.230438 0.046750
0.648079 0.222628 0.044248
0.751833 0.220200 0.042946
0.871716 0.223591 0.042918
0.000000 0.368263 0.018062
0.067180 0.368275 0.018062
0.215773 0.368255 0.018062
0.339242 0.364977 0.018062
0.440565 0.348966 0.022360
0.550178 0.350769 0.043014
0.660928 0.356835 0.059247
0.768791 0.357892 0.062517
0.888244 0.361847 0.061789
0.000000 0.467305 0.018062
0.054611 0.467294 0.018062
0.200094 0.467314 0.018062
0.320662 0.467332 0.018062
0.434106 0.464184 0.018062
0.530258 0.448583 0.018870
0.638620 0.449866 0.032885
0.765683 0.469516 0.058952
0.899123 0.488855 0.074249
0.000000 0.563342 0.018062
0.044861 0.563344 0.018062
0.189780 0.563360 0.018062
0.306190 0.563374 0.018062
0.418513 0.563388 0.018062
0.527690 0.561400 0.018062
0.626492 0.551111 0.018062
0.735887 0.552693 0.023736
0.878062 0.582082 0.050172
0.000000 0.663278 0.018062
0.038948 0.663283 0.018062
0.184478 0.663285 0.018062
0.298791 0.663276 0.018062
0.408797 0.663284 0.018062
0.517753 0.663297 0.018062
0.625816 0.662622 0.018062
0.731310 0.659909 0.018062
0.851214 0.668808 0.018062
0.000000 0.770939 0.018062
0.037403 0.770940 0.018062
0.183215 0.770957 0.018062
0.297088 0.770972 0.018062
0.406519 0.770986 0.018062
0.514945 0.771000 0.018062
0.623143 0.771011 0.018062
0.731573 0.771340 0.018062
0.851444 0.781363 0.018062
0.000000 0.893280 0.018062
0.041140 0.893289 0.018062
0.186354 0.893319 0.018062
0.301421 0.893342 0.018062
0.412251 0.893365 0.018062
0.518577 0.894210 0.018062
0.623341 0.896059 0.018062
0.735793 0.896497 0.018062
0.851148 0.894125 0.018062
0.000000 0.000000 0.184532
0.114435 0.000080 0.184892
0.240770 0.000243 0.146065
0.344487 0.001729 0.124360
0.441121 0.003236 0.108913
0.534998 0.004323 0.096518
0.632907 0.005248 0.089196
0.738874 0.006123 0.088113
0.859698 0.007140 0.094895
0.000000 0.125210 0.184751
0.109625 0.123540 0.195027
0.270083 0.099779 0.179722
0.377039 0.080672 0.163345
0.469132 0.071767 0.155049
0.558537 0.067766 0.151002
0.652753 0.066281 0.149250
0.755795 0.066290 0.148913
0.874193 0.067388 0.149658
0.000000 0.260680 0.145649
0.065125 0.265925 0.159533
0.238694 0.262458 0.126081
0.374648 0.250192 0.129402
0.488008 0.243277 0.135812
0.579479 0.227914 0.128967
0.671887 0.217328 0.122710
0.772911 0.212816 0.119248
0.889735 0.214174 0.117961
0.000000 0.368256 0.121933
0.055140 0.372053 0.148343
0.203323 0.373510 0.104017
0.340059 0.367813 0.102062
0.451396 0.354529 0.105724
0.567070 0.357631 0.124316
0.678414 0.361423 0.136788
0.785082 0.359859 0.137731
0.902637 0.361613 0.135899
0.000000 0.467300 0.104419
0.052676 0.470131 0.144610
0.184840 0.471886 0.098041
0.316957 0.470490 0.097568
0.434727 0.466189 0.097079
0.536019 0.452274 0.097715
0.648664 0.455087 0.111123
0.777675 0.474558 0.135215
0.910801 0.492243 0.148851
0.000000 0.563338 0.090511
0.052022 0.565518 0.142941
0.174000 0.567196 0.096220
0.301044 0.566477 0.096140
0.416957 0.565565 0.096040
0.528068 0.562812 0.095969
0.629954 0.553686 0.095947
0.742190 0.556281 0.101603
0.886135 0.586088 0.126735
0.000000 0.663275 0.081926
0.052221 0.664985 0.142250
0.168720 0.666387 0.095923
0.292930 0.666021 0.095949
0.406330 0.665504 0.095997
0.516958 0.664875 0.096068
0.625984 0.663618 0.096186
0.733709 0.661860 0.096355
0.854915 0.670991 0.096707
0.000000 0.770936 0.079657
0.053046 0.772261 0.142246
0.167592 0.773508 0.096433
0.290780 0.773349 0.096495
0.403480 0.773047 0.096588
0.513557 0.772641 0.096722
0.622658 0.772183 0.096717
0.731684 0.772170 0.087195
0.853287 0.782921 0.073568
0.000000 0.893275 0.085166
0.054554 0.894369 0.142851
0.170724 0.895340 0.097601
0.294820 0.895245 0.097682
0.408465 0.895099 0.092588
0.514190 0.896236 0.018062
0.620769 0.897923 0.018062
0.735517 0.897314 0.018062
0.851137 0.894255 0.018062
0.000000 0.000000 0.346599
0.084250 0.000000 0.346685
0.237280 0.000000 0.343183
0.342377 0.000000 0.316568
0.437145 0.000070 0.297047
0.530145 0.000403 0.284572
0.627974 0.001293 0.278867
0.734563 0.002649 0.279105
0.856372 0.004207 0.285008
0.000000 0.089147 0.343396
0.090603 0.105120 0.392587
0.262381 0.087033 0.386009
0.372447 0.070933 0.350223
0.464706 0.062109 0.325132
0.553858 0.057927 0.309741
0.647912 0.056456 0.301960
0.751736 0.057286 0.300444
0.870929 0.059080 0.303977
0.000000 0.256308 0.342212
0.057450 0.260914 0.356980
0.224830 0.254845 0.369532
0.385610 0.237719 0.359612
0.505952 0.207763 0.336360
0.606465 0.181459 0.313977
0.703755 0.163282 0.297785
0.805016 0.150873 0.286324
0.919193 0.143042 0.278559
0.000000 0.368246 0.316531
0.050461 0.371814 0.327818
0.163090 0.379850 0.320053
0.335440 0.373453 0.300948
0.489077 0.359996 0.295665
0.624161 0.349403 0.292762
0.732030 0.326075 0.272113
0.836087 0.306417 0.250591
0.950585 0.295310 0.232020
0.000000 0.467288 0.296920
0.048774 0.470245 0.310536
0.128813 0.479457 0.288007
0.274157 0.481317 0.244436
0.432679 0.470887 0.232188
0.561006 0.457076 0.229367
0.694887 0.462739 0.241014
0.825711 0.471286 0.249245
0.952771 0.474845 0.244860
0.000000 0.563329 0.283997
0.048673 0.565737 0.300110
0.113304 0.573821 0.272952
0.237911 0.577978 0.215348
0.395788 0.573728 0.205053
0.527412 0.566902 0.200553
0.643629 0.556135 0.196630
0.770789 0.561756 0.203104
0.922319 0.590673 0.224406
0.000000 0.663266 0.277300
0.049222 0.665153 0.294947
0.106559 0.671944 0.265760
0.219054 0.676326 0.199460
0.374307 0.674173 0.189414
0.505088 0.670900 0.187401
0.625684 0.666908 0.185184
0.742828 0.664180 0.182775
0.871146 0.672346 0.180941
0.000000 0.770926 0.275723
0.050228 0.772386 0.293784
0.103523 0.778218 0.261596
0.210861 0.782095 0.190314
0.365035 0.781083 0.180447
0.494829 0.779138 0.179610
0.615184 0.776806 0.178139
0.731423 0.774710 0.161928
0.859939 0.784769 0.130115
0.000000 0.893259 0.279726
0.051756 0.894495 0.296770
0.102533 0.899265 0.258837
0.210818 0.902657 0.184312
0.365841 0.902193 0.171190
0.487623 0.902755 0.049265
0.605868 0.903253 0.018062
0.730995 0.900382 0.018062
0.850953 0.895991 0.165829
0.000000 0.000000 0.469720
0.066265 0.000000 0.469466
0.215670 0.000000 0.470398
0.339246 0.000000 0.466757
0.437093 0.000000 0.444600
0.529621 0.000000 0.427222
0.626505 0.000000 0.418328
0.731400 0.000025 0.416272
0.851685 0.000400 0.422025
0.000000 0.071166 0.467886
0.074204 0.089355 0.523934
0.238085 0.076659 0.523834
0.362249 0.066149 0.501287
0.460054 0.060163 0.471373
0.550782 0.056732 0.449307
0.644963 0.054777 0.436882
0.747189 0.053802 0.431974
0.864931 0.053894 0.435100
0.000000 0.227204 0.463628
0.049801 0.237819 0.489286
0.206806 0.236205 0.536997
0.372812 0.222978 0.536327
0.496166 0.196648 0.509683
0.598486 0.173776 0.481383
0.695432 0.155042 0.459553
0.796076 0.140740 0.445111
0.909974 0.130819 0.438819
0.000000 0.364720 0.466564
0.049788 0.368066 0.475309
0.155204 0.371004 0.499873
0.320654 0.360765 0.503991
0.474730 0.346159 0.495853
0.604996 0.320845 0.479387
0.726853 0.289750 0.456469
0.842660 0.260712 0.432622
0.955918 0.252031 0.419947
0.000000 0.467283 0.444516
0.048721 0.469687 0.452270
0.127881 0.477321 0.460560
0.258038 0.481132 0.460434
0.424551 0.470721 0.445098
0.582298 0.461805 0.440191
0.735544 0.457121 0.435921
0.867672 0.433517 0.409006
0.980584 0.430585 0.398525
0.000000 0.563349 0.427134
0.048689 0.565447 0.435757
0.114426 0.572926 0.436075
0.209106 0.581406 0.419075
0.357136 0.581774 0.383186
0.522043 0.570307 0.364987
0.667990 0.559833 0.354116
0.825579 0.572428 0.360071
0.980398 0.587910 0.362564
0.000000 0.663259 0.418226
0.049256 0.665054 0.427476
0.107879 0.671563 0.423227
0.180938 0.680493 0.393424
0.306389 0.685598 0.334034
0.476763 0.679721 0.315468
0.622996 0.670971 0.306379
0.757278 0.664597 0.295554
0.904568 0.675553 0.291344
0.000000 0.770918 0.416204
0.050272 0.772350 0.425535
0.104779 0.777996 0.417728
0.164711 0.786241 0.377661
0.277178 0.792401 0.301372
0.449957 0.789463 0.281554
0.597652 0.783986 0.276138
0.729895 0.778508 0.262141
0.871109 0.785824 0.203612
0.000000 0.893318 0.421488
0.051793 0.894521 0.430266
0.103586 0.899118 0.418462
0.155481 0.906277 0.367557
0.264707 0.912305 0.278633
0.428001 0.912928 0.182551
0.574208 0.911574 0.018062
0.720436 0.905125 0.138377
0.850186 0.898969 0.251334
0.000000 0.000000 0.581087
0.053482 0.000000 0.580848
0.199474 0.000000 0.581478
0.320671 0.000000 0.582093
0.434091 0.000000 0.578589
0.529613 0.000000 0.560333
0.626501 0.000000 0.548997
0.731352 0.000000 0.546381
0.851238 0.000000 0.553185
0.000000 0.057732 0.579799
0.063465 0.078826 0.630534
0.217090 0.067431 0.634573
0.341300 0.062650 0.620542
0.452456 0.058208 0.604743
0.547438 0.055857 0.581554
0.642895 0.054430 0.566580
0.745925 0.053672 0.560882
0.863696 0.053438 0.564956
0.000000 0.208554 0.573525
0.046432 0.222092 0.604761
0.190360 0.219956 0.677260
0.352708 0.207505 0.680826
0.483998 0.185275 0.659635
0.589798 0.166654 0.627789
0.688916 0.150885 0.603003
0.791182 0.138118 0.587259
0.905367 0.128246 0.581535
0.000000 0.339070 0.576074
0.044044 0.345953 0.589434
0.141305 0.347954 0.632807
0.302139 0.342492 0.656774
0.466052 0.335420 0.659949
0.596472 0.309954 0.642461
0.716888 0.280518 0.621763
0.832020 0.252402 0.600898
0.945978 0.238017 0.584822
0.000000 0.464125 0.578553
0.048670 0.466573 0.584538
0.125296 0.472111 0.604778
0.247780 0.470233 0.625736
0.409478 0.456766 0.623495
0.564248 0.446696 0.619122
0.702666 0.421995 0.603553
0.842020 0.391386 0.583276
0.952373 0.392720 0.566487
0.000000 0.563358 0.560302
0.048723 0.565113 0.565938
0.113547 0.571282 0.575459
0.207351 0.577896 0.584935
0.348828 0.578160 0.586476
0.514027 0.566773 0.573576
0.685189 0.568550 0.573501
0.848577 0.562554 0.562067
0.980325 0.561018 0.553078
0.000000 0.663252 0.548956
0.049311 0.664838 0.554938
0.107570 0.670701 0.558655
0.180899 0.678603 0.556162
0.289026 0.685462 0.539503
0.443174 0.684450 0.508012
0.615906 0.672225 0.489661
0.777937 0.665917 0.471231
0.961431 0.691538 0.478454
0.000000 0.770911 0.546298
0.050336 0.772376 0.552380
0.104682 0.777539 0.552039
0.165092 0.785072 0.540221
0.249214 0.793790 0.504976
0.380547 0.799389 0.444110
0.565056 0.792302 0.421547
0.725303 0.782092 0.403795
0.886439 0.783327 0.356843
0.000000 0.893306 0.553093
0.051864 0.894441 0.558788
0.103559 0.898853 0.554806
0.155737 0.905648 0.534451
0.222155 0.914371 0.480820
0.323975 0.923971 0.372573
0.513098 0.922793 0.293451
0.700591 0.911625 0.346236
0.847835 0.902680 0.356354
0.000000 0.000000 0.687602
0.043594 0.000000 0.687401
0.188465 0.000000 0.687575
0.305998 0.000000 0.688673
0.418525 0.000000 0.688859
0.527678 0.000000 0.686639
0.626495 0.000000 0.675220
0.731338 0.000000 0.672001
0.851229 0.000000 0.680241
0.000000 0.047162 0.686604
0.056867 0.072343 0.729910
0.201937 0.060557 0.735744
0.323509 0.059278 0.727159
0.435450 0.056863 0.717075
0.542383 0.055036 0.706858
0.640524 0.054070 0.692085
0.744397 0.053557 0.686120
0.862635 0.053444 0.691654
0.000000 0.198847 0.681632
0.045498 0.212857 0.713602
0.173066 0.203143 0.797724
0.330772 0.189904 0.804351
0.463410 0.174853 0.785591
0.578447 0.158673 0.761924
0.680997 0.145914 0.736759
0.785341 0.135230 0.720838
0.901216 0.126664 0.716763
0.000000 0.316830 0.676364
0.037858 0.325696 0.693113
0.130939 0.329997 0.752210
0.288193 0.328904 0.797061
0.450459 0.320711 0.803257
0.587251 0.296546 0.791938
0.708057 0.270422 0.770361
0.823849 0.245431 0.750466
0.943225 0.226396 0.736956
0.000000 0.443126 0.684412
0.044373 0.447904 0.692759
0.116120 0.452329 0.722643
0.228924 0.447384 0.758162
0.390920 0.439164 0.770391
0.556589 0.436532 0.776724
0.697035 0.411502 0.766690
0.835016 0.379158 0.752793
0.947458 0.377513 0.727672
0.000000 0.561324 0.686620
0.048767 0.563099 0.690948
0.112530 0.568138 0.706412
0.202680 0.572417 0.728905
0.335192 0.566137 0.744413
0.493964 0.547660 0.735514
0.661089 0.542596 0.735840
0.812116 0.518516 0.720492
0.942089 0.508746 0.696588
0.000000 0.663245 0.675166
0.049395 0.664623 0.679375
0.107159 0.669502 0.687879
0.178945 0.676015 0.698035
0.284742 0.681090 0.705808
0.433976 0.679293 0.703327
0.608104 0.666841 0.690382
0.798233 0.677680 0.695375
0.967817 0.679407 0.685268
0.000000 0.770901 0.671950
0.050432 0.772221 0.676265
0.104541 0.776829 0.680366
0.164233 0.783599 0.681284
0.246837 0.791136 0.674065
0.364664 0.796916 0.651516
0.533432 0.794586 0.622310
0.717409 0.781731 0.599003
0.904955 0.779127 0.559825
0.000000 0.893293 0.680137
0.051962 0.894271 0.684285
0.103540 0.898436 0.684870
0.155379 0.904660 0.677955
0.210825 0.913066 0.655361
0.275909 0.924170 0.598660
0.427159 0.931655 0.518064
0.665995 0.918611 0.518764
0.842473 0.905833 0.504765
0.000000 0.000000 0.797199
0.037557 0.000000 0.796926
0.182657 0.000000 0.796787
0.297984 0.000000 0.797742
0.408785 0.000000 0.798449
0.517761 0.000000 0.798485
0.625821 0.000000 0.797748
0.731326 0.000000 0.794812
0.851222 0.000000 0.804517
0.000000 0.040675 0.796301
0.052857 0.068357 0.832580
0.192749 0.055913 0.838727
0.311886 0.055952 0.833353
0.423654 0.055546 0.826855
0.531508 0.054446 0.819938
0.637566 0.053765 0.813734
0.742574 0.053468 0.808255
0.861533 0.053476 0.815745
0.000000 0.193866 0.791985
0.044424 0.207169 0.822323
0.161234 0.190706 0.904786
0.313273 0.177392 0.912456
0.445830 0.164675 0.901564
0.563078 0.151236 0.882624
0.672145 0.140642 0.863271
0.778711 0.132058 0.848183
0.896387 0.124873 0.846258
0.000000 0.308923 0.786105
0.037413 0.318223 0.804403
0.124723 0.320534 0.871101
0.280936 0.321009 0.910345
0.433815 0.314258 0.916170
0.569374 0.292463 0.915182
0.695124 0.262942 0.904890
0.813662 0.238269 0.888471
0.937070 0.216653 0.879145
0.000000 0.423064 0.784948
0.035876 0.429009 0.795168
0.103715 0.433604 0.833573
0.218198 0.432064 0.881478
0.384906 0.431169 0.897494
0.543155 0.429045 0.906897
0.682484 0.407407 0.904910
0.821517 0.374115 0.901124
0.946295 0.362806 0.882767
0.000000 0.548376 0.796011
0.046391 0.551804 0.801792
0.107003 0.556284 0.823077
0.189118 0.556210 0.853637
0.315827 0.544347 0.875292
0.479988 0.533049 0.878279
0.651193 0.534439 0.889904
0.802593 0.510562 0.885582
0.940213 0.496226 0.865956
0.000000 0.662549 0.797729
0.049506 0.663879 0.800963
0.106686 0.667907 0.812885
0.176557 0.672940 0.831530
0.278469 0.675505 0.853716
0.420458 0.666270 0.863460
0.580917 0.640237 0.845992
0.767097 0.641853 0.853563
0.928055 0.623187 0.832708
0.000000 0.770889 0.794751
0.050554 0.771959 0.797940
0.104382 0.776044 0.805052
0.163155 0.781655 0.814083
0.243939 0.787656 0.822960
0.358036 0.791810 0.827263
0.518728 0.788974 0.821202
0.707065 0.773435 0.806104
0.936150 0.796501 0.816248
0.000000 0.893281 0.804401
0.052099 0.894181 0.807586
0.103503 0.897994 0.811120
0.152159 0.903602 0.812682
0.187504 0.911789 0.808542
0.248458 0.921543 0.791596
0.404558 0.926971 0.757529
0.632732 0.919796 0.733231
0.834777 0.904573 0.712236
0.000000 0.000000 0.914004
0.035839 0.000000 0.913833
0.181002 0.000000 0.913452
0.295530 0.000000 0.914181
0.406191 0.000000 0.915433
0.514961 0.000000 0.915717
0.623158 0.000000 0.915737
0.731607 0.000000 0.916075
0.851213 0.000000 0.926842
0.000000 0.038843 0.913127
0.054529 0.069447 0.941633
0.189457 0.058104 0.946996
0.306297 0.058016 0.944086
0.418327 0.057962 0.940896
0.527049 0.056060 0.936553
0.634243 0.053547 0.932243
0.741192 0.053423 0.928761
0.860338 0.053544 0.937571
0.000000 0.192780 0.909476
0.047126 0.205408 0.935599
0.183813 0.210289 0.975153
0.311101 0.207956 0.977055
0.430020 0.197865 0.979878
0.545607 0.183318 0.978410
0.659329 0.158650 0.975464
0.769272 0.141048 0.966826
0.887564 0.137233 0.967563
0.000000 0.308067 0.904213
0.038738 0.316930 0.922364
0.154523 0.322670 0.965619
0.302580 0.334065 0.971031
0.424901 0.335008 0.976372
0.544164 0.329851 0.980606
0.659650 0.314960 0.980578
0.776504 0.292658 0.980284
0.901956 0.276110 0.984423
0.000000 0.416935 0.898704
0.032778 0.423111 0.909999
0.109630 0.428032 0.949443
0.264582 0.433371 0.962060
0.401121 0.438190 0.966723
0.530381 0.442115 0.976367
0.652275 0.436259 0.979618
0.771033 0.422295 0.979207
0.900025 0.410974 0.983694
0.000000 0.534105 0.902830
0.036885 0.538266 0.909605
0.102185 0.541799 0.933112
0.207529 0.540755 0.956589
0.357762 0.535599 0.955403
0.492424 0.534830 0.961192
0.634830 0.543319 0.975952
0.762289 0.534624 0.977569
0.898248 0.522995 0.981499
0.000000 0.658962 0.914861
0.048841 0.661559 0.919047
0.108784 0.665668 0.934507
0.184025 0.667604 0.955351
0.308634 0.661311 0.965518
0.447799 0.643083 0.954417
0.585120 0.633814 0.953911
0.745586 0.646405 0.973616
0.894964 0.633588 0.976523
0.000000 0.771196 0.915986
0.050722 0.772173 0.918355
0.104199 0.775493 0.927614
0.172258 0.779678 0.941071
0.258290 0.783409 0.957844
0.386776 0.783570 0.970322
0.545179 0.772717 0.965391
0.679765 0.739341 0.944301
0.886341 0.750965 0.968435
0.000000 0.893269 0.926687
0.052264 0.894135 0.929198
0.103352 0.897266 0.934871
0.143641 0.902244 0.942511
0.176028 0.909028 0.951079
0.256522 0.915481 0.956484
0.429517 0.917060 0.953214
0.621659 0.912413 0.938087
0.827496 0.895791 0.923223
0.000000 0.000000 1.050065
0.039338 0.000000 1.049827
0.183790 0.000000 1.049497
0.299445 0.000000 1.050079
0.411535 0.000000 1.051430
0.522150 0.000000 1.052147
0.631741 0.000000 1.052154
0.741423 0.000000 1.052163
0.851205 0.000000 1.052170
0.000000 0.042626 1.049097
0.104821 0.114902 1.047017
0.208336 0.120558 1.047210
0.311918 0.121927 1.048642
0.419421 0.124095 1.050943
0.527185 0.125213 1.052142
0.634689 0.125219 1.052150
0.742775 0.125222 1.052157
0.851162 0.125226 1.052165
0.000000 0.195968 1.045098
0.106949 0.223113 1.043635
0.229542 0.249482 1.043435
0.325353 0.254221 1.045687
0.428048 0.258014 1.049446
0.533411 0.260632 1.052054
0.638318 0.260696 1.052145
0.744326 0.260710 1.052152
0.851146 0.260723 1.052160
0.000000 0.312847 1.039739
0.102420 0.326083 1.038317
0.226548 0.342975 1.038002
0.329763 0.355508 1.040234
0.431122 0.361717 1.045598
0.536861 0.367296 1.051183
0.640805 0.368243 1.052140
0.745526 0.368258 1.052147
0.851138 0.368277 1.052155
0.000000 0.422412 1.033055
0.096630 0.429519 1.031509
0.219152 0.439072 1.030496
0.321961 0.447316 1.031570
0.422594 0.452832 1.036835
0.531816 0.461755 1.046603
0.640511 0.467314 1.052132
0.745371 0.467323 1.052143
0.851129 0.467337 1.052150
0.000000 0.535641 1.032043
0.095988 0.539549 1.030741
0.216803 0.543435 1.028091
0.315712 0.545079 1.025245
0.410007 0.544259 1.024911
0.511783 0.545653 1.032973
0.632069 0.559621 1.048385
0.743289 0.563368 1.052139
0.851141 0.563379 1.052146
0.000000 0.662263 1.045520
0.108267 0.664731 1.045129
0.231448 0.666392 1.043004
0.328802 0.664468 1.038487
0.415508 0.656221 1.030424
0.499190 0.642651 1.021673
0.603553 0.640669 1.028274
0.737317 0.661738 1.050642
0.851591 0.662911 1.053395
0.000000 0.781098 1.052076
0.114264 0.782664 1.052084
0.240396 0.784208 1.052094
0.341584 0.785478 1.052285
0.434857 0.785337 1.052853
0.522211 0.779321 1.050303
0.600855 0.757782 1.036823
0.700249 0.741287 1.031576
0.853464 0.768474 1.062425
0.000000 0.893258 1.052070
0.103925 0.893388 1.052584
0.180026 0.895063 1.057930
0.279308 0.896492 1.062510
0.403735 0.895720 1.060634
0.526110 0.893593 1.053401
0.626414 0.893313 1.052116
0.731223 0.893263 1.052060
0.814825 0.857661 1.016135
