luts/warm_cool.cube
LUT_3D_SIZE 5
0.000000 0.000000 0.018062
0.242881 0.001943 0.021192
0.441468 0.003534 0.023610
0.632669 0.005097 0.025895
0.859641 0.006985 0.028573
0.000000 0.260688 0.018062
0.237340 0.257382 0.018145
0.459959 0.240781 0.045985
0.648079 0.222628 0.044248
0.871716 0.223591 0.042918
0.000000 0.467305 0.018062
0.200094 0.467314 0.018062
0.434106 0.464184 0.018062
0.638620 0.449866 0.032885
0.899123 0.488855 0.074249
0.000000 0.663278 0.018062
0.184478 0.663285 0.018062
0.408797 0.663284 0.018062
0.625816 0.662622 0.018062
0.851214 0.668808 0.018062
0.000000 0.893280 0.018062
0.186354 0.893319 0.018062
0.412251 0.893365 0.018062
0.623341 0.896059 0.018062
0.851148 0.894125 0.018062
0.000000 0.000000 0.346599
0.237280 0.000000 0.343183
0.437145 0.000070 0.297047
0.627974 0.001293 0.278867
0.856372 0.004207 0.285008
0.000000 0.256308 0.342212
0.224830 0.254845 0.369532
0.505952 0.207763 0.336360
0.703755 0.163282 0.297785
0.919193 0.143042 0.278559
0.000000 0.467288 0.296920
0.128813 0.479457 0.288007
0.432679 0.470887 0.232188
0.694887 0.462739 0.241014
0.952771 0.474845 0.244860
0.000000 0.663266 0.277300
0.106559 0.671944 0.265760
0.374307 0.674173 0.189414
0.625684 0.666908 0.185184
0.871146 0.672346 0.180941
0.000000 0.893259 0.279726
0.102533 0.899265 0.258837
0.365841 0.902193 0.171190
0.605868 0.903253 0.018062
0.850953 0.895991 0.165829
0.000000 0.000000 0.581087
0.199474 0.000000 0.581478
0.434091 0.000000 0.578589
0.626501 0.000000 0.548997
0.851238 0.000000 0.553185
0.000000 0.208554 0.573525
0.190360 0.219956 0.677260
0.483998 0.185275 0.659635
0.688916 0.150885 0.603003
0.905367 0.128246 0.581535
0.000000 0.464125 0.578553
0.125296 0.472111 0.604778
0.409478 0.456766 0.623495
0.702666 0.421995 0.603553
0.952373 0.392720 0.566487
0.000000 0.663252 0.548956
0.107570 0.670701 0.558655
0.289026 0.685462 0.539503
0.615906 0.672225 0.489661
0.961431 0.691538 0.478454
0.000000 0.893306 0.553093
0.103559 0.898853 0.554806
0.222155 0.914371 0.480820
0.513098 0.922793 0.293451
0.847835 0.902680 0.356354
0.000000 0.000000 0.797199
0.182657 0.000000 0.796787
0.408785 0.000000 0.798449
0.625821 0.000000 0.797748
0.851222 0.000000 0.804517
0.000000 0.193866 0.791985
0.161234 0.190706 0.904786
0.445830 0.164675 0.901564
0.672145 0.140642 0.863271
0.896387 0.124873 0.846258
0.000000 0.423064 0.784948
0.103715 0.433604 0.833573
0.384906 0.431169 0.897494
0.682484 0.407407 0.904910
0.946295 0.362806 0.882767
0.000000 0.662549 0.797729
0.106686 0.667907 0.812885
0.278469 0.675505 0.853716
0.580917 0.640237 0.845992
0.928055 0.623187 0.832708
0.000000 0.893281 0.804401
0.103503 0.897994 0.811120
0.187504 0.911789 0.808542
0.404558 0.926971 0.757529
0.834777 0.904573 0.712236
0.000000 0.000000 1.050065
0.183790 0.000000 1.049497
0.411535 0.000000 1.051430
0.631741 0.000000 1.052154
0.851205 0.000000 1.052170
0.000000 0.195968 1.045098
0.229542 0.249482 1.043435
0.428048 0.258014 1.049446
0.638318 0.260696 1.052145
0.851146 0.260723 1.052160
0.000000 0.422412 1.033055
0.219152 0.439072 1.030496
0.422594 0.452832 1.036835
0.640511 0.467314 1.052132
0.851129 0.467337 1.052150
0.000000 0.662263 1.045520
0.231448 0.666392 1.043004
0.415508 0.656221 1.030424
0.603553 0.640669 1.028274
0.851591 0.662911 1.053395
0.000000 0.893258 1.052070
0.180026 0.895063 1.057930
0.403735 0.895720 1.060634
0.626414 0.893313 1.052116
0.814825 0.857661 1.016135
